/* XPM */
static char *dummy[]={
"64 64 177 2",
"aS c #004000",
"aR c #006000",
"aI c #108000",
"aQ c #2027dd",
"aO c #2126df",
"aP c #2127de",
"aM c #2225df",
"aJ c #2325e0",
"aH c #2424e1",
"aG c #2424e2",
"aF c #2523e3",
"aE c #2622e4",
"aq c #2721e5",
"ay c #2722e4",
"aU c #280108",
"ai c #2821e6",
"a# c #2920e7",
"#2 c #2a1fe8",
"#S c #2a1fe9",
"#K c #2b1ee9",
"#A c #2c1eea",
"#t c #2d1deb",
"#j c #2e1cec",
"## c #2e1ced",
".2 c #2f1bee",
".T c #301bef",
".A c #3119f0",
".J c #311aef",
".r c #3219f1",
".l c #3318f2",
".i c #3417f4",
".j c #3418f3",
".h c #3516f4",
".g c #3616f5",
".f c #3715f6",
".e c #3715f7",
".d c #3814f8",
".c c #3913f9",
".a c #3a12fa",
".b c #3a13f9",
".# c #3b12fb",
"Qt c #3c11fc",
"aL c #40a000",
".m c #4325df",
".K c #4429d9",
".s c #4629d9",
"az c #4935b7",
"ar c #5239ac",
".S c #542fc4",
".p c #5434cb",
"aa c #5437ad",
".x c #5537c7",
"#f c #582eb9",
"#O c #5b32af",
"aK c #60c800",
"#p c #6335ab",
"aj c #6340a1",
"#y c #643baa",
"#F c #6545aa",
"#3 c #664095",
"aT c #682001",
".n c #6a44b1",
".o c #6a45b1",
"#T c #6d4398",
"#B c #714298",
"#L c #714398",
"#u c #755099",
"aD c #774f7b",
"#a c #77539a",
"#k c #77549a",
".3 c #78539a",
"ah c #7a4d79",
"ax c #7b5177",
".B c #7c5398",
".U c #7f5894",
"aN c #80e000",
"#Y c #884f7b",
"#1 c #975951",
"ap c #975b4f",
"a. c #9d604c",
".L c #9d7671",
"aC c #a5673e",
".t c #a57e6a",
"aB c #a6683e",
"aA c #a6693e",
"#e c #a67865",
"#R c #a76051",
"#N c #a97f5e",
"#E c #ab7e5d",
"#o c #ac7e5d",
"#i c #ae6153",
"#s c #ae6452",
"#I c #ae6552",
"#. c #b47c54",
".1 c #ba7649",
".H c #bd8c4d",
"as c #bf7627",
"#X c #c18b43",
"ab c #c58329",
".R c #c98d3d",
".7 c #cf7b2f",
".w c #d39c34",
"aw c #d8820f",
"#J c #d88500",
"ag c #d99716",
"#4 c #e39500",
".6 c #e5bf19",
"at c #ed8d00",
"au c #ee9b00",
"ao c #eea100",
"ak c #f09a00",
"#0 c #f0cd00",
"av c #f2a800",
"#9 c #f2ac00",
"#U c #f3af00",
"#7 c #f49300",
".I c #f49600",
"#C c #f7b600",
"#g c #f7bb00",
"#P c #f8bb00",
"#q c #f8bc00",
"#Z c #f9b600",
"#M c #f9b900",
"#Q c #f9df00",
"ae c #faaa00",
"#z c #fac600",
"#6 c #fbbb00",
"#8 c #fcb000",
".0 c #fcbe00",
"af c #fcc500",
"ad c #fcdb00",
"#H c #fcdd00",
"#h c #fcde00",
"#r c #fcdf00",
".Y c #fdc300",
"#v c #fdce00",
".8 c #fdd400",
"al c #feb800",
"am c #feba00",
"ac c #febb00",
"#G c #fed500",
".X c #fee23c",
".9 c #feed00",
".k c #ffc300",
"an c #ffc700",
".G c #ffc900",
".v c #ffcc00",
".u c #ffd200",
".C c #ffd600",
"#b c #ffd621",
"#l c #ffd700",
".4 c #ffd752",
".V c #ffd816",
".M c #ffe214",
"#d c #ffe6aa",
"#D c #ffe800",
"#x c #ffe84e",
"#n c #ffe8a4",
"#W c #ffeb00",
"#5 c #ffec00",
".Z c #ffed00",
".Q c #ffee00",
".F c #fff31e",
"#V c #fff700",
".P c #fff850",
".5 c #fff99e",
".O c #fff9e6",
".q c #ffff00",
".D c #ffff15",
"#w c #ffff2d",
".E c #ffff48",
"#m c #ffff55",
".N c #ffff92",
".z c #ffffa3",
"#c c #ffffba",
".W c #ffffee",
".y c #ffffff",
"QtQtQtQtQtQtQtQtQtQtQtQtQtQtQtQtQtQtQtQtQtQtQtQtQtQtQtQtQtQtQtQtQtQtQtQtQtQtQtQtQtQtQtQtQtQtQtQtQtQtQtQtQtQtQtQtQtQtQtQtQtQtQtQt",
".#.#.#.#.#.#.#.#.#.#.#.#.#.#.#.#.#.#.#.#.#.#.#.#.#.#.#.#.#.#.#.#.#.#.#.#.#.#.#.#.#.#.#.#.#.#.#.#.#.#.#.#.#.#.#.#.#.#.#.#.#.#.#.#",
".a.a.a.a.a.a.a.a.a.a.a.a.a.a.a.a.a.a.a.a.a.a.a.a.a.a.a.a.a.a.a.a.a.a.a.a.a.a.a.a.a.a.a.a.a.a.a.a.a.a.a.a.a.a.a.a.a.a.a.a.a.a.a.a",
".b.b.b.b.b.b.b.b.b.b.b.b.b.b.b.b.b.b.b.b.b.b.b.b.b.b.b.b.b.b.b.b.b.b.b.b.b.b.b.b.b.b.b.b.b.b.b.b.b.b.b.b.b.b.b.b.b.b.b.b.b.b.b.b",
".c.c.c.c.c.c.c.c.c.c.c.c.c.c.c.c.c.c.c.c.c.c.c.c.c.c.c.c.c.c.c.c.c.c.c.c.c.c.c.c.c.c.c.c.c.c.c.c.c.c.c.c.c.c.c.c.c.c.c.c.c.c.c.c",
".d.d.d.d.d.d.d.d.d.d.d.d.d.d.d.d.d.d.d.d.d.d.d.d.d.d.d.d.d.d.d.d.d.d.d.d.d.d.d.d.d.d.d.d.d.d.d.d.d.d.d.d.d.d.d.d.d.d.d.d.d.d.d.d",
".e.e.e.e.e.e.e.e.e.e.e.e.e.e.e.e.e.e.e.e.e.e.e.e.e.e.e.e.e.e.e.e.e.e.e.e.e.e.e.e.e.e.e.e.e.e.e.e.e.e.e.e.e.e.e.e.e.e.e.e.e.e.e.e",
".f.f.f.f.f.f.f.f.f.f.f.f.f.f.f.f.f.f.f.f.f.f.f.f.f.f.f.f.f.f.f.f.f.f.f.f.f.f.f.f.f.f.f.f.f.f.f.f.f.f.f.f.f.f.f.f.f.f.f.f.f.f.f.f",
".g.g.g.g.g.g.g.g.g.g.g.g.g.g.g.g.g.g.g.g.g.g.g.g.g.g.g.g.g.g.g.g.g.g.g.g.g.g.g.g.g.g.g.g.g.g.g.g.g.g.g.g.g.g.g.g.g.g.g.g.g.g.g.g",
".h.h.h.h.h.h.h.h.h.h.h.h.h.h.h.h.h.h.h.h.h.h.h.h.h.h.h.h.h.h.h.h.h.h.h.h.h.h.h.h.h.h.h.h.h.h.h.h.h.h.h.h.h.h.h.h.h.h.h.h.h.h.h.h",
".i.i.i.i.i.i.i.i.i.i.i.i.i.i.i.i.i.i.i.i.i.i.i.i.i.i.i.i.i.i.i.i.i.i.i.i.i.i.i.i.i.i.i.i.i.i.i.i.i.i.i.i.i.i.i.i.i.i.i.i.i.i.i.i",
".j.j.j.j.j.j.j.j.j.j.j.j.j.j.j.j.j.j.j.j.j.j.j.j.j.j.j.j.j.j.j.j.j.j.j.j.j.j.j.j.j.j.j.j.j.j.j.j.j.j.j.j.j.j.j.j.k.k.k.k.j.j.j.j",
".l.l.l.l.l.l.l.l.l.l.l.l.l.l.l.l.l.l.l.l.l.l.m.n.n.o.p.l.l.l.l.l.l.l.l.l.l.l.l.l.l.l.l.l.l.l.l.l.l.l.l.l.l.l.l.k.q.q.q.k.k.l.l.l",
".r.r.r.r.r.r.r.r.r.r.r.r.r.r.r.r.r.r.r.r.r.s.t.u.u.v.w.x.r.r.r.r.r.r.r.r.r.r.r.r.r.r.r.r.r.r.r.r.r.r.r.r.r.r.r.k.q.y.z.q.k.r.r.r",
".A.A.A.A.A.A.A.A.A.A.A.A.A.A.A.A.A.A.A.A.A.B.C.D.E.F.G.H.A.A.A.A.A.A.A.A.A.A.A.A.A.A.A.A.A.A.A.A.A.A.A.A.A.A.k.q.y.z.k.q.k.I.A.A",
".J.J.J.J.J.J.J.J.J.J.J.J.J.J.J.J.J.J.J.J.K.L.M.N.O.P.Q.R.S.J.J.J.J.J.J.J.J.J.J.J.J.J.J.J.J.J.J.J.J.J.J.J.J.J.k.y.y.q.I.k.q.k.J.J",
".T.T.T.T.T.T.T.T.T.T.T.T.T.T.T.T.T.T.T.T.U.V.N.W.X.Y.Z.0.1.T.T.T.T.T.T.T.T.T.T.T.T.T.T.T.T.T.T.T.T.T.T.T.T.T.k.z.y.k.T.I.q.I.T.T",
".2.2.2.2.2.2.2.2.2.2.2.2.2.2.2.2.2.2.2.2.3.4.y.5.6.7.8.9#..2.2.2.2.2.2.2.2.2.2.2.2.2.2.2.2.2.2.2.2.2.2.2.2.2.k.q.y.k.2.I.q.I.2.2",
"#########################################a#b#c#d#e#f#g#h#i##################################################.k.q.z.k##.I.q.I####",
"#j#j#j#j#j#j#j#j#j#j#j#j#j#j#j#j#j#j#j#j#k#l#m#n#o#p#q#r#s#j#j#j#j#j#j#j#j#j#j#j#j#j#j#j#j#j#j#j#j#j#j#j#j#j.I.q.q.k#j.k.q.I#j#j",
"#t#t#t#t#t#t#t#t#t#t#t#t#t#t#t#t#t#t#t#t#u#v#w#x#o#y#z#h#s#t#t#t#t#t#t#t#t#t#t#t#t#t#t#t#t#t#t#t#t#t#t#t#t#t.I.q.q.k#t.I.q.I#t#t",
"#A#A#A#A#A#A#A#A#A#A#A#A#A#A#A#A#A#A#A#A#B#C.q#D#E#F#G#H#I#A#A#A#A#A#A#A#A#A#A#A#A#A#A#A#A#A#A#A#A#A#A#A#A#A.I.q.q.k#A.I.q#J#A#A",
"#K#K#K#K#K#K#K#K#K#K#K#K#K#K#K#K#K#K#K#K#L#M.q#D#N#O#P#Q#R#K#K#K#K#K#K#K#K#K#K#K#K#K#K#K#K#K#K#K#K#K#K#K#K#K#J.k.q.k.I.I.k#J#K#K",
"#S#S#S#S#S#S#S.k.k.k.k#S#S#S#S#S#S#S#S#S#T#U#V#W#X#Y#Z#0#1#S#S#S#S#S#S#S#S#S#S.k.k.k.k#S#S#S#S#S#S#S#S#S#S#S#J.k.k.q.I.k.k#J#S#S",
"#2#2#2#2#2#2.k.q.q.q.k.k#2#2#2#2#2#2#2#2#3#4#l#5#6#7#8#9a.#2#2#2#2#2#2#2#2#2.k.q.q.q.k.k#2#2#2#2#2#2#2#2#2#2#2.I.k.k.k.k#J#2#2#2",
"a#a#a#a#a#a#.k.q.y.z.q.ka#a#a#a#a#a#a#a#aaabac.Cadaeafagaha#a#a#a#a#a#a#a#a#.k.q.y.z.q.ka#a#a#a#a#a#a#a#a#a#a##J.I.I.k.I#Ja#a#a#",
"aiaiaiaiai.k.q.y.z.k.q.k.Iaiaiaiaiaiaiaiaiajakalamanaoapaiaiaiaiaiaiaiaiai.k.q.y.z.k.q.k.Iaiaiaiaiaiaiaiaiaiaiai#J#J#J#Jaiaiaiai",
"aqaqaqaqaq.k.y.y.q.I.k.q.kaqaqaqaqaqaqaqaqarasatauavawaxaqaqaqaqaqaqaqaqaq.k.y.y.q.I.k.q.kaqaqaqaqaqaqaqaqaqaqaqaqaqaqaqaqaqaqaq",
"ayayayayay.k.z.y.kay.I.q.IayayayayayayayayayazaAaBaCaDayayayayayayayayayay.k.z.y.kay.I.q.Iayayayayayayayayayayayayayayayayayayay",
"aEaEaEaEaE.k.q.y.kaE.I.q.IaEaEaEaEaEaEaEaEaEaEaEaEaEaEaEaEaEaEaEaEaEaEaEaE.k.q.y.kaE.I.q.IaEaEaEaEaEaEaEaEaEaEaEaEaEaEaEaEaEaEaE",
"aFaFaFaFaF.k.q.z.kaF.I.q.IaFaFaFaFaFaFaFaFaFaFaFaFaFaFaFaFaFaFaFaFaFaFaFaF.k.q.z.kaF.I.q.IaFaFaFaFaFaFaFaFaFaFaFaFaFaFaFaFaFaFaF",
"aGaGaGaGaG.I.q.q.kaG.k.q.IaGaGaGaGaGaGaGaGaGaGaGaGaGaGaGaGaGaGaGaGaGaGaGaG.I.q.q.kaG.k.q.IaGaGaGaGaGaGaGaGaGaGaGaGaGaGaGaGaGaGaG",
"aHaHaHaHaH.I.q.q.kaH.I.q.IaHaHaHaHaHaHaHaHaHaHaHaHaHaHaHaHaHaHaHaHaHaHaHaH.I.q.q.kaH.I.q.IaHaHaHaHaHaHaHaHaHaHaHaHaHaHaHaHaHaHaH",
"aHaHaHaHaH.I.q.q.kaH.I.q#JaHaHaHaHaHaHaHaHaHaHaHaHaHaHaHaHaHaHaHaHaHaHaHaH.I.q.q.kaH.I.q#JaHaHaHaIaHaHaHaHaHaHaHaHaHaHaHaHaHaHaH",
"aJaJaJaJaJ#J.k.q.k.I.I.k#JaJaJaJaJaJaJaJaJaJaJaJaJaJaJaJaJaJaJaJaJaJaJaJaJ#J.k.q.k.I.I.k#JaKaJaIaLaJaJaIaJaJaJaIaJaJaJaJaJaKaJaI",
"aIaMaMaMaM#J.k.k.q.I.k.k#JaMaMaMaMaMaMaMaMaMaMaIaMaMaMaMaMaMaMaMaMaMaMaMaM#J.k.k.q.I.k.k#JaNaMaLaLaMaKaLaMaMaMaLaMaMaIaMaMaNaMaL",
"aLaOaOaIaOaO.I.k.k.k.k#JaOaOaOaOaOaOaOaOaIaOaOaLaIaOaKaOaOaOaOaOaOaOaOaOaIaO.I.k.k.k.k#JaIaNaIaLaLaIaNaLaIaOaIaLaOaIaLaOaIaNaIaL",
"aLaPaKaLaPaK#J.I.I.k.I#JaIaPaPaIaIaPaKaPaLaKaPaLaLaPaNaPaIaPaPaIaIaPaKaPaLaK#J.I.I.k.I#JaLaNaLaLaLaLaNaNaLaKaLaLaIaLaNaKaLaNaLaL",
"aLaIaNaLaQaNaQ#J#J#J#JaLaLaKaQaLaLaQaNaQaLaNaIaLaLaIaNaIaLaKaQaLaLaQaNaQaLaNaI#J#J#J#JaIaLaNaLaLaLaLaNaNaLaNaLaLaLaLaNaNaLaNaLaL",
"aLaLaNaNaIaNaIaLaLaIaNaLaLaNaIaLaLaIaNaIaNaNaLaLaLaLaNaLaLaNaIaLaLaIaNaIaNaNaLaLaLaLaNaLaLaNaLaLaLaLaNaNaLaNaLaLaLaLaNaNaLaNaLaL",
"aLaLaNaNaLaNaLaLaLaLaNaNaNaNaLaLaLaLaNaLaNaNaLaLaLaLaNaLaNaNaLaLaLaLaNaLaNaNaLaLaLaLaNaLaNaNaLaLaLaLaNaNaLaNaLaLaLaLaNaNaNaNaLaL",
"aLaLaNaNaLaNaLaLaLaLaNaNaNaNaLaLaLaLaNaLaNaNaLaLaLaLaNaLaNaNaLaLaLaLaNaLaNaNaLaLaLaLaNaLaNaKaLaLaLaLaNaNaNaNaLaLaLaLaKaNaNaKaLaL",
"aLaLaNaNaLaNaLaLaLaLaNaNaNaNaLaLaLaLaNaLaNaNaLaLaLaLaNaNaNaNaLaLaLaLaNaLaNaNaLaLaLaLaNaNaNaKaLaLaLaLaKaNaNaNaLaIaLaLaKaNaNaKaLaL",
"aLaLaNaNaNaNaLaLaLaLaNaNaNaNaLaLaLaLaNaNaNaNaLaLaLaLaKaNaNaNaLaLaLaLaNaNaNaNaLaLaLaLaKaNaNaLaIaLaLaLaKaNaNaKaLaIaLaLaLaKaNaLaIaL",
"aLaLaKaNaNaKaLaLaLaLaKaKaKaKaLaLaLaLaKaNaNaKaLaLaLaLaKaNaKaKaLaLaLaLaKaNaNaKaLaLaLaLaKaNaKaLaIaLaIaLaLaKaNaKaLaRaIaLaLaKaKaLaIaL",
"aLaLaKaKaNaKaLaLaLaLaKaKaKaKaLaLaLaLaKaNaKaKaLaLaLaIaLaKaKaKaLaLaLaLaKaNaKaKaLaLaLaIaLaKaKaLaRaLaIaLaLaKaKaLaIaRaIaLaLaLaKaLaRaL",
"aIaLaLaKaKaLaIaIaIaLaLaLaLaLaLaIaIaIaLaKaKaLaLaIaLaIaLaKaLaLaLaIaIaIaLaKaKaLaLaIaLaIaLaKaLaLaRaIaRaLaLaLaKaLaIaRaRaLaLaLaLaLaRaI",
"aIaLaLaLaKaLaIaIaIaLaLaLaLaLaLaIaIaIaLaKaLaLaLaIaIaRaLaLaLaLaLaIaIaIaLaKaLaLaLaIaIaRaLaLaLaLaRaIaRaIaLaLaLaLaRaRaRaIaLaLaLaLaRaI",
"aRaIaLaLaLaLaRaRaRaIaLaLaLaLaIaRaRaRaLaLaLaLaIaRaIaRaLaLaLaLaIaRaRaRaLaLaLaLaIaRaIaRaLaLaLaLaRaRaRaIaLaLaLaLaRaRaRaIaLaLaLaLaRaR",
"aRaIaLaLaLaLaRaRaRaIaLaLaLaLaIaRaRaRaLaLaLaLaIaRaRaRaLaLaLaLaIaRaRaRaLaLaLaLaIaRaRaRaLaLaLaLaRaRaRaRaLaLaLaLaRaRaRaRaLaLaLaLaRaR",
"aRaRaLaLaLaLaRaRaRaRaLaLaLaLaRaRaRaRaLaLaLaLaRaRaRaRaLaLaLaLaRaRaRaRaLaLaLaLaRaRaRaRaLaLaLaLaRaRaRaRaLaLaLaLaRaRaRaRaLaLaLaLaRaR",
"aRaRaLaLaLaLaRaRaRaRaLaLaLaLaRaRaRaRaLaLaLaLaRaRaRaRaLaLaLaLaRaRaRaRaLaLaLaLaRaRaRaRaLaLaLaLaRaSaRaRaLaLaLaLaRaRaRaSaLaIaLaLaRaS",
"aRaRaLaLaLaLaRaRaRaSaLaIaIaLaSaRaRaRaLaLaLaLaRaRaSaRaLaLaIaLaSaRaRaRaLaLaLaLaRaRaSaRaLaLaLaLaRaTaSaRaLaIaLaIaRaRaRaTaLaTaLaLaRaT",
"aSaRaLaIaLaLaRaRaRaTaLaTaTaLaTaRaRaRaLaLaIaLaRaSaTaRaLaLaTaLaTaRaRaRaLaLaIaLaRaSaTaRaLaLaIaLaRaTaUaRaIaUaLaUaRaRaSaTaIaTaIaLaRaT",
"aUaSaIaUaIaIaSaSaSaTaIaTaTaIaTaSaSaSaIaIaUaIaSaUaTaSaIaIaTaIaTaSaSaSaIaIaUaIaSaUaTaSaIaIaTaIaSaTaUaSaUaUaIaUaSaSaTaTaTaTaTaIaSaT",
"aUaUaUaUaUaUaUaUaTaTaTaTaTaTaTaTaUaUaUaUaUaUaUaUaTaTaTaTaTaTaTaTaUaUaUaUaUaUaUaUaTaTaTaTaTaTaTaTaUaUaUaUaUaUaUaUaTaTaTaTaTaTaTaT",
"aUaUaUaUaUaUaUaUaTaTaTaTaTaTaTaTaUaUaUaUaUaUaUaUaTaTaTaTaTaTaTaTaUaUaUaUaUaUaUaUaTaTaTaTaTaTaTaTaUaUaUaUaUaUaUaUaTaTaTaTaTaTaTaT",
"aUaUaUaUaUaUaUaUaTaTaTaTaTaTaTaTaUaUaUaUaUaUaUaUaTaTaTaTaTaTaTaTaUaUaUaUaUaUaUaUaTaTaTaTaTaTaTaTaUaUaUaUaUaUaUaUaTaTaTaTaTaTaTaT",
"aTaTaTaTaTaTaTaTaUaUaUaUaUaUaUaUaTaTaTaTaTaTaTaTaUaUaUaUaUaUaUaUaTaTaTaTaTaTaTaTaUaUaUaUaUaUaUaUaTaTaTaTaTaTaTaTaUaUaUaUaUaUaUaU",
"aTaTaTaTaTaTaTaTaUaUaUaUaUaUaUaUaTaTaTaTaTaTaTaTaUaUaUaUaUaUaUaUaTaTaTaTaTaTaTaTaUaUaUaUaUaUaUaUaTaTaTaTaTaTaTaTaUaUaUaUaUaUaUaU",
"aTaTaTaTaTaTaTaTaUaUaUaUaUaUaUaUaTaTaTaTaTaTaTaTaUaUaUaUaUaUaUaUaTaTaTaTaTaTaTaTaUaUaUaUaUaUaUaUaTaTaTaTaTaTaTaTaUaUaUaUaUaUaUaU",
"aTaTaTaTaTaTaTaTaUaUaUaUaUaUaUaUaTaTaTaTaTaTaTaTaUaUaUaUaUaUaUaUaTaTaTaTaTaTaTaTaUaUaUaUaUaUaUaUaTaTaTaTaTaTaTaTaUaUaUaUaUaUaUaU",
"aTaTaTaTaTaTaTaTaUaUaUaUaUaUaUaUaTaTaTaTaTaTaTaTaUaUaUaUaUaUaUaUaTaTaTaTaTaTaTaTaUaUaUaUaUaUaUaUaTaTaTaTaTaTaTaTaUaUaUaUaUaUaUaU",
"aTaTaTaTaTaTaTaTaUaUaUaUaUaUaUaUaTaTaTaTaTaTaTaTaUaUaUaUaUaUaUaUaTaTaTaTaTaTaTaTaUaUaUaUaUaUaUaUaTaTaTaTaTaTaTaTaUaUaUaUaUaUaUaU"};
