/* XPM */
static char *dummy[]={
"64 64 631 2",
"a4 c #003800",
"bw c #003a00",
"aD c #003c00",
"bS c #003d00",
"aE c #003e00",
"bv c #003f00",
"ft c #003f01",
"a5 c #004000",
"d7 c #004100",
"cc c #004200",
"bu c #004600",
"#S c #004c00",
"dM c #004d01",
"#o c #005300",
"ak c #005302",
"aF c #005500",
"#Z c #005600",
"cz c #005900",
"et c #005a00",
"fq c #005b01",
"d6 c #005d00",
"cx c #005e00",
"#u c #005f00",
"cy c #006000",
"es c #006100",
".4 c #006300",
"d5 c #006500",
"eO c #013e07",
"gE c #014b05",
".0 c #016200",
"cT c #016306",
"dL c #016500",
"fO c #023d0b",
"bR c #024009",
"er c #026100",
".Z c #034b04",
"#p c #035c00",
"#v c #036700",
"gQ c #044a16",
"cb c #044b14",
"#0 c #046700",
"cS c #046a02",
"f5 c #054a1e",
"aj c #055500",
"fL c #05571c",
"eP c #064920",
"d8 c #064a20",
"#t c #065e0a",
"cw c #076c00",
"gk c #084d2b",
"cR c #086c00",
"aG c #086e00",
"f8 c #0a3835",
"bT c #0a5100",
"au c #0a5b1f",
"ad c #0b5400",
"dr c #0c5e20",
"dK c #0c6d00",
"eN c #0d4441",
"cA c #0d6a00",
"#T c #0d6f00",
"e8 c #0e344b",
"#Y c #0e483f",
"g2 c #10405d",
"ae c #105b35",
".G c #106c05",
"hF c #108000",
"a3 c #115a02",
"a6 c #125e00",
"c8 c #136401",
"#R c #137200",
"dJ c #147b00",
"gl c #153b74",
"d4 c #155e00",
"aX c #156528",
"c# c #164067",
"gn c #172c80",
"#X c #173464",
".F c #173b62",
"ca c #17416c",
"c4 c #187314",
"fs c #192d82",
"be c #196338",
"gi c #1a2012",
"gD c #1a2a93",
"e7 c #1a3887",
"eu c #1a3985",
"c5 c #1a5658",
"gB c #1c2b9e",
"fr c #1c2c95",
"dN c #1c358b",
"eM c #1c5900",
"gC c #1d2ca6",
"bt c #1d2f85",
"bQ c #1d3489",
"dq c #1d8300",
"af c #1e6343",
"dm c #1f0d06",
"g3 c #1f2fb5",
"hQ c #2021c5",
"hY c #2027dd",
"fR c #2035af",
"fp c #203800",
"c. c #205067",
"hV c #2126df",
"hX c #2127de",
"hb c #212cc2",
"gR c #212ebc",
"ht c #221fca",
"hR c #2225df",
"gA c #2229be",
"gF c #222cc0",
"da c #22408b",
"hL c #2325e0",
"hc c #2328cf",
"go c #232bc2",
"f9 c #232bc3",
"f4 c #234b11",
"hz c #2424e1",
"hu c #2424e2",
"fP c #242ac3",
"fw c #242dc3",
"bl c #247036",
"bG c #248d00",
"hm c #2523e3",
"e9 c #252ac2",
"fu c #252ac3",
"gV c #252ec7",
".5 c #254384",
"#w c #254386",
"gj c #254e6c",
"hy c #2620c8",
"hN c #2621c6",
"fN c #2621d0",
"hd c #2622e4",
"ho c #2626df",
"gt c #262acf",
"he c #262ad5",
"gH c #262bce",
"hg c #262fc8",
"gT c #2640a3",
".I c #264383",
"eb c #265b64",
"g. c #266060",
"gO c #271ecc",
"gP c #2720e1",
"g1 c #2721e2",
"gS c #2721e5",
"hU c #2722c1",
"g7 c #2722e2",
"g4 c #2722e4",
"hn c #2727de",
"eT c #2731ba",
"gr c #27694f",
"h0 c #280108",
"gz c #280c5a",
"hp c #2820cb",
"gG c #2821e6",
"gq c #2822df",
"aq c #2823b2",
"eF c #283989",
"g6 c #286559",
"#N c #28752c",
"cd c #288a00",
"#5 c #289000",
"g0 c #291eca",
"fM c #2920dc",
"f7 c #2920e3",
"gp c #2920e7",
"eQ c #2924d5",
"fV c #2924e1",
"dw c #292ec0",
"g5 c #295f67",
"#4 c #298900",
"dn c #298a00",
"dI c #298b00",
"gm c #2a1fe7",
"f6 c #2a1fe8",
"fQ c #2a1fe9",
"ek c #2a2db2",
"dR c #2a2fbf",
"gu c #2a31bf",
"eZ c #2a368f",
"dY c #2a3783",
"ga c #2a5974",
"gJ c #2a6164",
"fv c #2b1ee9",
"av c #2b20c0",
"eS c #2b26d7",
"fh c #2b32ac",
"gK c #2c1ecd",
"f. c #2c1eea",
"d9 c #2c21de",
"hv c #2c22c8",
"fg c #2c28d5",
"aC c #2c7c00",
".H c #2c8412",
"dv c #2c8718",
"cU c #2c9300",
"eR c #2d1deb",
"ey c #2d1ee6",
"df c #2d22db",
"f# c #2d24e0",
"hW c #2d25b6",
"hS c #2d25c1",
"c6 c #2d36a6",
"#f c #2d38a7",
"c7 c #2d3e32",
".E c #2d5462",
"de c #2d8816",
"aH c #2d9300",
"#n c #2d9500",
"ec c #2e1ceb",
"ev c #2e1cec",
"e. c #2e1ced",
"gW c #2e1ecb",
"ej c #2e1ee8",
"ed c #2e20e5",
"#M c #2e23ca",
"hf c #2e6e50",
"#i c #2e9300",
"ds c #2f1be4",
"dO c #2f1bee",
"ex c #2f8224",
"#3 c #2f8d0d",
"aY c #301bda",
"bm c #301bdb",
"dt c #301bef",
"cN c #301ce7",
"cG c #301de6",
"ew c #3031c6",
"eU c #3033c2",
"at c #307140",
"aR c #30753a",
"gI c #309108",
"ap c #3116da",
"cY c #3119f0",
"db c #311aef",
"#h c #3123d1",
"dA c #312bda",
"dP c #312dcd",
"e# c #312ecc",
"aQ c #3133b3",
"cX c #31802a",
"#d c #318d13",
"al c #319400",
"c3 c #319500",
"cH c #3219f1",
"cu c #3224d9",
"du c #322dce",
".P c #3236b0",
"ai c #329600",
"dp c #329700",
".q c #3318d9",
"cm c #3318f2",
"dc c #332cce",
"cZ c #332ccf",
"b8 c #332ec8",
"b9 c #3342a2",
"gb c #335488",
"#L c #335878",
"cQ c #339700",
"dG c #33a100",
"bK c #3417f4",
"b1 c #3418f3",
"cF c #3420e6",
"cI c #342cd0",
"eE c #3442a9",
"gU c #348b1a",
"fS c #349110",
"dH c #349700",
"bk c #3516f4",
".r c #351fd9",
"cn c #352ccf",
"dX c #3544ae",
"aW c #35459a",
"c1 c #35469e",
"#e c #355876",
"cO c #357840",
"gh c #360505",
"aV c #3616f5",
"b2 c #3624e1",
"gs c #36940b",
"a7 c #369700",
"#g c #3715ef",
"ao c #3715f5",
"ar c #3715f6",
"#1 c #3715f7",
"cE c #3727dd",
"dg c #3733ca",
"cv c #379706",
"#x c #3814f8",
"aU c #3816f5",
"as c #3818f3",
".Q c #381ce6",
"#2 c #3836bd",
"bx c #388c00",
".1 c #389a00",
"g# c #389b00",
"#a c #389c00",
".6 c #3913f9",
"dS c #3938ca",
"ez c #395198",
"c0 c #39626d",
".s c #3a12fa",
".J c #3a13f9",
"bP c #3a31cf",
".O c #3a5e70",
"#c c #3a9a03",
"bF c #3a9c00",
"#b c #3a9d00",
"## c #3a9f00",
".h c #3b12fb",
".R c #3b2cce",
"cM c #3b656f",
"d# c #3b9b02",
"Qt c #3c11fc",
"bs c #3c34ca",
".3 c #3c8637",
"#l c #3c9d00",
"ah c #3c9f00",
"aI c #3ca001",
"#B c #3ca100",
"bn c #3d29e0",
"aw c #3d38cc",
"c2 c #3d9e00",
".7 c #3e1df0",
"bL c #3e2fda",
"cD c #3e5e7e",
"cK c #3e9d00",
"ea c #3e9d03",
"#k c #3e9e00",
"cL c #3e9f00",
"c9 c #3ea100",
".g c #3f23e1",
"aZ c #3f25e8",
"fx c #3f9629",
"bW c #3f9e00",
"ag c #3f9f00",
"cB c #3fa000",
"#m c #3fa200",
"ac c #409400",
"cJ c #409e03",
"#j c #409f00",
"#P c #40a000",
"#O c #40a100",
".v c #4126e9",
".u c #4127e1",
".p c #413db8",
"dj c #416e6d",
"aS c #418732",
"dQ c #419e03",
"dd c #41a000",
"cW c #41a100",
"ce c #41a200",
"hE c #422a9f",
"eY c #426d72",
"cP c #42a100",
"cV c #42a200",
"#Q c #42a300",
".t c #4324ef",
"cC c #438541",
"d. c #43a200",
"co c #43a300",
"do c #43a400",
"fK c #442401",
"#y c #4441bd",
"aP c #4449b1",
"bf c #44a800",
"hl c #452385",
"dh c #45a308",
".S c #45a407",
"cf c #45a500",
"bV c #45a600",
"dl c #460a05",
".K c #4621f9",
"dF c #465f00",
"dx c #467c5f",
"bE c #46a800",
"aT c #4754a1",
"dU c #49aa00",
"eq c #4a3600",
"#q c #4aac00",
"bD c #4aad00",
"bU c #4aae00",
"#6 c #4ba11c",
"cp c #4bad00",
"f3 c #4c1103",
"dT c #4da90e",
"#C c #4ea416",
"#W c #4f5d96",
"b7 c #4f7f65",
"gy c #501103",
"fC c #506277",
"ct c #507972",
".N c #50a813",
"#A c #50ac10",
"e6 c #513800",
"#K c #51a818",
"bX c #51b200",
".# c #522ff6",
"bd c #52aa22",
"ef c #52b200",
"bC c #52b600",
"hP c #531405",
"hA c #5444a3",
".f c #54727d",
".U c #54b30d",
".T c #55b20c",
"ei c #569c39",
"eB c #56b800",
"eg c #56b900",
".i c #5732fc",
"cq c #57b800",
"di c #57ba00",
"hK c #582b67",
"ha c #582f81",
"aJ c #58aa31",
"dB c #591e5f",
"gg c #5a1201",
"hh c #5a3386",
"ee c #5a9355",
"#z c #5aaa22",
"#. c #5ab41b",
"f2 c #5b1801",
"fB c #5d5dd7",
"a8 c #5dc300",
"hs c #5e1904",
"hk c #5e2604",
"bH c #5ec200",
"bg c #5fc200",
"dD c #601c02",
".Y c #609955",
"aK c #60a84a",
"bO c #60b020",
"hM c #60c800",
"#J c #61b922",
"bB c #61c700",
"dk c #62214f",
".8 c #6269c1",
"#I c #64b931",
"an c #65a541",
"cr c #65c600",
"b3 c #66b12d",
".V c #66bc21",
"dz c #66bf0f",
"fT c #67b136",
"hZ c #682001",
"gN c #682004",
"cl c #687aab",
"eC c #69cc00",
"fo c #6a1e00",
"gf c #6a5e01",
"eD c #6ac310",
"aB c #6aca00",
"dy c #6acd00",
"eH c #6b5a00",
"eV c #6bbb25",
"br c #6bc11b",
"dV c #6bce00",
"gx c #6c3801",
"d0 c #6c5900",
"a2 c #6cc513",
"fJ c #6f1f00",
"dE c #6f2001",
"hJ c #6f3103",
".M c #6fb54e",
"ff c #6fc02e",
"bA c #6fd000",
"cs c #6fd300",
"g8 c #705487",
"bh c #70d200",
"eL c #712300",
"ge c #713600",
"cj c #71c32a",
"a9 c #71d401",
"dZ c #722c0b",
"bo c #72b92f",
"bM c #72ba2e",
"#H c #72ba43",
"#U c #72d400",
"hG c #73476a",
"#G c #73ba46",
"fI c #742300",
".e c #74d500",
"cg c #74d600",
"#F c #75ba48",
"el c #76361c",
"eG c #76370b",
"em c #764d00",
".L c #766fd7",
".o c #76b546",
"bj c #76bb40",
"dW c #76d700",
"fa c #7793a3",
"eA c #77d800",
"eW c #77d900",
"ci c #78ce15",
"f0 c #793800",
"gv c #793b56",
"gw c #7a3001",
"ch c #7ad900",
"eX c #7adb01",
"bi c #7adc00",
"#s c #7bbc53",
"b6 c #7bdd00",
"e5 c #7c2500",
"fZ c #7c3000",
"gc c #7c5f0e",
"eh c #7cdd00",
"az c #7ce000",
"fn c #7d2900",
"hT c #7d2a03",
"bz c #7ddc00",
"bN c #7ddd00",
".m c #7de000",
"aO c #7ed90c",
"bI c #7edf00",
".l c #7ee000",
"gZ c #7f2c03",
"d1 c #7f3000",
".d c #7fe000",
"f1 c #802d01",
"hD c #802d02",
"e0 c #803517",
".2 c #80d02f",
".c c #80e000",
".k c #80e001",
"fd c #80e002",
".b c #80e005",
"hi c #815804",
"fU c #81a0a8",
"ck c #81b171",
"#E c #81ba5b",
"bp c #81e000",
"bq c #81e100",
"aA c #81e200",
"fm c #825b02",
"b5 c #82e100",
"b4 c #82e200",
"am c #82e300",
"aN c #83cf42",
"bY c #83e108",
"bJ c #83e200",
"by c #83e600",
"h# c #843201",
".9 c #84b576",
"#D c #84ba62",
"fe c #84e10a",
"a0 c #85b473",
".a c #85c25a",
"a1 c #85e10a",
"ab c #85e311",
"dC c #862f00",
"hH c #866203",
"ax c #86c55a",
".W c #86cd4d",
"ba c #86e21b",
"#r c #88e80a",
"eK c #896904",
".A c #89e11c",
"ay c #89e219",
"d3 c #8a7106",
".D c #8abd6e",
"#V c #8ae018",
".n c #8ae413",
"en c #8b3700",
"fF c #8b3800",
"fc c #8be31a",
"fl c #8c4101",
"fi c #8c4717",
"aa c #8ce719",
"gd c #8d3500",
"fY c #8d3700",
"e2 c #8d3900",
"eI c #8d3a00",
"fW c #8e5755",
"a# c #8ee321",
"ep c #8f5503",
"fk c #903b00",
"eo c #904201",
"bZ c #90e226",
"a. c #90e323",
"fy c #91ca64",
"eJ c #924801",
"bb c #92dd46",
".X c #93d45d",
".B c #93e132",
"hO c #944004",
"fH c #946e06",
"b0 c #94e031",
"#9 c #95e32d",
"b. c #95e52c",
"fb c #96dc4d",
"gL c #974504",
"aM c #97c877",
"e4 c #986005",
"e3 c #994701",
"fG c #9a4c01",
"fE c #9a8700",
"aL c #9bc283",
"fA c #9bdc6a",
".z c #9ce242",
"hq c #9d4404",
"d2 c #9e4a01",
"e1 c #9e7600",
".y c #9fdf5d",
"fj c #a27700",
"b# c #a3e643",
".j c #a4c39e",
".C c #a4df6b",
".w c #a8bdb4",
"g9 c #a95c03",
"gX c #ab5504",
"hw c #ad5704",
"fX c #ae5700",
"#8 c #aee472",
"hB c #af5603",
"hI c #af9306",
"hj c #b08b05",
"#7 c #b0d496",
"bc c #b2d39f",
"fz c #b3e28c",
".x c #b5de8a",
"h. c #bb7601",
"fD c #bd6b05",
"hC c #c47500",
"hr c #cb6d00",
"gM c #cc7a00",
"gY c #d38c00",
"hx c #d38d00",
"QtQtQtQtQtQtQtQtQtQtQtQtQtQtQtQtQtQtQtQtQtQtQtQtQtQtQtQtQtQtQtQtQtQtQtQtQtQtQtQtQtQtQtQtQtQtQtQtQtQt.#.a.b.c.c.c.d.d.e.f.gQtQtQt",
".h.h.h.h.h.h.h.h.h.h.h.h.h.h.h.h.h.h.h.h.h.h.h.h.h.h.h.h.h.h.h.h.h.h.h.h.h.h.h.h.h.h.h.h.h.h.h.h.h.i.j.k.l.d.l.m.n.o.p.q.r.h.h.h",
".s.s.s.s.s.s.s.s.s.s.s.s.s.s.s.s.s.s.s.s.s.s.s.s.s.s.s.s.s.s.s.s.s.s.s.s.s.s.s.t.u.s.s.s.s.s.s.s.v.w.x.y.z.A.B.C.D.E.F.G.H.I.s.s",
".J.J.J.J.J.J.J.J.J.J.J.J.J.J.J.J.J.J.J.J.J.J.J.J.J.J.J.J.J.J.J.J.J.J.J.J.J.K.L.M.N.O.P.Q.J.J.J.J.R.S.T.U.V.W.X.Y.Z.0.1.2.3.4.5.J",
".6.6.6.6.6.6.6.6.6.6.6.6.6.6.6.6.6.6.6.6.6.6.6.6.6.6.6.6.6.6.6.6.6.6.6.7.8.9#.###a#b#c#d#e#f#g.6#h#i#j#k#l#m#n#o#p#q#r#s#t#u#v#w",
"#x#x#x#x#x#x#x#x#x#x#x#x#x#x#x#x#x#x#x#x#x#x#x#x#x#x#x#x#x#x#x#x#x#x#y#z#A#B#C#D#E#F#G#H#I#J#K#L#M#N#O#P#P#Q#R#S#T#U#V#W#X#Y#Z#0",
"#1#1#1#1#1#1#1#1#1#1#1#1#1#1#1#1#1#1#1#1#1#1#1#1#1#1#1#1#1#1#1#1#1#2#3#4#5#6#7#8#9a.a.a#aaabacadaeafag#Pahaiajakalaman#1#1aoapaq",
"ararararararararararararararararararararararararararararararararasatauavawaxayaz.l.d.daAaBaCaDaEaFaGaHaIaJaKaLaMaNaOaPaQaRaSaTaU",
"aVaVaVaVaVaVaVaVaVaVaVaVaVaVaVaVaVaVaVaVaVaVaVaVaVaVaVaVaVaVaVaVaWaXaYaZa0a1.l.c.c.c.ca2a3a4a5aEa6a7a8a9b.b#babbbcbdbebfbgbhbibj",
"bkbkbkbkbkbkbkbkbkbkbkbkbkbkbkbkbkbkbkbkbkbkbkbkbkbkbkbkbkbkbkbkblbmbnbo.d.d.c.cbpbqbrbsbtbubvbwbxbybzbAbBbCbDbEbFbGbHbIbJaA.d.l",
"bKbKbKbKbKbKbKbKbKbKbKbKbKbKbKbKbKbKbKbKbKbKbKbKbKbKbKbKbKbKbKbKbKbLbM.c.c.c.cbqbNbObPbKbKbQbRbSbTbUbVbWag#kbWagagbXbJbp.cbYbZb0",
"b1b1b1b1b1b1b1b1b1b1b1b1b1b1b1b1b1b1b1b1b1b1b1b1b1b1b1b1b1b1b1b1b2b3bNbI.cb4b5b6b7b8b9c.c#cacbccbucdce#P#P#P#P#Pagcfcgchcicjckcl",
"cmcmcmcmcmcmcmcmcmcmcmcmcmcmcmcmcmcmcmcmcmcmcmcmcmcmcmcmcmcmcmcmcncocpbCcqcrcsctcmcucvaicwcxcy#uczcAcB#P#P#P#P#P#P#PcCcDcEcFcGcm",
"cHcHcHcHcHcHcHcHcHcHcHcHcHcHcHcHcHcHcHcHcHcHcHcHcHcHcHcHcHcHcHcHcIcJag#kcKcLcMcHcNcOcPcPcQcRcx.0cScTcUcV#P#P#P#P#PcWcXcHcHcHcHcH",
"cYcYcYcYcYcYcYcYcYcYcYcYcYcYcYcYcYcYcYcYcYcYcYcYcYcYcYcYcYcYcYcYcZcJ#P#P#Pc0cYcYc1c2#P#PcPc3c4c5c6c7c8c9#P#P#P#P#Pd.d#dacYcYcYcY",
"dbdbdbdbdbdbdbdbdbdbdbdbdbdbdbdbdbdbdbdbdbdbdbdbdbdbdbdbdbdbdbdbdccJ#Pdddedfdbdgdh#P#Pag#QdidjdbdkdldmdndocPcVcVcBdpdqdrdsdbdbdb",
"dtdtdtdtdtdtdtdtdtdtdtdtdtdtdtdtdtdtdtdtdtdtdtdtdtdtdtdtdtdtdtdtducJ#Pdvdwdtdtdx#P#P#k#QdydzdAdBdCdDdEdFdGdHdIdJdKdLcxdMdNdtdtdt",
"dOdOdOdOdOdOdOdOdOdOdOdOdOdOdOdOdOdOdOdOdOdOdOdOdOdOdOdOdOdOdOdOdPdQ#cdRdOdOdSdT#kagdUdVdWdXdYdZd0d1d2d3d4d5d6cxcxcyd6d7d8d9dOdO",
"e.e.e.e.e.e.e.e.e.e.e.e.e.e.e.e.e.e.e.e.e.e.e.e.e.e.e.e.e.e.e.e.e#eaebece.edeeefagegehb4eiejekelemeneoepeqercycycyeseta5bueue.e.",
"evevevevevevevevevevevevevevevevevevevevevevevevevevevevevevevevewexeyevevezeAeBeCbqb4eDeEeveFeGeHeIeJeKeLeMescycyeseNeOa5ePeQev",
"eReReReReReReReReReReReReReReReReReReReReReReReReReReReReReReReReSeTeReReUeVaAeWbq.ceXeYeReReZe0e1e2e3e4e5e6d6escycye7e8bv#Se9eR",
"f.f.f.f.f.f.f.f.f.f.f.f.f.f.f.f.f.f.f.f.f.f.f.f.f.f.f.f.f.f.f.f.f.f.f.f.f#fafbfcfdfefffgf.f.fhfifjfkflfmfnfofp.4esfqfrfsft#Sfuf.",
"fvfvfvfvfvfvfvfvfvfvfvfvfvfvfvfvfvfvfvfvfvfvfvfvfvfvfvfvfvfvfvfvfvfvfvfvfvfwfxfyfzfAfBfvfvfvfCfDfEfFfGfHfIfJfKetesfLfMfNfO#SfPfv",
"fQfQfQfQfQfQfQfQfQfQfQfQfQfQfQfQfQfQfQfQfQfQfQfQfQfQfQfQfQfQfQfQfQfQfQfQfQfQfRfSfTfUfQfQfQfQfVfWfXfYfZf0f1f2f3f4cyf5f6f7f8#Sf9fQ",
"f6f6f6f6f6f6f6f6f6f6f6f6f6f6f6f6f6f6f6f6f6f6f6f6f6f6f6f6f6f6f6f6f6f6f6f6f6f6f6g.g#gaf6f6f6f6f6gbgcgdgegfggghgigjgkglgmf6gn#Sgof6",
"gpgpgpgpgpgpgpgpgpgpgpgpgpgpgpgpgpgpgpgpgpgpgpgpgpgpgpgpgpgpgpgpgpgpgpgpgpgpgpgqgrgsgtgpgpgpgpgpgugvgwgxgygzgAgpgBgCgpgpgDgEgFgp",
"gGgGgGgGgGgGgGgGgGgGgGgGgGgGgGgGgGgGgGgGgGgGgGgGgGgGgGgGgGgGgGgGgGgGgGgGgGgGgGgGgHgIgJgGgGgGgGgGgGgKgLgMgNgOgGgGgGgGgGgGgPgQgRgG",
"gSgSgSgSgSgSgSgSgSgSgSgSgSgSgSgSgSgSgSgSgSgSgSgSgSgSgSgSgSgSgSgSgSgSgSgSgSgSgSgSgSgTgUgVgSgSgSgSgSgWgXgYgZg0gSgSgSgSgSgSg1g2g3gS",
"g4g4g4g4g4g4g4g4g4g4g4g4g4g4g4g4g4g4g4g4g4g4g4g4g4g4g4g4g4g4g4g4g4g4g4g4g4g4g4g4g4g4g5g6g7g4g4g4g4g8g9h.h#hag4g4g4g4g4g4g4hbhcg4",
"hdhdhdhdhdhdhdhdhdhdhdhdhdhdhdhdhdhdhdhdhdhdhdhdhdhdhdhdhdhdhdhdhdhdhdhdhdhdhdhdhdhdhehfhghdhdhdhdhhhihjhkhlhdhdhdhdhdhdhdhdhdhd",
"hmhmhmhmhmhmhmhmhmhmhmhmhmhmhmhmhmhmhmhmhmhmhmhmhmhmhmhmhmhmhmhmhmhmhmhmhmhmhmhmhmhmhmhnhohmhmhmhmhphqhrhshthmhmhmhmhmhmhmhmhmhm",
"huhuhuhuhuhuhuhuhuhuhuhuhuhuhuhuhuhuhuhuhuhuhuhuhuhuhuhuhuhuhuhuhuhuhuhuhuhuhuhuhuhuhuhuhuhuhuhuhuhvhwhxgZhyhuhuhuhuhuhuhuhuhuhu",
"hzhzhzhzhzhzhzhzhzhzhzhzhzhzhzhzhzhzhzhzhzhzhzhzhzhzhzhzhzhzhzhzhzhzhzhzhzhzhzhzhzhzhzhzhzhzhzhzhzhAhBhChDhEhzhzhzhzhzhzhzhzhzhz",
"hzhzhzhzhzhzhzhzhzhzhzhzhzhzhzhzhzhzhzhzhzhzhzhzhzhzhzhzhzhzhzhzhzhzhzhzhzhzhzhzhzhzhzhzhzhzhzhzhFhGhHhIhJhKhzhzhzhzhzhzhzhzhzhz",
"hLhLhLhLhLhLhLhLhLhLhLhLhLhLhLhLhLhLhLhLhLhLhLhLhLhLhLhLhLhLhLhLhLhLhLhLhLhLhLhLhLhLhLhLhLhMhLhF#PhNhOhFhPhQhLhFhLhLhLhLhLhMhLhF",
"hFhRhRhRhRhRhRhRhRhRhRhRhRhRhRhRhRhRhRhRhRhRhRhFhRhRhRhRhRhRhRhRhRhRhRhRhRhRhRhFhRhRhRhRhR.chR#P#PhShM#PhThUhR#PhRhRhFhRhR.chR#P",
"#PhVhVhFhVhVhVhVhVhVhVhVhVhVhVhVhVhVhVhVhFhVhV#PhFhVhMhVhVhVhVhVhVhVhVhVhFhVhV#PhFhVhMhVhF.chF#P#PhF.c#PhFhWhF#PhVhF#PhVhF.chF#P",
"#PhXhM#PhXhMhXhFhFhXhXhFhFhXhXhFhFhXhMhX#PhMhX#P#PhX.chXhFhXhXhFhFhXhMhX#PhMhX#P#PhX.chX#P.c#P#P#P#P.c.c#PhM#P#PhF#P.chM#P.c#P#P",
"#PhF.c#PhY.chY#P#PhYhM#P#PhMhY#P#PhY.chY#P.chF#P#PhF.chF#PhMhY#P#PhY.chY#P.chF#P#PhF.chF#P.c#P#P#P#P.c.c#P.c#P#P#P#P.c.c#P.c#P#P",
"#P#P.c.chF.chF#P#PhF.c#P#P.chF#P#PhF.chF.c.c#P#P#P#P.c#P#P.chF#P#PhF.chF.c.c#P#P#P#P.c#P#P.c#P#P#P#P.c.c#P.c#P#P#P#P.c.c#P.c#P#P",
"#P#P.c.c#P.c#P#P#P#P.c.c.c.c#P#P#P#P.c#P.c.c#P#P#P#P.c#P.c.c#P#P#P#P.c#P.c.c#P#P#P#P.c#P.c.c#P#P#P#P.c.c#P.c#P#P#P#P.c.c.c.c#P#P",
"#P#P.c.c#P.c#P#P#P#P.c.c.c.c#P#P#P#P.c#P.c.c#P#P#P#P.c#P.c.c#P#P#P#P.c#P.c.c#P#P#P#P.c#P.chM#P#P#P#P.c.c.c.c#P#P#P#PhM.c.chM#P#P",
"#P#P.c.c#P.c#P#P#P#P.c.c.c.c#P#P#P#P.c#P.c.c#P#P#P#P.c.c.c.c#P#P#P#P.c#P.c.c#P#P#P#P.c.c.chM#P#P#P#PhM.c.c.c#PhF#P#PhM.c.chM#P#P",
"#P#P.c.c.c.c#P#P#P#P.c.c.c.c#P#P#P#P.c.c.c.c#P#P#P#PhM.c.c.c#P#P#P#P.c.c.c.c#P#P#P#PhM.c.c#PhF#P#P#PhM.c.chM#PhF#P#P#PhM.c#PhF#P",
"#P#PhM.c.chM#P#P#P#PhMhMhMhM#P#P#P#PhM.c.chM#P#P#P#PhM.chMhM#P#P#P#PhM.c.chM#P#P#P#PhM.chM#PhF#PhF#P#PhM.chM#PcyhF#P#PhMhM#PhF#P",
"#P#PhMhM.chM#P#P#P#PhMhMhMhM#P#P#P#PhM.chMhM#P#P#PhF#PhMhMhM#P#P#P#PhM.chMhM#P#P#PhF#PhMhM#Pcy#PhF#P#PhMhM#PhFcyhF#P#P#PhM#Pcy#P",
"hF#P#PhMhM#PhFhFhF#P#P#P#P#P#PhFhFhF#PhMhM#P#PhF#PhF#PhM#P#P#PhFhFhF#PhMhM#P#PhF#PhF#PhM#P#PcyhFcy#P#P#PhM#PhFcycy#P#P#P#P#PcyhF",
"hF#P#P#PhM#PhFhFhF#P#P#P#P#P#PhFhFhF#PhM#P#P#PhFhFcy#P#P#P#P#PhFhFhF#PhM#P#P#PhFhFcy#P#P#P#PcyhFcyhF#P#P#P#PcycycyhF#P#P#P#PcyhF",
"cyhF#P#P#P#PcycycyhF#P#P#P#PhFcycycy#P#P#P#PhFcyhFcy#P#P#P#PhFcycycy#P#P#P#PhFcyhFcy#P#P#P#PcycycyhF#P#P#P#PcycycyhF#P#P#P#Pcycy",
"cyhF#P#P#P#PcycycyhF#P#P#P#PhFcycycy#P#P#P#PhFcycycy#P#P#P#PhFcycycy#P#P#P#PhFcycycy#P#P#P#Pcycycycy#P#P#P#Pcycycycy#P#P#P#Pcycy",
"cycy#P#P#P#Pcycycycy#P#P#P#Pcycycycy#P#P#P#Pcycycycy#P#P#P#Pcycycycy#P#P#P#Pcycycycy#P#P#P#Pcycycycy#P#P#P#Pcycycycy#P#P#P#Pcycy",
"cycy#P#P#P#Pcycycycy#P#P#P#Pcycycycy#P#P#P#Pcycycycy#P#P#P#Pcycycycy#P#P#P#Pcycycycy#P#P#P#Pcya5cycy#P#P#P#Pcycycya5#PhF#P#Pcya5",
"cycy#P#P#P#Pcycycya5#PhFhF#Pa5cycycy#P#P#P#Pcycya5cy#P#PhF#Pa5cycycy#P#P#P#Pcycya5cy#P#P#P#PcyhZa5cy#PhF#PhFcycycyhZ#PhZ#P#PcyhZ",
"a5cy#PhF#P#PcycycyhZ#PhZhZ#PhZcycycy#P#PhF#Pcya5hZcy#P#PhZ#PhZcycycy#P#PhF#Pcya5hZcy#P#PhF#PcyhZh0cyhFh0#Ph0cycya5hZhFhZhF#PcyhZ",
"h0a5hFh0hFhFa5a5a5hZhFhZhZhFhZa5a5a5hFhFh0hFa5h0hZa5hFhFhZhFhZa5a5a5hFhFh0hFa5h0hZa5hFhFhZhFa5hZh0a5h0h0hFh0a5a5hZhZhZhZhZhFa5hZ",
"h0h0h0h0h0h0h0h0hZhZhZhZhZhZhZhZh0h0h0h0h0h0h0h0hZhZhZhZhZhZhZhZh0h0h0h0h0h0h0h0hZhZhZhZhZhZhZhZh0h0h0h0h0h0h0h0hZhZhZhZhZhZhZhZ",
"h0h0h0h0h0h0h0h0hZhZhZhZhZhZhZhZh0h0h0h0h0h0h0h0hZhZhZhZhZhZhZhZh0h0h0h0h0h0h0h0hZhZhZhZhZhZhZhZh0h0h0h0h0h0h0h0hZhZhZhZhZhZhZhZ",
"h0h0h0h0h0h0h0h0hZhZhZhZhZhZhZhZh0h0h0h0h0h0h0h0hZhZhZhZhZhZhZhZh0h0h0h0h0h0h0h0hZhZhZhZhZhZhZhZh0h0h0h0h0h0h0h0hZhZhZhZhZhZhZhZ",
"hZhZhZhZhZhZhZhZh0h0h0h0h0h0h0h0hZhZhZhZhZhZhZhZh0h0h0h0h0h0h0h0hZhZhZhZhZhZhZhZh0h0h0h0h0h0h0h0hZhZhZhZhZhZhZhZh0h0h0h0h0h0h0h0",
"hZhZhZhZhZhZhZhZh0h0h0h0h0h0h0h0hZhZhZhZhZhZhZhZh0h0h0h0h0h0h0h0hZhZhZhZhZhZhZhZh0h0h0h0h0h0h0h0hZhZhZhZhZhZhZhZh0h0h0h0h0h0h0h0",
"hZhZhZhZhZhZhZhZh0h0h0h0h0h0h0h0hZhZhZhZhZhZhZhZh0h0h0h0h0h0h0h0hZhZhZhZhZhZhZhZh0h0h0h0h0h0h0h0hZhZhZhZhZhZhZhZh0h0h0h0h0h0h0h0",
"hZhZhZhZhZhZhZhZh0h0h0h0h0h0h0h0hZhZhZhZhZhZhZhZh0h0h0h0h0h0h0h0hZhZhZhZhZhZhZhZh0h0h0h0h0h0h0h0hZhZhZhZhZhZhZhZh0h0h0h0h0h0h0h0",
"hZhZhZhZhZhZhZhZh0h0h0h0h0h0h0h0hZhZhZhZhZhZhZhZh0h0h0h0h0h0h0h0hZhZhZhZhZhZhZhZh0h0h0h0h0h0h0h0hZhZhZhZhZhZhZhZh0h0h0h0h0h0h0h0",
"hZhZhZhZhZhZhZhZh0h0h0h0h0h0h0h0hZhZhZhZhZhZhZhZh0h0h0h0h0h0h0h0hZhZhZhZhZhZhZhZh0h0h0h0h0h0h0h0hZhZhZhZhZhZhZhZh0h0h0h0h0h0h0h0"};
