/* XPM */
static char *dummy[]={
"64 64 1507 2",
"jz c #001125",
"ql c #00112a",
"tY c #001228",
"vt c #001329",
"bU c #00132a",
"t2 c #00132b",
"lD c #001424",
"cy c #001428",
".q c #00142a",
"bR c #00142b",
"qq c #00142c",
"#V c #00152a",
"#z c #00152b",
"cq c #00152c",
"uM c #00152d",
"uo c #00152f",
"vx c #001531",
"mh c #001627",
"nF c #001629",
".i c #00162a",
".# c #00162b",
".a c #00162c",
".b c #00162d",
"ki c #00162e",
"f9 c #00172b",
".c c #00172c",
"Qt c #00172d",
".t c #00172e",
".h c #00172f",
"hu c #001730",
"uq c #001731",
"ht c #001733",
"nK c #00182c",
"vu c #00182d",
"ib c #00182e",
"vB c #00182f",
".8 c #001830",
"#W c #001831",
"mV c #011730",
"o2 c #011731",
"os c #011830",
"eO c #011831",
"nE c #011832",
"ic c #011931",
"sZ c #011932",
"#v c #011a31",
"ty c #02182f",
".7 c #02192f",
"vF c #03172f",
"vE c #03182f",
"p# c #031831",
"vv c #031832",
"iR c #031930",
"qZ c #031931",
"bS c #031932",
"pQ c #031a31",
"sx c #031a33",
"vw c #041735",
".6 c #041833",
"h8 c #041933",
"#u c #041a32",
".d c #041a35",
"sk c #041b35",
"ol c #061731",
"al c #061a32",
"ke c #061a33",
"dZ c #061a34",
"#. c #061b32",
"vA c #061b33",
"cp c #061b35",
".r c #071a36",
"gP c #071b38",
"mW c #081a33",
"tZ c #081a34",
"q5 c #081c32",
"vC c #081c34",
"vD c #091c34",
"pa c #091c35",
"nL c #091d35",
"pJ c #0a1c36",
"uO c #0a1c37",
"ot c #0a1d37",
"d0 c #0a1d39",
"bQ c #0a1e39",
"eP c #0a1e3a",
"jC c #0b1735",
"iS c #0b1835",
"t1 c #0c1a36",
"uN c #0c1c38",
"jy c #0c1c39",
"o4 c #0c1d37",
"bl c #0c1d39",
"aQ c #0c1e38",
"bm c #0c1e39",
"kX c #0d183b",
"jw c #0d193b",
"fq c #0d1c37",
"#x c #0d1e38",
".5 c #0d1e3a",
"aS c #0d1e3b",
"eF c #0e1735",
"aR c #0e1e3c",
"pP c #0f1b36",
".I c #0f1d39",
"pK c #0f1e37",
".K c #0f1e3a",
"am c #0f1f3b",
"eG c #101736",
"#t c #101e3c",
"qr c #101f3c",
"o3 c #10203c",
"mU c #111a36",
"aP c #111d3b",
"oq c #111e38",
".k c #111f3b",
"mg c #131e3b",
".l c #131e3c",
"iQ c #141c3e",
"o5 c #151a3a",
"de c #151e3c",
"h7 c #151e3f",
"or c #151f3d",
".p c #151f3e",
"vs c #151f41",
"#w c #15203e",
"#y c #15203f",
"uP c #152041",
".e c #15213f",
"uR c #152142",
".J c #161e3d",
"p. c #161f3d",
".m c #161f3f",
"t0 c #161f40",
".u c #16203e",
"mX c #16203f",
"dd c #16213f",
"uQ c #162141",
"m4 c #162143",
"u8 c #162144",
"sj c #162241",
"rR c #162244",
"gM c #171b43",
"vG c #171f3f",
".s c #17203f",
"lA c #172041",
"cr c #172140",
"bT c #172141",
"s0 c #172242",
"ak c #172243",
".o c #172244",
".H c #172444",
"kf c #18183a",
"up c #181f3f",
".j c #181f40",
"s7 c #182040",
".g c #182041",
"vm c #182141",
"gb c #182142",
"vz c #182241",
"qY c #182243",
"pR c #182342",
"jx c #182344",
"iX c #182444",
"aT c #182546",
"oj c #191d3c",
"dY c #191e3c",
"eB c #191e3e",
"fr c #19203c",
".f c #192141",
"eN c #192142",
"u9 c #192242",
"mf c #192244",
".9 c #192245",
".N c #192545",
".4 c #192546",
"h9 c #1a203d",
"gc c #1a2142",
".v c #1a2242",
"gd c #1a2445",
".3 c #1a2446",
".O c #1a2547",
"rL c #1b193d",
"rK c #1b1a3d",
"#B c #1b2545",
"kj c #1c2042",
"qj c #1c2247",
"hp c #1c2446",
".2 c #1c2547",
"gO c #1c2548",
"id c #1c274b",
"t3 c #1d2547",
"vn c #1d264b",
"bO c #1d274a",
"an c #1d274b",
"ao c #1d284b",
"m3 c #1d2853",
"rQ c #1e1b40",
"rD c #1e1f40",
"pL c #1e1f43",
"si c #1e254b",
"vy c #1e274a",
"hv c #1e274b",
"qX c #1e274c",
"nM c #1e274d",
".M c #1e2850",
"co c #1e294d",
"eM c #1f2244",
"fy c #1f2342",
"ga c #1f2441",
"uL c #1f274d",
"jD c #1f284e",
".L c #1f2948",
"o1 c #1f294f",
"#X c #1f2950",
"nD c #1f2a48",
"#s c #1f2a4c",
"ab c #200a61",
"tr c #200f67",
"gS c #20264a",
"kd c #20284b",
"d1 c #20284f",
".1 c #20294e",
"vo c #20294f",
"vp c #202a4f",
"vr c #202a50",
"vq c #202b50",
"af c #210f62",
"qm c #212543",
"vi c #21264c",
"rC c #21274f",
"me c #21294b",
"um c #21294d",
"tz c #21294f",
"tx c #212952",
"tX c #212a50",
"pI c #212a52",
"un c #212b4b",
"bP c #212b50",
"bk c #212b51",
"eC c #222244",
"sy c #222a50",
"r. c #222a51",
".P c #222a52",
".C c #222b52",
".A c #222b53",
"eR c #222c53",
"aO c #222c56",
"rJ c #231d44",
"vl c #23294f",
"vk c #232950",
"sY c #232951",
"#a c #232a50",
"pb c #232a53",
"aj c #232b51",
"fz c #232b52",
"v# c #232b53",
".y c #232b54",
"rS c #232c52",
"#T c #232c53",
"eQ c #232c54",
".z c #232d55",
"u7 c #232e52",
"rB c #242253",
"vj c #242a50",
"gN c #242a51",
"#A c #242b53",
"## c #242b54",
"cA c #242c56",
"ok c #242d53",
".F c #242d54",
"d2 c #242d55",
".E c #242d56",
"t4 c #242e51",
"ae c #251068",
"q4 c #252645",
"sl c #252746",
"ut c #252955",
".x c #252a52",
".B c #252b53",
"bV c #252b54",
".G c #252c53",
"va c #252c55",
"uK c #252d57",
"bn c #252e54",
"qk c #252e55",
"uI c #252e5b",
"pS c #252f56",
"ia c #262746",
".n c #262b53",
"f8 c #262b54",
"#S c #262c53",
"#Y c #262c54",
".w c #262c55",
"aU c #262c56",
"ge c #262c57",
".D c #262d56",
"uJ c #262d5a",
"df c #262e57",
"cz c #262e58",
"u. c #27166c",
"t. c #27176b",
"qe c #27176f",
"sF c #271a6c",
"k0 c #27284b",
"v. c #272d56",
"ur c #272d57",
"ou c #272d59",
"us c #272e58",
"#U c #272f57",
"kQ c #28176a",
"ch c #28176b",
"th c #28176e",
"uf c #28186a",
"sT c #28196d",
"tw c #281a73",
".0 c #282d5b",
"sG c #291971",
"bI c #291a6d",
"tR c #291a6e",
"qd c #291a6f",
"kg c #291b47",
"rI c #291f49",
"ft c #29224b",
"q6 c #292b4c",
"iW c #292e58",
"tu c #2a176d",
"uC c #2a186c",
"qQ c #2a1873",
"qf c #2a196d",
"tm c #2a196e",
"sS c #2a1a6f",
"tq c #2a1a70",
"rM c #2a1b48",
"r# c #2a275b",
"mY c #2a2d4d",
"kP c #2b1a70",
"qU c #2b1a71",
"tl c #2b1b71",
"gQ c #2b2048",
"sw c #2b2b4f",
"ad c #2c1873",
"sE c #2c1a72",
"cj c #2c1a74",
"tM c #2c1b67",
"tS c #2c1b72",
"sD c #2c1b73",
"om c #2c1c4c",
"pM c #2c1c51",
"uy c #2c1c6f",
"mp c #2c1e6f",
"#c c #2c305f",
"n0 c #2d177d",
"kt c #2d1a7b",
"sU c #2d1b71",
"tG c #2d1b77",
"q9 c #2d1e4a",
"tQ c #2d1e74",
"cx c #2d304f",
"s8 c #2d315f",
"bo c #2d335d",
"sI c #2e1d6a",
"hq c #2e264f",
"lC c #2e2d4e",
"#d c #2e2e61",
"rc c #2f0b85",
"dk c #2f1975",
"gj c #2f197d",
"kG c #2f1a7a",
"cg c #2f1d78",
"cf c #2f1d7a",
"ss c #2f204e",
"eE c #2f234e",
"o9 c #2f2c4d",
"gJ c #300a83",
"lR c #301a7d",
"ac c #301c74",
"rr c #301d76",
"sr c #301f50",
"iT c #302750",
"ms c #311b79",
"aF c #311d79",
"tv c #311d7b",
"t# c #311f7d",
"s# c #312271",
"q0 c #31274f",
"#b c #313468",
"gH c #320b88",
"nV c #321b7d",
"lQ c #321d7d",
"sV c #321f7b",
"tB c #321f7e",
"sO c #322077",
"ci c #32207d",
"ck c #32217a",
"tF c #32217f",
"sc c #32226c",
"hr c #32264f",
"#r c #32336b",
"#p c #32346c",
"qP c #331e80",
"nU c #331e81",
"kM c #331f7b",
"mI c #331f80",
"bC c #331f82",
"ce c #332079",
"ta c #332085",
"bM c #332960",
"#o c #333471",
"ig c #340a82",
"od c #340b87",
"pX c #340c88",
"nA c #340d88",
"f4 c #341089",
"bD c #341f7b",
"jn c #34207f",
"dc c #342653",
"rE c #342852",
"c5 c #342854",
"kZ c #342e54",
"eH c #342e56",
"oe c #350a81",
"jm c #351f80",
"nT c #351f83",
"cG c #35217e",
"kL c #352180",
"na c #352183",
"tL c #35236e",
"s6 c #352653",
"#q c #35366c",
"c. c #362183",
"rA c #36237c",
"be c #36256f",
"aJ c #36266f",
"pO c #362754",
"eJ c #362755",
"sa c #362771",
"fw c #362855",
"aG c #36286e",
"fu c #363057",
"bW c #371a7a",
"rs c #372476",
"rH c #372554",
"sh c #372574",
"tD c #372b6a",
"qz c #380b85",
"pV c #381289",
"iY c #381e5c",
"nb c #382180",
"lt c #382184",
"gg c #382286",
"tH c #38266d",
"rN c #382758",
"rz c #38276c",
"qR c #382771",
"s1 c #382856",
"sd c #38287a",
"tp c #38297e",
"ue c #382b6b",
"sX c #382d69",
"eI c #382e55",
"fv c #383357",
"oY c #390c86",
"oi c #390c89",
"rn c #390f8a",
"cF c #392383",
"i. c #392557",
"sP c #392c6b",
"qT c #392d6b",
"sv c #392f5d",
".S c #39346c",
"rP c #3a275b",
"kS c #3a286b",
"tn c #3a2b69",
"tC c #3a2b6f",
"qS c #3a2c6b",
"uA c #3a2c6f",
"sm c #3a2d5b",
"s2 c #3a2f59",
"eD c #3a2f5a",
"cs c #3a3656",
"lB c #3a365b",
"sJ c #3b2883",
"se c #3b297c",
"tb c #3b2b69",
"uB c #3b2c73",
"uz c #3b2d72",
"tN c #3b2e6a",
"fs c #3b335a",
"m5 c #3b3774",
"qW c #3b397d",
"o6 c #3c205a",
"q7 c #3c245b",
"qM c #3c2788",
"ru c #3c2971",
"tK c #3c2a6d",
"rO c #3c2b5b",
"aH c #3c2b77",
"bd c #3c2b7c",
"ul c #3c3477",
"nx c #3d1082",
"nG c #3d205a",
"qn c #3d245b",
"tt c #3d2487",
"ba c #3d297c",
"sQ c #3d2e78",
"qi c #3d3878",
"mQ c #3e0e90",
"ls c #3e268c",
"jE c #3e2e72",
"sH c #3e2e77",
"o8 c #3e345b",
".Q c #3e3a77",
"q1 c #3f255c",
"sf c #3f2b81",
"jo c #3f2b83",
"k. c #3f2c6d",
"tg c #3f2d75",
"mZ c #3f2e5c",
"fB c #3f2e6f",
"tI c #3f2e78",
"sb c #3f2f79",
"op c #3f325d",
"s3 c #3f375e",
"vb c #3f3d7c",
"bv c #400f9c",
"hm c #401e98",
"i# c #402461",
"bf c #402e76",
"sg c #402e78",
"bc c #40307b",
"nw c #41209a",
"rt c #412f77",
"gT c #413f80",
"ro c #420d90",
"n6 c #420f9a",
"#7 c #420f9d",
"bX c #420f9e",
"nu c #42109a",
"p4 c #42109f",
"p5 c #4210a1",
"sq c #422460",
"aI c #422f80",
"rv c #423082",
"bL c #423280",
"bj c #423985",
"ie c #423e81",
"c# c #432293",
"q8 c #43235e",
"sR c #433185",
"mo c #433188",
"bb c #43357c",
"qp c #43365f",
"hw c #433f83",
"qE c #440d95",
"#J c #440f9a",
"gG c #441198",
"iU c #44215d",
"b# c #442590",
"lj c #442887",
"bK c #443083",
"tc c #443282",
"qB c #450f9d",
"qJ c #4510a1",
"#L c #45119f",
"jl c #452494",
"gh c #452692",
"rF c #45285f",
"tf c #45317e",
"bH c #453183",
"sW c #453187",
"lv c #45327c",
"rw c #453481",
"ry c #453687",
"to c #453784",
"n8 c #4610a0",
"oC c #46159c",
"kK c #462596",
"tE c #463283",
"te c #463284",
"td c #463383",
"tP c #463388",
"o7 c #463764",
"aV c #464082",
"p9 c #470f9c",
"qA c #470f9d",
"bZ c #470f9f",
"nt c #4710a1",
"#9 c #4712a2",
"qt c #4712a3",
"f. c #471c98",
"mi c #472063",
"pF c #47249e",
"lp c #472d92",
"l. c #47308b",
"ub c #473385",
"rx c #473582",
"bY c #480f9e",
"mP c #48148d",
"nH c #482464",
"lo c #482e95",
"kT c #483486",
"tO c #483488",
"bJ c #48358d",
"fA c #483e80",
"m2 c #484264",
"#K c #4911a0",
"qs c #49159e",
"oE c #49169f",
"pN c #492168",
"iV c #492262",
"dU c #492468",
"qo c #492764",
"du c #4929a3",
"aE c #492e98",
"k# c #493388",
"j9 c #493484",
"ua c #493488",
"uc c #49368c",
"eL c #493865",
"lM c #49397b",
"kY c #493a69",
".R c #493e82",
"oh c #4a0c8e",
"b0 c #4a0f9f",
"jB c #4a2263",
"dT c #4a2268",
"nZ c #4a269b",
"eK c #4a2768",
"kO c #4a3398",
"eX c #4a367a",
"oo c #4a3766",
"tJ c #4a3788",
"hs c #4a3864",
"aK c #4a3884",
"#1 c #4a3d7d",
"ct c #4a4066",
"eZ c #4b1b9a",
"dV c #4b2168",
"hn c #4b21a1",
"d. c #4b2267",
"sp c #4b2367",
"l5 c #4b239a",
"su c #4b2469",
"r6 c #4b29a6",
"nI c #4b2a63",
"on c #4b3969",
"dN c #4b3a6d",
"fx c #4b3b66",
"q3 c #4b3d67",
"u6 c #4b4294",
"lF c #4b4367",
"dW c #4c2166",
"dQ c #4c2168",
"sn c #4c2364",
"mk c #4c2368",
"dS c #4c2369",
"st c #4c2469",
"m0 c #4c276d",
"rG c #4c3167",
"da c #4c3969",
"kh c #4c3d68",
"cd c #4c3d7b",
"c9 c #4c3e69",
"lN c #4c3e81",
"c7 c #4c3f67",
"c8 c #4c3f68",
"jA c #4c3f6e",
"lE c #4c4067",
"dO c #4c4069",
"pH c #4c409b",
"cv c #4c4368",
"fp c #4c456b",
"rp c #4d1197",
"qu c #4d1599",
"so c #4d2267",
"dR c #4d236a",
"dy c #4d239f",
"mj c #4d2469",
"j1 c #4d249c",
"q2 c #4d2866",
"rY c #4d36a1",
"mb c #4d3792",
"mc c #4d3793",
"fC c #4d3884",
"lw c #4d388e",
"d# c #4d3a64",
"db c #4d3c68",
"s4 c #4d3d6a",
"m1 c #4d3f67",
"#F c #4d4087",
"cw c #4d4469",
"ej c #4e219f",
"l1 c #4e26a4",
"g# c #4e3768",
"gR c #4e3b68",
"u# c #4e3c7f",
"dX c #4e3e6b",
"k1 c #4e4168",
"cu c #4e4369",
"kF c #4f279f",
"li c #4f2ca3",
"rX c #4f38a5",
"j8 c #4f3a85",
"eU c #4f3d86",
"c6 c #4f3e6a",
"s5 c #4f3e6b",
"mn c #4f3f7e",
"g. c #502469",
"cM c #5026a0",
"lY c #5026a2",
"lZ c #5027a1",
"n1 c #5027a5",
"l0 c #5028a2",
"r7 c #502aa7",
"ln c #502ea1",
"#3 c #503f84",
"#e c #50408c",
"eA c #50416d",
"#0 c #504183",
"uU c #50449c",
"l4 c #5125a2",
"lm c #512aa3",
"qN c #5138a8",
"nJ c #513e6a",
"nk c #513e85",
"uY c #513e9b",
"bF c #513f81",
"kk c #51416b",
"pm c #52159b",
"lS c #5227a2",
"mJ c #5228a3",
"nY c #5228a5",
"mH c #5229a0",
"r2 c #523aa4",
"pl c #53169d",
"ra c #532075",
"eY c #53279e",
"nl c #5329a6",
"kJ c #532aa4",
"nm c #532ba4",
"pG c #533bab",
"u5 c #534a9b",
"pk c #54179f",
"nX c #5423a2",
"lX c #5426a3",
"ca c #5428a5",
"cH c #5429a4",
"mx c #5429a6",
"cT c #542ca5",
"j7 c #544089",
"#g c #54408b",
".Z c #5443a5",
".U c #5445a7",
".V c #5446a8",
"uV c #5447a4",
"gi c #5528a2",
"bE c #5529a7",
"fF c #552ba2",
"cS c #552ba4",
"mA c #552ca7",
"b9 c #552da3",
"jp c #553e99",
"o0 c #553fab",
".X c #5544a6",
".W c #5546a8",
"my c #562ca7",
"s. c #563bae",
"d8 c #563f85",
"qI c #571882",
"pt c #5725b0",
"fE c #5729a5",
"mz c #572da8",
"jk c #572ea8",
"h4 c #573ab6",
"h5 c #573ab7",
"r0 c #573cab",
"oD c #5822ae",
"r8 c #5829b2",
"nn c #582ba4",
"cO c #582ca5",
"hy c #5835b5",
"lr c #583dab",
"c4 c #584678",
"mB c #5937a4",
"uZ c #5943a1",
"c2 c #594978",
"#D c #59499b",
"e. c #5a2ca0",
"fn c #5a2e77",
"oZ c #5a36b2",
"rT c #5a398f",
"ll c #5a3c9e",
"gK c #5a3cb9",
"pB c #5a42b5",
"pC c #5a43b7",
"d5 c #5a459a",
"gL c #5a45b6",
"u3 c #5a4ea0",
"uS c #5a50a6",
"oL c #5b29b2",
"dP c #5b2c78",
"rV c #5b33b3",
"pD c #5b43b8",
"u4 c #5b4ea3",
"uT c #5b4fa4",
"og c #5c1179",
"ey c #5c3179",
"kI c #5c459a",
"ng c #5c4699",
"j6 c #5c469d",
"u1 c #5c46ac",
"#f c #5c4798",
"cc c #5c48a0",
"aq c #5c4998",
"qw c #5d167d",
"ny c #5d1680",
"lG c #5d377b",
"uX c #5d42b2",
"r3 c #5d42b4",
"lx c #5d45b4",
"bG c #5d4799",
"t5 c #5d4a9e",
"i0 c #5e1681",
"qv c #5e1983",
"j4 c #5e479f",
"j5 c #5e489f",
"k2 c #5e497c",
"#G c #5e4b9f",
"dM c #5f4392",
"mG c #5f449f",
"ne c #5f459d",
"eV c #5f479b",
"ud c #5f48a2",
"mm c #5f4e86",
"ay c #6012ac",
"pU c #603bba",
"oW c #6044c1",
"oV c #6044c2",
"cR c #60459c",
"mu c #6047a1",
"mq c #6047b3",
"#E c #6048a0",
"bi c #6048b8",
"ml c #604c7d",
"c3 c #604e7f",
"nz c #611884",
"d9 c #6136a4",
"pf c #6142c0",
"pA c #6147bb",
"t6 c #614ca1",
"fD c #6244a0",
"kU c #624abc",
"kl c #62517f",
"sz c #6252ad",
"ax c #6326b2",
"ez c #633683",
"rZ c #6349b8",
"ai c #644dc2",
"fo c #653588",
"cP c #653da1",
"oc c #6647c5",
"tV c #664cc9",
"aN c #664dc3",
"u0 c #664faf",
"cn c #664fcb",
"bg c #6650b7",
"#k c #6749cc",
"tT c #674ece",
"cB c #6757b1",
"ns c #68179a",
"uk c #684fce",
"sK c #6850cc",
"qH c #691b8c",
"km c #694196",
"hl c #694dcb",
"u2 c #694eca",
"md c #694ecd",
"ts c #694fcb",
"nC c #694fce",
"sL c #694fcf",
"vh c #6950ce",
"rf c #6950cf",
"s9 c #6950d0",
"uD c #6951cd",
"rb c #6a199e",
"aw c #6a2aba",
"#i c #6a46ce",
"rh c #6a47cb",
"#j c #6a47ce",
"cl c #6a4ec9",
"#l c #6a4ece",
"sN c #6a4fce",
"mR c #6a50cf",
"uj c #6a50d1",
"oX c #6a51d1",
"c0 c #6a51d2",
"ug c #6a52cf",
"r1 c #6a54bd",
"p6 c #6b3ac5",
"a. c #6b3bc4",
"#n c #6b4ece",
"qb c #6b50cf",
"ma c #6b50d0",
"jt c #6b50d1",
"pE c #6b51d1",
"h3 c #6b52d0",
"n9 c #6c3dc4",
"ex c #6c4399",
"rq c #6c4bcb",
"#O c #6c4fcf",
"sM c #6c50cf",
"qK c #6c50d1",
"ly c #6c51ca",
"kb c #6c51d0",
"kc c #6c51d1",
"m# c #6c51d2",
"#M c #6c51d3",
"h2 c #6c53d1",
"qa c #6c53d3",
"lL c #6c559a",
"dF c #6d32a5",
"fm c #6d4192",
"k3 c #6d4298",
"mF c #6d4a9e",
"j3 c #6d4da0",
"r5 c #6d4fce",
"r9 c #6d50cf",
"#N c #6d50d1",
"iL c #6d51d1",
"qO c #6d51d4",
"lu c #6d51d5",
"iM c #6d52d0",
"iK c #6d52d1",
"iN c #6d52d2",
"iO c #6d52d3",
"uH c #6d53d4",
"#8 c #6e13af",
"gY c #6e13b2",
"ps c #6e3fc7",
"l6 c #6e47c7",
"rd c #6e4ccb",
"bN c #6e4fce",
"oa c #6e50d1",
"cZ c #6e51d0",
"js c #6e52d5",
"ka c #6e53d7",
"ux c #6e54d1",
"hk c #6e55d3",
"tk c #6e55d8",
"tW c #6e58db",
".Y c #6e5cc0",
"fi c #6f17a7",
"jG c #6f34a8",
"k8 c #6f479e",
"d7 c #6f4da4",
"nO c #6f51d3",
"d6 c #6f52b0",
"oS c #6f54d6",
"tj c #6f54d9",
"uw c #6f55d2",
"of c #6f55da",
"nB c #6f56d5",
"kR c #6f56d6",
"cW c #7050cf",
"qx c #7050d2",
"hj c #7054d3",
"jr c #7054d5",
"ti c #7055dc",
"m. c #7056d3",
"iP c #7056d5",
"hi c #7058d5",
"eT c #7059bc",
"pW c #7059db",
"et c #7122ac",
"re c #7154d6",
"gI c #7157d5",
"f5 c #7158d7",
"pv c #721c96",
"iJ c #7255d4",
"qy c #7255d7",
"oR c #7256d4",
"q# c #7257dc",
"d4 c #725bc0",
".T c #725cc1",
"hd c #7315b0",
"kr c #7342a2",
"rm c #734bcb",
"m8 c #7354d8",
"nv c #7355d2",
"qV c #7356da",
"mS c #7357d6",
"tU c #7358d4",
"uv c #7358d9",
"oN c #741895",
"f1 c #7421a2",
"kH c #744d9c",
"ox c #7456d6",
"ob c #7456da",
"bh c #7458c9",
"qg c #7459dd",
"ve c #745cdb",
"lJ c #755194",
"#R c #7553db",
"pe c #7556d6",
"pz c #7559d0",
"qc c #7559e0",
"kV c #755ad8",
"t7 c #755ce0",
"nc c #7653a2",
"g0 c #7716b5",
"mC c #774d9c",
"j2 c #774e9e",
"oU c #7759db",
"ju c #775cdd",
"a4 c #7835c6",
"jF c #783ab7",
"oK c #784ccf",
"rj c #7855d8",
"oQ c #7857d9",
"rk c #7857dc",
"hh c #7859d9",
"py c #785bda",
"pc c #7863c8",
"i1 c #79178f",
"a5 c #7929c9",
"a3 c #7936c5",
"dl c #794e9d",
"l2 c #7952a0",
"cQ c #7953a4",
"aL c #7960d2",
"av c #7a28be",
"eW c #7a51a2",
"b. c #7a5ad4",
"rW c #7a5cdb",
"t9 c #7a61da",
"aX c #7a67a9",
"f3 c #7b2495",
"mt c #7b51a5",
"nd c #7b54a3",
"#P c #7b5de1",
"ah c #7b5fe2",
"cL c #7c32b5",
"lH c #7c4cac",
"cb c #7c519f",
"dp c #7c53a0",
"ar c #7c57ac",
"lk c #7d53a7",
"pr c #7d57de",
"h1 c #7d5fdf",
"h6 c #7d60df",
"bB c #7d65c6",
"p0 c #7e1793",
"p2 c #7e1994",
"kn c #7e1fbb",
"e1 c #7e2bb4",
"fe c #7e38be",
"oF c #7e52d6",
"mE c #7e549f",
"ow c #7e5fe0",
"f7 c #7e65d7",
"pY c #7f1692",
"pZ c #7f1894",
"nr c #7f1f9c",
"a2 c #7f38c8",
"nh c #7f56b0",
"pq c #7f57de",
"r4 c #7f62e1",
"uh c #7f66e7",
"qF c #801a94",
"e2 c #802dba",
"e9 c #8032b8",
"lh c #805bcb",
"ih c #811ea1",
"eq c #8136a5",
"as c #8158ac",
"oA c #8161e0",
"nP c #8162e6",
"h0 c #8163e3",
"oH c #8164e0",
"uG c #8166e7",
"qG c #821b99",
"p3 c #821c96",
"iZ c #821c98",
"ep c #823fc4",
"hz c #8240c2",
"oP c #825de3",
"ap c #8269de",
"n7 c #831a97",
"mO c #831c9a",
"mN c #831d9b",
"gA c #832299",
"ff c #8336a0",
"rU c #833bbc",
"pn c #834acb",
"qD c #835ae0",
"aM c #8365e3",
"uW c #8366e3",
"i8 c #8417c2",
"p1 c #841d9a",
"ea c #8439b9",
"qC c #845ee1",
"kE c #8464cf",
"m9 c #8464e7",
"oG c #8465e3",
"cN c #8534bc",
"cI c #8535b8",
"k7 c #8561c1",
"oB c #8566e4",
"ii c #8620a0",
"k4 c #862dc1",
"fO c #8635ba",
"iI c #8668e6",
"f0 c #873bbd",
"pu c #875de2",
"oI c #8764e4",
"hZ c #8767e8",
"px c #8768e9",
"lz c #876ceb",
"p8 c #881f9d",
"ei c #8840b7",
"e8 c #884bbf",
"f6 c #8868e8",
"pg c #8869ec",
"rg c #886ded",
"fN c #8936bc",
"mv c #895bb8",
"mr c #896eee",
"hC c #8a1ab0",
"fM c #8a37be",
"#2 c #8a5eb6",
"gF c #8a63e6",
"ri c #8a71ed",
"ij c #8b20a4",
"dt c #8b38c2",
"eb c #8b3fc2",
"ph c #8b58da",
"dG c #8b5ecb",
"kq c #8b64c9",
"oT c #8b6df0",
"i7 c #8c1ec7",
"eh c #8c50bc",
"lO c #8c5bb1",
"dI c #8c5bd8",
"ni c #8c5eba",
"rl c #8c6fef",
"fh c #8d29aa",
"es c #8d2eb0",
"cK c #8d47c0",
"hA c #8d47c1",
"dx c #8d58b6",
"e7 c #8d5ab4",
"iH c #8d70ee",
"iG c #8d70f1",
"vf c #8d72f3",
"a9 c #8d74d0",
"po c #8e5cde",
"pp c #8e5cdf",
"dL c #8e5de2",
"mD c #8e5fb9",
"az c #8e62ec",
"aY c #8e65c7",
"cY c #8e6ef0",
"iF c #8e6ff0",
"bz c #8e70f2",
"uE c #8e72ef",
"vc c #8e72f1",
"t8 c #8e72f7",
"k5 c #8f58ce",
"pi c #8f5de1",
"dn c #8f5fbc",
"a1 c #8f6cd9",
"oJ c #8f6cee",
"cX c #8f6fef",
"#m c #8f70f2",
"pd c #8f71ee",
"vg c #8f74f3",
"nj c #905fbb",
"nf c #905fbc",
"iE c #906fef",
"sA c #9071f0",
"ov c #9071f2",
"uF c #9073f3",
"fL c #914ac6",
"eg c #915eb7",
"mw c #9161ba",
"oO c #9168e9",
"if c #916df0",
"at c #916fea",
"ho c #9170f2",
"vd c #9175f2",
"i2 c #9227b4",
"dm c #9261ba",
"ef c #9262b8",
"dH c #9268da",
"lK c #926db8",
"iD c #926fef",
"gV c #9272f3",
"tA c #9273f3",
"gU c #9275f7",
"jv c #9276f7",
"er c #9337b1",
"pj c #9361e5",
"aZ c #9364ce",
"oy c #9372f6",
"uu c #9372f7",
"d3 c #9373f5",
"oz c #9373f7",
"sC c #9374f7",
"fg c #942fad",
"f2 c #943ba9",
"hx c #9473f7",
"m6 c #9474f7",
"#Q c #9474f9",
"l9 c #9475f6",
"nN c #9476f9",
"kW c #9478f6",
"gD c #9479fa",
"hT c #9557db",
"l3 c #9560bd",
"ev c #9564db",
"nq c #9571f6",
"cU c #9572f3",
"aW c #9574f7",
"hY c #9574f8",
"hg c #9575f7",
"hX c #9575f8",
"mL c #9575fa",
"pw c #9579f9",
"g1 c #9619c9",
"hB c #964cc2",
"k9 c #9654be",
"eu c #9661da",
"ew c #966ee3",
"mK c #966fee",
"cC c #9674f8",
"gE c #9675f7",
"nQ c #9675f9",
"pT c #9679fa",
"l# c #967edd",
"i6 c #972bc9",
"gB c #9753c5",
"#h c #9773f6",
"#H c #9773f7",
"m7 c #9774fa",
"hW c #9775f7",
"#I c #9775f8",
"nW c #9775fa",
"sB c #9776f9",
"aa c #9776fa",
"di c #9777f3",
"lq c #9778f7",
"oM c #9779fa",
"kN c #977afa",
"l7 c #977efa",
"jU c #9816cb",
"g2 c #9818cb",
"fl c #9872e6",
"cm c #9873f9",
"#C c #9874f8",
"mM c #9874f9",
"mT c #9875f7",
"dD c #9876f9",
"cV c #9877f9",
"n. c #9878f9",
"qL c #9878fa",
"bs c #9879f7",
"dE c #9879fa",
"p7 c #987afa",
"la c #987edf",
"fj c #995be0",
"dw c #9969bc",
"iC c #9973f3",
"jj c #9975f4",
"eS c #9976fa",
"a# c #9978fa",
"qh c #9979fa",
"jq c #997cfa",
"l8 c #997efa",
"fk c #9a5fe1",
"dJ c #9a72df",
"gZ c #9a74f6",
"dh c #9a75fa",
"dg c #9a79fa",
"ag c #9a7afa",
"bt c #9a7bfa",
"q. c #9a7dfa",
"hb c #9b1acb",
"i3 c #9b38c5",
"e3 c #9b5fbc",
"aD c #9b77fa",
"je c #9c16c6",
"hE c #9c2fc0",
"ui c #9c79fa",
"nS c #9c7afa",
"o. c #9c7bfa",
"n# c #9c7cfa",
"n5 c #9c7ffa",
"bu c #9d16cd",
"ec c #9d62c1",
"nR c #9d7bfa",
"jT c #9e17cd",
"iv c #9e18c9",
"g3 c #9e3ad0",
"a0 c #9e56e7",
"ko c #9e5de3",
"ds c #9e64bf",
"bp c #9e7bfa",
"dz c #9e7cfa",
"fV c #9f23d1",
"gf c #9f77fa",
"bq c #9f7dfa",
"hV c #9f80f7",
"lg c #9f81e3",
"o# c #9f81fa",
"#Z c #a07efa",
"au c #a086e2",
"fW c #a123c5",
"#6 c #a17ae5",
"lf c #a182e6",
"lb c #a183e6",
"a6 c #a280f8",
"le c #a283e7",
"a8 c #a284e1",
"ed c #a36fc1",
"hU c #a382f2",
"e6 c #a470be",
"do c #a475c1",
"n2 c #a47bfa",
"lW c #a485eb",
"j# c #a51cb2",
"aA c #a57feb",
"hf c #a588f8",
"fY c #a625b3",
"e4 c #a671c0",
"k6 c #a67ce3",
"n3 c #a687f7",
"jS c #a72cd2",
"fQ c #a757ce",
"dr c #a76fc4",
"gW c #a787f6",
"fR c #a851ce",
"ik c #a929ba",
"dC c #a98af7",
"jc c #aa23b9",
"fX c #aa29ba",
"aB c #aa88f2",
"hF c #ab2ec7",
"jf c #ab4cd8",
"ld c #ab92f2",
"fP c #ac5cd0",
"by c #ac90fa",
"aC c #ac92f7",
"dv c #ae76c0",
"iy c #af29bc",
"ix c #af2ac7",
"dq c #af7ecf",
"hR c #b01ec5",
"hD c #b05ddd",
"eo c #b08cf7",
"hG c #b12bcb",
"ks c #b15ed6",
"ee c #b174cf",
"gX c #b187ec",
"he c #b18bf0",
"fd c #b192f9",
"gl c #b198f7",
"i5 c #b27df6",
"en c #b28ff9",
"j0 c #b299f7",
"jZ c #b29af6",
"jW c #b29dfa",
"hN c #b35bdf",
"e5 c #b387cf",
"gn c #b395f6",
"kw c #b39bf8",
"jK c #b48efa",
"gC c #b492fb",
"kD c #b499f8",
"kx c #b49afa",
"jh c #b49bf9",
"ky c #b49bfa",
"lc c #b49cf9",
"no c #b4a3fb",
"jH c #b57bf5",
"fZ c #b592fa",
"gm c #b599f9",
"jO c #b59cf9",
"kz c #b59df8",
"b4 c #b59dfa",
"cD c #b59ef9",
"kp c #b685f8",
"gy c #b68af9",
"fc c #b693fb",
"em c #b694f9",
"bx c #b699f8",
"kv c #b69af6",
"a7 c #b69bf7",
"ji c #b69cfa",
"cE c #b69ff8",
"dK c #b78efa",
"e# c #b794f2",
"fb c #b797fb",
"iB c #b79afa",
"b5 c #b79df7",
"fJ c #b7a0fb",
"kA c #b7a6fa",
"ir c #b81ccf",
"kC c #b89afa",
"dB c #b89cf9",
"b1 c #b89cfb",
"iA c #b89dfa",
"np c #b89efa",
"e0 c #b89ff8",
"n4 c #b8a0fb",
"ja c #b927c4",
"hc c #b92ac7",
"hH c #b936d1",
"im c #b946c7",
"hS c #b964e4",
"b3 c #b99ffb",
"b2 c #b9a0fb",
"fG c #b9a1f9",
"hQ c #ba5dd0",
"c1 c #ba91f9",
"cJ c #baa2fa",
"kB c #baa3fb",
"jX c #baa4f8",
"jb c #bb29c5",
"jN c #bb9ff7",
"bA c #bba3fb",
"#5 c #bba5fb",
"il c #bc4bca",
"lP c #bca4fb",
"gz c #bd3cc4",
"lI c #bd83fb",
"ku c #bda2fb",
"iw c #be28cc",
"iz c #be2acb",
"in c #be43cd",
"hJ c #be52e3",
"hP c #be66d8",
"io c #bf42cb",
"gk c #c0a4fb",
"lV c #c0a9fc",
"jI c #c191f6",
"dj c #c1a5fa",
"dA c #c1a7fb",
"lU c #c1aafc",
"lT c #c2acfc",
"j. c #c365f4",
"jd c #c424ca",
"bw c #c4a8fb",
"jJ c #c59cf8",
"#4 c #c5a8fc",
"jV c #c6b4f8",
"jM c #c7adf6",
"el c #c7aefb",
"jY c #c7b7f8",
"i9 c #c89af9",
"jL c #c8aafa",
"jP c #c8b4f9",
"jQ c #c8baf9",
"iq c #c93fd9",
"i4 c #c99ff5",
"fT c #c9a1f7",
"b6 c #c9b5fc",
"fH c #c9b6fa",
"jg c #c9bafa",
"jR c #c9bbf9",
"g5 c #caa3f8",
"fI c #cabafa",
"hO c #cb6ee0",
"fU c #cbaafa",
"fa c #cbaff8",
"fK c #cbb7fa",
"go c #cbb9fb",
"fS c #ccabf6",
"gp c #ccb9fc",
"b7 c #cebffc",
"ha c #cfb0f7",
"ek c #cfbcfb",
"gv c #d0bafb",
"ip c #d13ddb",
"is c #d199ed",
"hK c #d1adf8",
"gw c #d1b7fa",
"h# c #d1b8fb",
"hI c #d273e3",
"g7 c #d3bbfa",
"it c #d4baf6",
"g8 c #d5bcfb",
"g4 c #d5c8fc",
"g6 c #d6b2fb",
"g9 c #d6bdfa",
"iu c #d6c3f5",
"br c #d6c5fc",
"gq c #d6c8fd",
"b8 c #d6ccfd",
"hL c #d7c0f9",
"gx c #d8bcfb",
"h. c #d9bffb",
"f# c #d9c5fa",
"hM c #d9c7fc",
"gu c #dcc3fc",
"gt c #dec8fd",
"gs c #dfcefd",
"gr c #e0d1fd",
"QtQtQtQtQtQtQtQtQtQtQtQtQtQtQtQtQtQtQtQtQtQtQtQtQtQt.#.#.aQtQtQtQtQtQtQtQtQtQtQtQtQtQtQtQtQtQtQtQtQtQtQtQtQtQtQtQtQtQtQtQtQtQtQt",
"QtQtQtQtQtQtQtQtQtQtQtQtQtQtQtQtQtQtQtQtQtQtQtQtQtQt.a.a.aQtQtQtQtQtQtQtQtQtQtQtQtQtQtQtQtQtQtQtQtQtQtQtQtQtQtQtQtQtQtQtQtQtQtQt",
"QtQtQtQtQtQtQtQtQtQtQtQtQtQtQtQtQtQtQtQtQtQtQtQtQtQtQtQtQtQtQtQtQtQtQtQtQtQtQtQtQtQtQtQtQtQtQtQtQtQtQtQtQtQtQtQtQtQtQtQtQtQtQtQt",
"QtQtQtQtQtQtQtQtQtQtQtQtQtQtQtQtQtQtQtQtQtQtQtQtQtQtQtQtQtQtQtQtQtQtQtQtQtQtQtQtQtQtQtQtQtQtQtQtQtQtQtQtQtQtQtQtQtQtQtQtQtQtQtQt",
"QtQtQtQtQtQtQtQtQtQtQtQtQtQtQtQtQtQtQtQtQtQtQtQtQtQtQtQtQtQtQtQtQtQtQtQtQtQtQtQtQtQtQtQtQtQtQtQtQtQtQtQtQtQtQtQtQtQtQtQtQtQtQtQt",
"QtQtQtQtQtQtQtQtQtQtQtQtQtQtQtQtQtQtQtQtQtQtQtQtQtQtQtQtQtQtQtQtQtQtQtQtQtQtQtQtQtQtQtQtQtQtQtQtQtQtQtQtQtQtQtQtQtQtQtQtQtQtQtQt",
"QtQtQtQtQtQtQtQtQtQtQtQtQtQtQtQtQtQtQtQtQtQtQtQtQtQtQtQtQtQtQtQtQtQtQtQtQtQtQtQtQtQtQtQtQtQtQtQtQtQtQtQtQtQtQtQtQtQtQtQtQtQtQtQt",
"QtQtQtQtQtQtQtQtQtQtQtQtQtQtQtQtQtQtQtQtQtQtQtQtQtQtQtQtQtQtQtQtQtQtQtQtQtQtQtQtQtQtQtQtQtQtQtQtQtQtQtQtQtQtQtQtQtQtQtQtQtQtQtQt",
"QtQtQtQtQtQtQtQtQtQtQtQtQtQtQtQtQtQtQtQtQtQtQtQtQtQtQtQtQtQtQtQt.a.#.#Qt.#Qt.aQtQtQtQtQtQtQtQtQtQtQtQtQtQtQtQtQtQtQtQtQtQtQtQtQt",
"QtQtQtQtQtQtQtQtQtQtQtQtQtQtQtQtQtQtQtQtQtQtQtQtQt.a.b.a.aQt.c.a.d.e.f.a.g.h.a.aQtQtQtQtQtQtQtQtQtQtQtQtQtQtQtQtQtQtQtQtQtQtQtQt",
"QtQtQtQtQtQtQtQtQtQtQtQtQtQtQtQtQtQtQtQtQtQtQtQt.i.j.#.k.l.a.m.n.o.b.#.p.q.a.r.s.aQtQtQtQtQtQtQtQtQtQtQtQtQtQtQtQtQtQtQtQtQtQtQt",
"QtQtQtQtQtQtQtQtQtQtQtQtQtQtQtQtQtQtQt.bQt.t.u.v.a.h.w.x.y.z.A.B.C.D.E.F.B.G.H.#.aQt.I.J.a.a.aQtQtQtQtQtQtQtQtQtQtQtQtQtQtQtQtQt",
"QtQtQtQtQtQtQtQtQtQtQtQtQtQtQtQt.a.c.a.a.K.a.L.M.N.O.P.Q.R.S.T.U.V.W.X.Y.Z.0.1.2.3.4.5.6.a.I.aQtQtQtQtQtQtQtQtQtQtQtQtQtQtQtQtQt",
"QtQtQtQtQtQtQtQtQtQtQtQtQtQtQtQt.#.7.8.#.9#.###a#b#c#d#e#f#g#h#i#j#k#l#m#n#o#p#q#r#s#t#u#v#w.a.a.aQtQtQtQtQtQtQtQtQtQtQtQtQtQtQt",
"QtQtQtQtQtQtQtQtQtQtQtQtQtQtQtQt.##x#y#z#A.F.w#B#C#D#E#F#G#H#I#J#K#L#M#N#O#l#P#Q#R#S.G#T#U.b#V.aQtQtQtQtQtQtQtQtQtQtQtQtQtQtQtQt",
"QtQtQtQtQtQtQtQtQtQtQtQtQt.a.aQt.a.c#W#X#Y#Z#0#1#2#3#4#5#6#7#8#9a.#Za#aaabacadaeafagahai.yaj#VakalQt.aQtQtQtQtQtQtQtQtQtQtQtQtQt",
"QtQtQtQtQtQtQtQtQtQtQtQtQt.a.#am.t.KanaoapaqarasatauavawaxayazaAaBaCaDaEaFaGaHaIaJaKaLaMaNaO.O.taPaQ.bQtQtQtQtQtQtQtQtQtQtQtQtQt",
"QtQtQtQtQtQtQtQtQtQtQtQtQt.a.aaRaSaTaUaVaWaXaYaZa0a1a2a3a4a5a6a7a8a9b.b#babbbcbdbebfbgbhbibjbkbl.Kbm.cQtQtQtQtQtQtQtQtQtQtQtQtQt",
"QtQtQtQtQtQtQtQtQtQtQtQtQt.#.i.a.Bbnbobpbqbrbsbtbubvbwbxbybz#5bAbBbCbDbEbFbGbHbIbIbJbKbLbMbNbObPbQ.a.i.qbRbRbRbR.a.aQtQtQtQtQtQt",
"QtQtQtQtQtQtQtQtQtQtQtQtQtbSbTbUbVbWbXbYbZb0b1b2b3b4b5b6b7b8b9c.c#cacbcccdcecfcgchcicjckclcmcncocpcqcrcsctcucvcwcxcy#V.i.i.#.aQt",
"QtQtQtQtQtQtQtQtQtQtQtQtQt.a.aczcAcB#QcCcDcEcFcGcHcIcJcKcLcMcNcOcPcQcRcScTcUcVcVa#cWcXcYcZc0c1c2c3c4c5c6c7c8c9d.d#d.dadbdbdc.aQt",
"QtQtQtQtQtQtQtQtQtQt.bQtddde.hdfdgdhdidjdkdldmdndodpdqdrdsdtdudvdwdxdydzdAdBdCdDdEdFdGdHdIdJdKdLdMdNdOdPdQdQdRdSdTdUdVdQdWdXdcdY",
"QtQtQtQtQtQtQtQtQtQt.b#wdZd0d1d2d3d4d5d6d7d8d9e.e#eaebecedeeefegeheiejekelemeneoepeqereseteuevewexeyezeAeBeCeDeEeFeGeHeIeJeKeLeM",
"QtQtQtQtQtQtQtQtQtQt.beNeOePeQeReSeTeUeVeWeXeYeZe0e1e2e3e4e5e6e7e8e9f.f#fafbfcfdfefffgfhfifjfkflfmfnfofpfqfrfsft.a.bfufvfwdVfxfy",
"QtQtQtQtQtQtQtQtQtQtQtQt.cePfzfAfBfCfDfEfFfGfHfIfJfKfKfLfMfNfOfPfQfRfSfTfUfVfWfXfYfZf0f1f2f3f4f5f6f7f8bU.af9QtQt.a.cQtQtQtg.g#ga",
"QtQtQtQtQtQtQtQtQtQt.cgbgcgdgegfggghgigjgkglgmgnfKgogpgqgrgsgtgugvgwgxgygzgAgBgCgDaWgEgFgGgHgIgJgKgLgMgNgOgP.#.a.cf9f9.#gQgR.t.#",
"QtQtQtQtQtQtQtQtQtQtf9.hgSgTgUcCgVgWgXgYgZg0g1g2g3g4g5g6g7g8g9h.h#hahbhchdhehf#ChgcChhhi#IhjhkhlhmhnhohpdZ.b#z.a.#.ihqhrhshthu.c",
"QtQtQtQtQtQtQtQtQtQt.c.ahvhwhxhyhzhAhBhChDhEhFhGhHhIhJhKhLhMhNhOhPhQhRhShThUhVhWhXhYhZh0h1h2h2h3h4h5h6h7h8.a.a.a.bh9i.i#ia.#ibQt",
"QtQtQtQtQtQtQtQtQtQtQticidieifigihiiijikiliminioipiqirisitiuiviwixiyiziAiBiCiDiEiFiGiHiIiJiKiLiMiNiOiPiQiR.b.a.#iSiTiUiV.a.a.aQt",
"QtQtQtQtQtQtQtQtQtQtQtiWiXiYiZi0i1i2i3i4i5i6i7i8i9j.j#jajbjcjdjejfjgjhjijjjkjljmjnjnjojpjqjrjsjtiOjujvjwjxjy.bjzjAjBjC.tf9QtQtQt",
"QtQtQtQtQtQtQtQtQt.b.aQtjDjEjFjGjHjIjJjKjLjMjNjOjPjQjRjSjTjUjVjWjXjYjZj0j1j2j3j4j5j6j7j8j9k.k#kakbjtkckdkekfkgkhki.t.b.b.cQtQtQt",
"QtQtQtQtQtQtQtQtQt.#kjkkklkmknkokpkqkrksktkukvkwkxkykykzkAkBkCkDkEkFkGkHkIkJkKkLkMkNkOkPkQkRkSkTkUkVkWkXkYkZib.##z.bQtQtQtQtQtQt",
"QtQtQtQtQtQtQtQtQt.#k0k1k2k3k4k5k6k7k8k9l.kBl#lalbb4lcjOldlelflglhliljlklllmlnlolplqlrlsltlulvlwlxlylzlAlBlC.tib.a.bQtQtQtQtQtQt",
"QtQtQtQtQtQtQtQt.clDlElFlGlHlIlJlKlLlMlNlOlPlQlRlSlTlUlVlWlXlYlZl0l1l2l3l4l5l6aWl7l7l8l9m.m#maiNmbmcmdmemfmg#z.a.aQtQtQtQtQtQtQt",
"QtQtQtQtQtQt.a.#mhmimjmkmlmmmnmompmqmrmsmtmumvmwmxmymzmAmBmCmDmEmFmGmHmImJmKmLmMmNmOmPmQ#LmRiOjtmRmSmTmUmVmWmX.aQtQtQtQtQtQtQtQt",
"QtQtQtQt.cQtmYmZm0m1m2m3m4m5m6m7m8m9n.n#nanbncndnenfngnhninjnknlnmnnnonpnqnrnsntnunvnwnxnynznAnBmamanCnDnE.a.#QtQtQtQtQtQtQtQtQt",
"Qt.aQtQtnFnGnHnInJ.a.a.anKnLnMnNnOnPhYnQnRnSnTnUnVnWnXnYnZn0n1n2n3n4n5n6n7n8n9o.o#oaobocodoeofogohoiojokbSQtQtQtQtQtQtQtQtQtQtQt",
"Qt.a.aolomonooopoqQt.borosotoudzovowoxoyhYozoAoBoCoDoEoFoGoHoIoJoKoLoMoNoOoPoQoRoSoToUmdoVoWoXoYoZo0o1o2o3o4QtQtQtQtQtQtQtQtQtQt",
"Qtoskeo5o6o7o8o9.#Qt.ap.p#papbpcpdpepfpgoQphpipjpkplpmpnpopppqprpsptpupvpwpxpykbkbpzpApBpCpDpEpFpGpHpI#VblpJQtQtQtQtQtQtQtQtQtQt",
"QtpKpLpMpNpOpPQt.aQtQt.b.apQpRpSpTpUpVpWpXpYpZp0mOp1p1pZp2p3p4p5p6p7p8p9q.q#qaqbqckQqdqeqeqfqgqhqiqjqkql.#.#QtQtQtQtQtQtQtQtQtQt",
"Qtqmqnqoqpqq.a.a.a.a.a.aqrde.ceQqsqtquqvqwn.qxqyqzqAqBqCqDqEqFqGqHqIqJqKqLqMqNqOqPqQqRqSqTbIqUqVqWqXkiqYqZ.a.a.#QtQtQtQtQtQtQtQt",
"Qtq0q1q2q3q4q5Qt.#.#.#q6q7q8q9r.r#rarbrcrdre#Nrfrgrhrirjrkrlrmrnrorprqm#nOrrrsrtrurvrwrxryrzrArBrChv.thu.a.#QtQtQtQtQtQtQtQtQtQt",
"QtrDrErFrGrHrIrJrKrLrMrNrOrPrQrRrSrTrUrVrWoXrXrYrZr0r1r2r3r4r5r6r7r8r9m#s.s#sasbscsdsdsesfsgshsimfsjskf9.a.aQtQtQtQtQtQtQtQtQtQt",
"Qt.aslsmsnsospsqsrssstsusvswhusxsyszsAsBsCjtsDsEsFsGsHsIsJsKsLiOsMkcnCsNsOsPsQsRsSsTsTsUsVsWsXsYo4sZs0.#.aQtQtQtQtQtQtQtQtQtQtQt",
"Qt.aQtQt.#s1s2s3s4s5s6nFQtQtQts7.hqYs8nRs9t.t#tatbtctdtetftgthtitjtktltmtntotptqtrtstttutvtwtx.qQt.aQt.aQtQtQtQtQtQtQtQtQtQtQtQt",
"QtQtQtQt.cQtQtQtQtQt.c.c.c.a.a.#.b#VtytztAtBtCtDtEtFtGtHtIbHtJtKtLtMtNtOtPtQtRtStTcVtUtVtWtXtY.jtZ.aQtQtQtQtQtQtQtQtQtQtQtQtQtQt",
"QtQtQtQtQtQtQtQtQtQtQtQtQtQtQtQtt0t1t2qqt3t4t5t6nasEt7t8t9u.u#uaubucudueufuguhuiujukulumunuoqq.#.a.aQtQtQtQtQtQtQtQtQtQtQtQtQtQt",
"QtQtQtQtQtQtQtQtQtQtQtQtQtQtQtQtQtQthuup.auqurusutgVuuuvuwuxuyuzuAuBuCuDuEuFuGuHuIuJuKuLuM.m#V.#QtQtQtQtQtQtQtQtQtQtQtQtQtQtQtQt",
"QtQtQtQtQtQtQtQtQtQtQtQtQtQtQtQtQt.a.buN.auOuPuQuRuSuTuUuVuWuXuYuZu0u1u2u3u4u5u6u7u8u9.e.auN#V.aQtQtQtQtQtQtQtQtQtQtQtQtQtQtQtQt",
"QtQtQtQtQtQtQtQtQtQtQtQtQtQtQtQtQt.aQtQt.a.uuq.h.av.v#vavbvcvdoXvevfvgvhvivjvkvl.Chu.tQt.b.a.a.aQtQtQtQtQtQtQtQtQtQtQtQtQtQtQtQt",
"QtQtQtQtQtQtQtQtQtQtQtQtQtQtQtQtQtQtQtQt.a.a.a#Vvm.i.avntXvovpvqvrvpvovovs.ttYcyvtbTqZQt.b.aQtQtQtQtQtQtQtQtQtQtQtQtQtQtQtQtQtQt",
"QtQtQtQtQtQtQtQtQtQtQtQtQtQtQtQtQtQtQtQtQtQt.a.#cqvumXvvvwpRvxbVvyuPcq.#.cvzbl.a#z.#.a.aQtQtQtQtQtQtQtQtQtQtQtQtQtQtQtQtQtQtQtQt",
"QtQtQtQtQtQtQtQtQtQtQtQtQtQtQtQtQtQtQtQtQtQt.a.a.aQtvAvB.#vC.ivDvEvF.ivGQtmVvB.bQtQtQtQtQtQtQtQtQtQtQtQtQtQtQtQtQtQtQtQtQtQtQtQt",
"QtQtQtQtQtQtQtQtQtQtQtQtQtQtQtQtQtQtQtQtQtQtQtQtQt.a.aQt.#Qtf9.i.c.a.cmg.i.aQtQtQtQtQtQtQtQtQtQtQtQtQtQtQtQtQtQtQtQtQtQtQtQtQtQt",
"QtQtQtQtQtQtQtQtQtQtQtQtQtQtQtQtQtQtQtQtQtQtQtQtQt.a.aQtQtQtQt.#ibQt.c.a.a.aQtQtQtQtQtQtQtQtQtQtQtQtQtQtQtQtQtQtQtQtQtQtQtQtQtQt",
"QtQtQtQtQtQtQtQtQtQtQtQtQtQtQtQtQtQtQtQtQtQtQtQtQtQt.aQtQtQtQt.aQtQtQtQt.a.aQtQtQtQtQtQtQtQtQtQtQtQtQtQtQtQtQtQtQtQtQtQtQtQtQtQt",
"QtQtQtQtQtQtQtQtQtQtQtQtQtQtQtQtQtQtQtQtQtQtQtQtQtQtQtQtQtQtQtQtQtQtQtQtQtQtQtQtQtQtQtQtQtQtQtQtQtQtQtQtQtQtQtQtQtQtQtQtQtQtQtQt",
"QtQtQtQtQtQtQtQtQtQtQtQtQtQtQtQtQtQtQtQtQtQtQtQtQtQtQtQtQtQtQtQtQtQtQtQtQtQtQtQtQtQtQtQtQtQtQtQtQtQtQtQtQtQtQtQtQtQtQtQtQtQtQtQt",
"QtQtQtQtQtQtQtQtQtQtQtQtQtQtQtQtQtQtQtQtQtQtQtQtQtQtQtQtQtQtQtQtQtQtQtQtQtQtQtQtQtQtQtQtQtQtQtQtQtQtQtQtQtQtQtQtQtQtQtQtQtQtQtQt",
"QtQtQtQtQtQtQtQtQtQtQtQtQtQtQtQtQtQtQtQtQtQtQtQtQtQtQtQtQtQtQtQtQtQtQtQtQtQtQtQtQtQtQtQtQtQtQtQtQtQtQtQtQtQtQtQtQtQtQtQtQtQtQtQt",
"QtQtQtQtQtQtQtQtQtQtQtQtQtQtQtQtQtQtQtQtQtQtQtQtQtQtQtQtQtQtQtQtQtQtQtQtQtQtQtQtQtQtQtQtQtQtQtQtQtQtQtQtQtQtQtQtQtQtQtQtQtQtQtQt",
"QtQtQtQtQtQtQtQtQtQtQtQtQtQtQtQtQtQtQtQtQtQtQtQtQtQtQtQtQtQtQtQtQtQtQtQtQtQtQtQtQtQtQtQtQtQtQtQtQtQtQtQtQtQtQtQtQtQtQtQtQtQtQtQt",
"QtQtQtQtQtQtQtQtQtQtQtQtQtQtQtQtQtQtQtQtQtQtQtQtQtQtQtQtQtQtQtQtQtQtQtQtQtQtQtQtQtQtQtQtQtQtQtQtQtQtQtQtQtQtQtQtQtQtQtQtQtQtQtQt",
"QtQtQtQtQtQtQtQtQtQtQtQtQtQtQtQtQtQtQtQtQtQtQtQtQtQtQtQtQtQtQtQtQtQtQtQtQtQtQtQtQtQtQtQtQtQtQtQtQtQtQtQtQtQtQtQtQtQtQtQtQtQtQtQt"};
