/* XPM */
static char *dummy[]={
"64 64 8 1",
"d c #454a42",
"# c #4b5145",
"b c #525a51",
"e c #5b625e",
"c c #636c6d",
". c #76776f",
"a c #85837a",
"f c #918e80",
"........####aaaa........####aaaa........####aaaa........####aaaa",
"........####aaaa........####aaaa........####aaaa........####aaaa",
"........####aaaa........####aaaa........####aaaa........####aaaa",
"........####aaaa........####aaaa........####aaaa........####aaaa",
"bbbbccccbbbb....bbbbccccbbbb....bbbbccccbbbb....bbbbccccbbbb....",
"bbbbccccbbbb....bbbbccccbbbb....bbbbccccbbbb....bbbbccccbbbb....",
"bbbbccccbbbb....bbbbccccbbbb....bbbbccccbbbb....bbbbccccbbbb....",
"bbbbccccbbbb....bbbbccccbbbb....bbbbccccbbbb....bbbbccccbbbb....",
"####ccccdddd########################################dddd####cccc",
"####ccccdddd########################################dddd####cccc",
"####ccccdddd########################################dddd####cccc",
"####ccccdddd########################################dddd####cccc",
"####dddddddddddddddddddddddddddddddd####bbbbbbbbbbbb####dddd####",
"####dddddddddddddddddddddddddddddddd####bbbbbbbbbbbb####dddd####",
"####dddddddddddddddddddddddddddddddd####bbbbbbbbbbbb####dddd####",
"####dddddddddddddddddddddddddddddddd####bbbbbbbbbbbb####dddd####",
"####bbbbddddddddcccc........ccccddddddddeeeeeeeebbbbbbbbbbbb####",
"####bbbbddddddddcccc........ccccddddddddeeeeeeeebbbbbbbbbbbb####",
"####bbbbddddddddcccc........ccccddddddddeeeeeeeebbbbbbbbbbbb####",
"####bbbbddddddddcccc........ccccddddddddeeeeeeeebbbbbbbbbbbb####",
"####eeeeddddddddeeeedddd####eeee########dddddddddddddddddddd####",
"####eeeeddddddddeeeedddd####eeee########dddddddddddddddddddd####",
"####eeeeddddddddeeeedddd####eeee########dddddddddddddddddddd####",
"####eeeeddddddddeeeedddd####eeee########dddddddddddddddddddd####",
"####eeeeddddddddccccccccddddeeeecccc........cccccccceeeeeeeedddd",
"####eeeeddddddddccccccccddddeeeecccc........cccccccceeeeeeeedddd",
"####eeeeddddddddccccccccddddeeeecccc........cccccccceeeeeeeedddd",
"####eeeeddddddddccccccccddddeeeecccc........cccccccceeeeeeeedddd",
"####eeee####dddddddddddd####cccceeee####dddddddddddd####eeeedddd",
"####eeee####dddddddddddd####cccceeee####dddddddddddd####eeeedddd",
"####eeee####dddddddddddd####cccceeee####dddddddddddd####eeeedddd",
"####eeee####dddddddddddd####cccceeee####dddddddddddd####eeeedddd",
"bbbbeeeeeeeeeeeecccc........cccceeeeddddeeeeeeeeddddddddeeeedddd",
"bbbbeeeeeeeeeeeecccc........cccceeeeddddeeeeeeeeddddddddeeeedddd",
"bbbbeeeeeeeeeeeecccc........cccceeeeddddeeeeeeeeddddddddeeeedddd",
"bbbbeeeeeeeeeeeecccc........cccceeeeddddeeeeeeeeddddddddeeeedddd",
"dddddddddddddddddddddddddddd####eeeedddd####eeeeddddddddeeee####",
"dddddddddddddddddddddddddddd####eeeedddd####eeeeddddddddeeee####",
"dddddddddddddddddddddddddddd####eeeedddd####eeeeddddddddeeee####",
"dddddddddddddddddddddddddddd####eeeedddd####eeeeddddddddeeee####",
"bbbbeeeecccccccccccc....ddddddddcccc........ccccddddddddeeeebbbb",
"bbbbeeeecccccccccccc....ddddddddcccc........ccccddddddddeeeebbbb",
"bbbbeeeecccccccccccc....ddddddddcccc........ccccddddddddeeeebbbb",
"bbbbeeeecccccccccccc....ddddddddcccc........ccccddddddddeeeebbbb",
"dddd####cccceeeeeeee....########dddddddddddddddddddd########dddd",
"dddd####cccceeeeeeee....########dddddddddddddddddddd########dddd",
"dddd####cccceeeeeeee....########dddddddddddddddddddd########dddd",
"dddd####cccceeeeeeee....########dddddddddddddddddddd########dddd",
"aaaa....aaaaeeeeeeeeeeee................ccccccccccccaaaa....####",
"aaaa....aaaaeeeeeeeeeeee................ccccccccccccaaaa....####",
"aaaa....aaaaeeeeeeeeeeee................ccccccccccccaaaa....####",
"aaaa....aaaaeeeeeeeeeeee................ccccccccccccaaaa....####",
"....bbbb....aaaaffffffffffffffffaaaaffffaaaaaaaaaaaa....ccccbbbb",
"....bbbb....aaaaffffffffffffffffaaaaffffaaaaaaaaaaaa....ccccbbbb",
"....bbbb....aaaaffffffffffffffffaaaaffffaaaaaaaaaaaa....ccccbbbb",
"....bbbb....aaaaffffffffffffffffaaaaffffaaaaaaaaaaaa....ccccbbbb",
"....####cccccccc....####cccc........####cccc....cccc####cccc....",
"....####cccccccc....####cccc........####cccc....cccc####cccc....",
"....####cccccccc....####cccc........####cccc....cccc####cccc....",
"....####cccccccc....####cccc........####cccc....cccc####cccc....",
"############dddddddd############dddd########dddddddd############",
"############dddddddd############dddd########dddddddd############",
"############dddddddd############dddd########dddddddd############",
"############dddddddd############dddd########dddddddd############"};
