/* XPM */
static char *dummy[]={
"64 64 148 2",
".T c #000000",
"ap c #004000",
"ao c #006000",
".o c #009180",
"an c #050d00",
"ah c #080a36",
"ag c #0d8316",
"aj c #102800",
"#U c #108000",
"aa c #152500",
"am c #153500",
".a c #161684",
"ab c #1647c1",
"#M c #181894",
"#Y c #1846c2",
"#E c #184ebd",
".z c #19168f",
"#R c #19199b",
"#W c #1940c7",
"#f c #1a1795",
"#N c #1a44c5",
".O c #1b1696",
".B c #1b1697",
"#9 c #1b39ce",
"al c #1b4300",
"#i c #1b49c2",
".k c #1c1598",
"#H c #1c1aa4",
"#F c #1c41c8",
"#r c #1c45c6",
".U c #1d169f",
".Q c #1d16a0",
"#S c #1d37d0",
"#3 c #1e31d5",
"#7 c #1e32d4",
".j c #1f15a2",
"ad c #1f28dc",
".t c #2015a7",
"a. c #2027dd",
"#A c #2034d4",
"#D c #2035d3",
"#2 c #2126df",
"#5 c #2127de",
"#O c #212ed9",
"#j c #213bcf",
"#V c #2225df",
"#T c #2325e0",
"#s c #2332d7",
"#Q c #2424e1",
"#P c #2424e2",
"#K c #2523e3",
"#G c #2529de",
".W c #2537d5",
".4 c #2538d3",
".f c #2614b6",
"#I c #2622e4",
"#k c #262cdd",
".9 c #2630db",
".I c #263ad2",
"#z c #2721e5",
"#C c #2722e4",
"ar c #280108",
"#x c #2821e6",
"#v c #2920e7",
".Z c #292ddd",
".2 c #292edc",
".D c #2934d9",
"#t c #2a1fe8",
"#o c #2a1fe9",
".x c #2a33da",
"#m c #2b1ee9",
"#g c #2c1eea",
".M c #2c2be0",
"#e c #2d1deb",
".g c #2d31dd",
"#d c #2e1cec",
".8 c #2e1ced",
".G c #2e2ae2",
".7 c #2f1bee",
".v c #2f28e5",
".5 c #301bef",
".n c #3027e5",
".X c #3119f0",
".0 c #311aef",
".E c #3122eb",
".V c #3219f1",
".h c #3227e7",
".S c #3318f2",
".N c #3417f4",
".R c #3418f3",
".L c #3516f4",
"ae c #359d16",
".J c #3616f5",
".F c #3715f6",
".A c #3715f7",
".w c #3814f8",
".u c #3913f9",
".m c #3a12fa",
".p c #3a13f9",
".l c #3b12fb",
"#L c #3b3ae5",
"Qt c #3c11fc",
".Y c #3e38e8",
"#B c #3e3de5",
".H c #3f37e9",
"#n c #3f3b78",
".1 c #3f3be7",
"#w c #3f3c77",
".e c #4032ed",
".C c #403be8",
"#1 c #40a000",
".d c #4136eb",
".q c #413ae8",
".c c #413ae9",
".b c #423ee7",
"#X c #424261",
"#J c #424262",
".# c #4242e5",
"#y c #434262",
"#c c #444163",
"#u c #454458",
"#l c #480000",
"#b c #484848",
"#6 c #50bf16",
"#0 c #60c800",
"aq c #682001",
".i c #6a6aed",
"#h c #6f6aae",
"#q c #720526",
"ak c #751a00",
"#Z c #7e7e9d",
"#a c #800000",
".6 c #807d9f",
"#4 c #80e000",
".3 c #909090",
"#. c #938ec2",
".s c #9b9bef",
"ac c #9c9dbb",
".r c #a36141",
"#p c #a6a5b9",
"## c #b4b4b4",
"af c #c00724",
"ai c #c61a00",
"a# c #dadbf9",
"#8 c #e00000",
".K c #f5f5f5",
".y c #ffab93",
".P c #ffffff",
"QtQtQtQtQtQtQtQtQtQtQtQtQtQtQtQtQtQtQtQtQtQtQtQtQtQtQtQtQtQtQtQtQtQtQtQtQtQtQtQtQtQtQtQtQtQtQtQtQtQtQtQtQtQtQtQtQtQtQtQtQtQtQtQt",
"QtQtQtQtQtQtQtQtQtQtQtQtQt.#.a.a.#.#.#.b.c.d.e.f.gQtQtQtQtQtQtQtQtQtQtQtQtQtQtQtQtQtQtQtQtQtQtQtQtQtQtQtQtQtQtQtQtQtQtQtQtQtQtQt",
"QtQtQtQtQtQtQtQtQtQtQtQtQtQt.h.#.a.#.#.i.i.i.i.i.#.#.j.hQtQtQtQtQtQtQtQtQtQtQtQtQtQtQtQtQtQtQtQtQtQtQtQtQtQtQtQtQtQtQtQtQtQtQtQt",
"QtQtQtQtQtQtQtQtQtQtQtQtQtQtQt.h.a.a.#.#.#.i.i.i.i.i.i.#.k.hQtQtQtQtQtQtQtQtQtQtQtQt.l.l.l.l.l.l.l.l.l.l.l.l.l.l.l.l.l.l.l.l.l.l",
".l.l.l.l.l.l.l.l.l.l.l.l.l.l.l.l.c.a.a.#.#.#.#.i.i.i.i.i.i.#.k.l.a.l.l.m.m.m.m.m.m.m.m.m.m.m.m.m.m.m.m.m.m.m.m.m.m.m.m.m.m.m.m.m",
".m.m.m.m.m.m.m.m.m.m.m.m.m.m.m.m.n.a.a.#.#.#.a.a.#.i.i.i.i.i.i.#.o.a.p.p.p.p.p.p.p.p.p.p.p.p.p.p.p.p.p.p.p.p.p.p.p.p.p.p.p.p.p.p",
".p.p.p.p.p.p.p.p.p.p.p.p.p.p.p.p.p.q.a.a.#.#.a.r.r.a.s.s.i.i.i.i.#.a.t.u.u.u.u.u.u.u.u.u.u.u.u.u.u.u.u.u.u.u.u.u.u.u.u.u.u.u.u.u",
".u.u.u.u.u.u.u.u.u.u.u.#.v.u.u.u.w.x.a.a.#.#.a.y.y.r.a.s.s.s.i.i.i.#.z.w.w.w.w.w.w.w.w.w.w.w.w.w.w.w.w.w.w.w.w.w.w.w.w.w.w.w.w.w",
".w.w.w.w.w.w.w.w.w.A.A.B.#.C.D.A.A.A.a.a.a.#.a.y.y.y.r.a.s.s.s.i.i.i.#.E.A.A.A.A.A.A.A.A.A.A.A.A.A.A.A.A.A.A.A.A.A.A.A.A.A.A.A.A",
".A.A.A.F.F.F.F.F.F.F.F.G.a.#.#.#.H.F.a.a.a.#.a.y.y.y.y.#.s.s.s.s.i.i.#.I.F.F.F.F.F.F.F.F.F.F.F.F.F.F.F.F.F.F.F.F.F.F.F.F.F.F.F.F",
".J.J.J.J.J.J.J.J.J.J.J.J.B.a.#.#.#.#.#.#.#.#.#.y.y.#.i.s.s.K.s.s.i.i.i.B.J.J.J.J.J.J.J.J.J.J.J.J.J.J.J.J.J.J.J.J.J.J.J.J.J.J.J.J",
".L.L.L.L.L.L.L.L.L.L.L.L.M.a.a.a.#.#.#.#.a.#.#.#.i.i.s.#.a.i.s.s.s.i.i.#.M.L.L.L.L.L.L.L.L.L.L.L.L.L.L.L.L.L.L.L.L.L.L.L.L.L.L.L",
".N.N.N.N.N.N.N.N.N.N.N.N.N.O.a.a.a.#.#.a.a.#.#.i.i.i.i.P.P.#.i.s.s.i.i.#.Q.N.N.N.N.N.N.N.N.N.N.N.N.N.N.N.N.N.N.N.N.N.N.N.N.N.N.N",
".R.R.R.R.R.R.R.R.R.R.R.R.R.R.a.a.a.a.a.a.a.#.#.i.i.i.s.P.P.P.#.i.s.i.i.#.a.R.R.R.R.R.R.R.R.R.R.R.R.R.R.R.R.R.R.R.R.R.R.R.R.R.R.R",
".S.S.S.S.S.S.S.S.S.S.S.S.S.S.S.a.a.a.a.a.a.#.#.i.i.i.s.P.P.P.P.#.i.i.#.T.U.S.S.S.S.S.S.S.S.S.S.S.S.S.S.S.S.S.S.S.S.S.V.V.V.V.V.V",
".V.V.V.V.V.V.V.V.V.V.V.a.V.V.V.V.a.a.a.a.a.#.#.i.i.i.s.P.P.P.P.T.#.i.a.T.W.V.V.V.V.V.V.V.V.V.V.V.V.V.V.X.X.X.X.X.X.X.X.X.X.X.X.X",
".X.X.X.X.X.X.X.X.X.X.X.X.a.Y.Z.X.X.a.a.a.a.#.#.#.i.i.s.P.P.P.P.T.T.a.T.T.X.X.X.X.X.X.X.X.X.0.0.0.0.0.0.0.0.0.0.0.0.0.0.0.0.0.0.0",
".0.0.0.0.0.0.0.0.0.0.0.0.0.a.#.1.2.0.a.a.a.#.#.#.#.r.y.y.P.P.P.T.T.s.T.3.4.0.5.5.5.5.5.5.5.5.5.5.5.5.5.5.5.5.5.5.5.5.5.5.5.5.5.5",
".5.5.5.5.5.5.5.5.5.5.5.5.5.5.a.#.#.#.#.#.a.a.#.#.r.y.y.y.y.P.P.P.P.r.3.T.6.7.7.7.7.7.7.7.7.7.7.7.7.7.7.7.7.7.7.7.7.7.7.7.7.7.7.7",
".7.7.7.7.7.7.7.7.7.7.7.7.7.7.7.a.#.#.a.a.a.a.a.#.r.y.y.y.y.y.y.y.y.y.T.T.T.8.9#.##.3.8.8.8.8.8.8.8.8.8.8.8.8.8.8.8.8.8.8.8.8.8.8",
".8.8.8.8.8.8.8.8.8.8.8.8.8.8.8.8.a.a.a.a.a.a.a.a#a.y.y.y.y.y.y.y.y.r.r#a######.3#b#c#d#d#d#d#d#d#d#d#d#d#d#d#d#d#d#d#d#d#d#d#d#d",
"#d#d#d#d#d#d#d#d#d#d#d#d#e#e#e#e#e#f.a.a.a.a.a.a.a#a.r.y.y.y.y.y.r.r#a.3.3###b#b#c#e#e#e#e#e#e#e#e#e#e#e#e#e#e#e#e#e#e#e#e#e#e#e",
"#e#e#e#e#e#e#g#h.6.3.6#h#i#j#k#g#g#g#g.a.a.a.a.a.a.T.T#a.r.r.r#a#a#l#b.3#b.3#b#g#g#g#g#g#g#g#g#g#g#g#g#g#g#g#g#g#g#g#g#g#g#g#g#g",
"#m#m#m#m#m#m#n.P.P.P.P####.3#b#b#b#b.a.a.y.y.r.a.a#a#a#a#a#a#l#l#l#a#a#b#b#b.3#m#m#m#m#m#m#m#m#m#m#m#m#m#m#m#m#m#m#m#m#m#m#m#m#m",
"#o#o#o#o#o#o#p#b#b.3.P.P.P.P.3#b.3.y.y.y.r.r.r.#.r.y.y.r.r#a#l#a#q#r#s#o#s#r#b#o#o#o#o#o#o#o#o#o#o#o#o#o#o#o#o#o#o#o#o#o#o#o#o#o",
"#t#t#t#t#t#t#u#b.3#b#b.3.P.P##.3.3.r.r.r.a.a.#.r.y.P.y.y.r.r#a#t#t#t#t#t#t#t#t#t#t#t#t#t#t#t#t#t#t#t#t#t#t#t#t#t#t#t#t#t#t#t#t#t",
"#v#v#v#v#v#v#w.3.3.3#b#b######.3.3#b.a.a.a.a.#.r.y.y.y.y.r.r#a#v#v#v#v#v#v#v#v#v#v#v#v#v#v#v#v#v#v#v#v#v#v#v#v#v#v#v#v#v#v#v#v#v",
"#x#x#x#x#x#x#x#y#b.3.3#b.P##.3#b#b.a.a.a.a.a.##a.y.y.y.y.r.r#a#x#x#x#x#x#x#x#x#x#x#x#x#x#x#x#x#x#x#x#x#x#x#x#x#x#x#x#x#x#z#z#z#z",
"#z#z#z#z#z#z#z#z#A#b#b#b.P#b#b#b.a.a.a.a.T.a.#.#.r.y.y.r.r#a#B#z#z#z#z#z#z#z#z#z#z#z#z#z#z#z#z#z#z#z#z#z#z#z#C#C#C#C#C#C#C#C#C#C",
"#C#C#C#C#C#C#C#C#C#D#b.P#b#E#F#D#G#C#C#C#C.a.a.#.##a.r.r#a.##H#C#C#C#C#C#C#C#C#C#C#C#C#C#C#C#C#I#I#I#I#I#I#I#I#I#I#I#I#I#I#I#I#I",
"#I#I#I#I#I#I#I#I#I#I#b#J#I#I#I#I#I#I#I#I#D.#.#.a.a.#.#.#.#.a#I#I#I#I#I#I#I#I#I#I#I#K#K#K#K#K#K#K#K#K#K#K#K#K#K#K#K#K#K#K#K#K#K#K",
"#K#K#K#K#K#K#K#K#K#K#K#K#K#K#K#K#K#K#K#K#L.#.##M#N#O#O#N.a.a.##K#K#K#P#P#P#P#P#P#P#P#P#P#P#P#P#P#P#P#P#P#P#P#P#P#P#P#P#P#P#P#P#P",
"#P#P#P#P#P#P#P#P#P#P#P#P#P#P#P#P#P#P#P#P.#.a#P#P#P#P#P#P#Q.a.#.##Q#Q#Q#Q#Q#Q#Q#Q#Q#Q#Q#Q#Q#Q#Q#Q#Q#Q#Q#Q#Q#Q#Q#Q#Q#Q#Q#Q#Q#Q#Q#Q",
"#Q#Q#Q#Q#Q#Q#Q#Q#Q#Q#Q#Q#Q#Q#Q#Q#Q#Q#Q#Q#R.a.a#S#T#T#T#T#T#T.a.#.##S#T#T#T#T#T#T#T#T#T#T#T#T#T#T#U#T#T#T#T#T#T#T#T#T#T#T#T#T#T#T",
"#T#T#T#T#T#T#T#T#T#T#T#T#T#T#T#V#V#V#V#V#W.a.a.a#X#V#V#V#V#V#Y.a.a#b#Z#V#V#V#V#V#V#V#V#V#V#0#V#U#1#V#V#U#V#V#V#U#V#V#V#V#V#0#V#U",
"#U#V#V#V#V#V#V#V#2#2#2#2#2#2#2#2#2#2#2#2#2.3.a.a.3#X#2#2#2#2#3#b.3.3.3.3#2#2#2#U#2#2#2#2#2#4#2#1#1#2#0#1#2#2#2#1#2#2#U#2#2#4#2#1",
"#1#2#5#U#5#5#5#5#5#5#5#5#5#5#5#5#5#5#5#5#U#b.3.3#b#b#6#5#5#5#7#b#b#a#8#8#a#9#5#1#U#5#0#5#U#4#U#1#1#U#4#1#U#5#U#1#5#U#1#5#U#4#U#1",
"#1a.#0#1a.#0a.#U#Ua.a.#U#Ua.a.#U#Ua.#6a###.3#b#b#b#aaaa.#Ua.ab.T#a##.P.P.P.Pac#1#1a.#4a.#1#4#1#1#1#1#4#4#1#0#1#1#U#1#4#0#1#4#1#1",
"#1#U#4#1ad#4ad#1#1ad#0#1#1#0ad#1aeaf#8#8#8##.3#a#a#a.Tag#1#0ah#a.3.P#8#8#8#8.P.3#1#U#4#U#1#4#1#1#1#1#4#4#1#4#1#1#1#1#4#4#1#4#1#1",
"#1#1#4#4#U#4#U#1#1#U#4#1#1#4#Uai#8.y.y#8#8#8.3.3#a#a#aaj#1#4.T.3###a#8#8.y.y#8#8.3#1#4#1#1#4#1#1#1#1#4#4#1#4#1#1#1#1#4#4#1#4#1#1",
"#1#1#4#4#1#4#1#1#1#1#4#4#4#4ai#8#8#8#8#8#8#a.3.3#a#a#a.T#4#4aj.3#a#a#a#8#8#8#8#8#8ak#4#1#4#4#1#1#1#1#4#4#1#4#1#1#1#1#4#4#4#4#1#1",
"#1#1#4#4#1#4#1#1#1#1#4#4#4#4.T.T.T.T.T.T.T.T.T.T.T.T.T.T#4#4#1alamajaaan.T.T.T.T.T.T#4#1#4#0#1#1#1#1#4#4#4#4#1#1#1#1#0#4#4#0#1#1",
"#1#1#4#4#1#4#1#1#1#1#4#4#4#4#1#1#1#1#4#1#4#4#1#1#1#1#4#4#4#4#1#1#1#1#4#1#4#4#1#1#1#1#4#4#4#0#1#1#1#1#0#4#4#4#1#U#1#1#0#4#4#0#1#1",
"#1#1#4#4#4#4#1#1#1#1#4#4#4#4#1#1#1#1#4#4#4#4#1#1#1#1#0#4#4#4#1#1#1#1#4#4#4#4#1#1#1#1#0#4#4#1#U#1#1#1#0#4#4#0#1#U#1#1#1#0#4#1#U#1",
"#1#1#0#4#4#0#1#1#1#1#0#0#0#0#1#1#1#1#0#4#4#0#1#1#1#1#0#4#0#0#1#1#1#1#0#4#4#0#1#1#1#1#0#4#0#1#U#1#U#1#1#0#4#0#1ao#U#1#1#0#0#1#U#1",
"#1#1#0#0#4#0#1#1#1#1#0#0#0#0#1#1#1#1#0#4#0#0#1#1#1#U#1#0#0#0#1#1#1#1#0#4#0#0#1#1#1#U#1#0#0#1ao#1#U#1#1#0#0#1#Uao#U#1#1#1#0#1ao#1",
"#U#1#1#0#0#1#U#U#U#1#1#1#1#1#1#U#U#U#1#0#0#1#1#U#1#U#1#0#1#1#1#U#U#U#1#0#0#1#1#U#1#U#1#0#1#1ao#Uao#1#1#1#0#1#Uaoao#1#1#1#1#1ao#U",
"#U#1#1#1#0#1#U#U#U#1#1#1#1#1#1#U#U#U#1#0#1#1#1#U#Uao#1#1#1#1#1#U#U#U#1#0#1#1#1#U#Uao#1#1#1#1ao#Uao#U#1#1#1#1aoaoao#U#1#1#1#1ao#U",
"ao#U#1#1#1#1aoaoao#U#1#1#1#1#Uaoaoao#1#1#1#1#Uao#Uao#1#1#1#1#Uaoaoao#1#1#1#1#Uao#Uao#1#1#1#1aoaoao#U#1#1#1#1aoaoao#U#1#1#1#1aoao",
"ao#U#1#1#1#1aoaoao#U#1#1#1#1#Uaoaoao#1#1#1#1#Uaoaoao#1#1#1#1#Uaoaoao#1#1#1#1#Uaoaoao#1#1#1#1aoaoaoao#1#1#1#1aoaoaoao#1#1#1#1aoao",
"aoao#1#1#1#1aoaoaoao#1#1#1#1aoaoaoao#1#1#1#1aoaoaoao#1#1#1#1aoaoaoao#1#1#1#1aoaoaoao#1#1#1#1aoaoaoao#1#1#1#1aoaoaoao#1#1#1#1aoao",
"aoao#1#1#1#1aoaoaoao#1#1#1#1aoaoaoao#1#1#1#1aoaoaoao#1#1#1#1aoaoaoao#1#1#1#1aoaoaoao#1#1#1#1aoapaoao#1#1#1#1aoaoaoap#1#U#1#1aoap",
"aoao#1#1#1#1aoaoaoap#1#U#U#1apaoaoao#1#1#1#1aoaoapao#1#1#U#1apaoaoao#1#1#1#1aoaoapao#1#1#1#1aoaqapao#1#U#1#Uaoaoaoaq#1aq#1#1aoaq",
"apao#1#U#1#1aoaoaoaq#1aqaq#1aqaoaoao#1#1#U#1aoapaqao#1#1aq#1aqaoaoao#1#1#U#1aoapaqao#1#1#U#1aoaqarao#Uar#1araoaoapaq#Uaq#U#1aoaq",
"arap#Uar#U#Uapapapaq#Uaqaq#Uaqapapap#U#Uar#Uaparaqap#U#Uaq#Uaqapapap#U#Uar#Uaparaqap#U#Uaq#Uapaqaraparar#Uarapapaqaqaqaqaq#Uapaq",
"ararararararararaqaqaqaqaqaqaqaqararararararararaqaqaqaqaqaqaqaqararararararararaqaqaqaqaqaqaqaqararararararararaqaqaqaqaqaqaqaq",
"ararararararararaqaqaqaqaqaqaqaqararararararararaqaqaqaqaqaqaqaqararararararararaqaqaqaqaqaqaqaqararararararararaqaqaqaqaqaqaqaq",
"ararararararararaqaqaqaqaqaqaqaqararararararararaqaqaqaqaqaqaqaqararararararararaqaqaqaqaqaqaqaqararararararararaqaqaqaqaqaqaqaq",
"aqaqaqaqaqaqaqaqararararararararaqaqaqaqaqaqaqaqararararararararaqaqaqaqaqaqaqaqararararararararaqaqaqaqaqaqaqaqarararararararar",
"aqaqaqaqaqaqaqaqararararararararaqaqaqaqaqaqaqaqararararararararaqaqaqaqaqaqaqaqararararararararaqaqaqaqaqaqaqaqarararararararar",
"aqaqaqaqaqaqaqaqararararararararaqaqaqaqaqaqaqaqararararararararaqaqaqaqaqaqaqaqararararararararaqaqaqaqaqaqaqaqarararararararar",
"aqaqaqaqaqaqaqaqararararararararaqaqaqaqaqaqaqaqararararararararaqaqaqaqaqaqaqaqararararararararaqaqaqaqaqaqaqaqarararararararar",
"aqaqaqaqaqaqaqaqararararararararaqaqaqaqaqaqaqaqararararararararaqaqaqaqaqaqaqaqararararararararaqaqaqaqaqaqaqaqarararararararar",
"aqaqaqaqaqaqaqaqararararararararaqaqaqaqaqaqaqaqararararararararaqaqaqaqaqaqaqaqararararararararaqaqaqaqaqaqaqaqarararararararar"};
