/* XPM */
static char *dummy[]={
"64 64 96 2",
"#B c #004000",
"#A c #006000",
"## c #016c04",
"#o c #076128",
"#s c #095b39",
"#p c #108000",
"#z c #1d2ada",
"#x c #1e28db",
"#y c #1e29da",
"#v c #1f28dc",
"#q c #2027dd",
"#m c #2126df",
"#n c #2127de",
"#l c #2225df",
"#j c #2325e0",
"#g c #2424e1",
"#f c #2424e2",
".p c #250104",
"#e c #2523e3",
"#d c #2622e4",
"#a c #2721e5",
"#c c #2722e4",
"#D c #280108",
".9 c #2821e6",
".7 c #2920e7",
".5 c #2a1fe8",
".2 c #2a1fe9",
".X c #2b1ee9",
".T c #2c1eea",
"#b c #2c28e4",
".Q c #2d1deb",
".O c #2e1cec",
".L c #2e1ced",
".J c #2f1bee",
".H c #301bef",
".F c #3119f0",
".G c #311aef",
".E c #3219f1",
".D c #3318f2",
".x c #3417f4",
".B c #3418f3",
".v c #3516f4",
".s c #3616f5",
".q c #3715f6",
".n c #3715f7",
"#. c #3736e2",
".l c #3814f8",
".k c #3913f9",
".e c #3a12fa",
".h c #3a13f9",
".a c #3b12fb",
"#r c #3b49d8",
"Qt c #3c11fc",
"#h c #3e46db",
"#u c #40a000",
".8 c #4243e0",
".Z c #4441e2",
".V c #4541e3",
".R c #4640e4",
".N c #4640e5",
".1 c #49b404",
".6 c #4d50de",
".m c #4f39ef",
".g c #5037f0",
".i c #5038ef",
".d c #5137f1",
".3 c #575edc",
"#t c #60c800",
".0 c #626bda",
"#C c #682001",
".r c #6c2504",
".W c #6c79d8",
"#i c #76c63a",
"#k c #7fd828",
"#w c #80e000",
".4 c #91fb04",
".u c #9a400b",
".A c #9a410b",
".Y c #bb5f29",
".S c #bc5f2a",
".f c #be5d2c",
".o c #be5e2c",
".j c #d86c04",
".M c #d88500",
".U c #d98449",
".P c #da8449",
".K c #da844a",
".c c #dc824c",
".C c #f49600",
".b c #fc9829",
".# c #fc982a",
".I c #fc9929",
".t c #ffc300",
".w c #ffff00",
".z c #ffffa3",
".y c #ffffff",
"QtQtQtQtQtQtQtQtQtQtQtQtQtQtQtQtQtQtQtQtQtQtQtQtQtQtQtQtQtQtQtQtQtQtQtQtQtQtQtQtQtQtQtQtQtQtQtQtQtQtQt.#.#QtQtQtQtQtQtQtQtQtQtQt",
".a.a.a.a.a.a.a.a.a.a.a.a.a.a.a.a.a.a.a.a.a.a.a.a.a.a.a.a.a.a.a.a.a.a.a.a.a.a.a.a.a.b.c.d.a.a.a.a.a.a.b.b.b.b.a.a.a.a.a.a.d.c.b.a",
".e.e.e.e.e.e.e.e.e.e.e.e.e.e.e.e.e.e.e.e.e.e.e.e.e.e.e.e.e.e.e.e.e.e.e.e.e.e.e.e.e.f.b.b.c.g.e.e.e.b.b.b.b.b.b.e.e.e.g.c.b.b.f.e",
".h.h.h.h.h.h.h.h.h.h.h.h.h.h.h.h.h.h.h.h.h.h.h.h.h.h.h.h.h.h.h.h.h.h.h.h.h.h.h.h.h.i.b.b.b.b.c.h.b.b.b.b.b.b.b.b.h.c.b.b.b.j.i.h",
".k.k.k.k.k.k.k.k.k.k.k.k.k.k.k.k.k.k.k.k.k.k.k.k.k.k.k.k.k.k.k.k.k.k.k.k.k.k.k.k.k.k.f.b.b.b.b.b.b.b.b.b.b.b.b.b.b.b.b.b.b.f.k.k",
".l.l.l.l.l.l.l.l.l.l.l.l.l.l.l.l.l.l.l.l.l.l.l.l.l.l.l.l.l.l.l.l.l.l.l.l.l.l.l.l.l.l.m.b.b.b.b.b.b.b.b.b.b.b.b.b.b.b.b.b.j.m.l.l",
".n.n.n.n.n.n.n.n.n.n.n.n.n.n.n.n.n.n.n.n.n.n.n.n.n.n.n.n.n.n.n.n.n.n.n.n.n.n.n.n.n.n.n.o.b.b.b.b.b.p.p.p.p.p.p.b.b.b.b.b.o.n.n.n",
".q.q.q.q.q.q.q.q.q.q.q.q.q.q.q.q.q.q.q.q.q.q.q.q.q.q.q.q.q.q.q.q.q.q.q.q.q.q.q.q.q.q.q.q.b.b.b.b.p.r.r.r.r.r.r.p.b.b.b.b.q.q.q.q",
".s.s.s.s.s.s.s.s.s.s.s.s.s.s.t.t.t.t.s.s.s.s.s.s.s.s.s.s.s.s.s.s.s.s.s.s.s.s.s.s.s.s.s.b.b.b.b.p.r.u.u.u.r.p.p.r.p.b.b.b.b.s.s.s",
".v.v.v.v.v.v.v.v.v.v.v.v.v.t.w.w.w.t.t.v.v.v.v.v.v.v.v.v.v.v.v.v.v.v.v.v.v.v.v.v.v.v.b.b.b.b.p.r.u.u.r.r.r.r.p.p.r.p.b.b.b.b.v.v",
".x.x.x.x.x.x.x.x.x.x.x.x.x.t.w.y.z.w.t.x.x.x.x.x.x.x.x.x.x.x.x.x.x.x.x.x.x.x.x.x.x.b.b.b.b.b.p.r.A.r.r.r.r.r.p.p.r.p.j.b.b.b.b.x",
".B.B.B.B.B.B.B.B.B.B.B.B.t.w.y.z.t.w.t.C.B.B.B.B.B.B.B.B.B.B.B.B.B.B.B.B.B.B.B.B.b.b.b.b.b.b.p.r.A.r.r.r.r.r.p.p.r.p.j.b.b.b.b.j",
".D.D.D.D.D.D.D.D.D.D.D.D.t.y.y.w.C.t.w.t.D.D.D.D.D.D.D.D.D.D.D.D.D.D.D.D.D.D.D.D.j.b.b.b.b.b.p.r.r.r.r.r.r.r.p.p.r.p.j.b.b.b.j.j",
".E.E.E.E.E.E.E.E.E.E.E.E.t.z.y.t.E.C.w.C.E.E.E.E.E.E.E.E.E.E.E.E.E.E.E.E.E.E.E.E.E.j.b.b.b.b.p.r.p.r.r.r.r.p.p.p.r.p.j.b.b.j.j.E",
".F.F.F.F.F.F.F.F.F.F.F.F.t.w.y.t.F.C.w.C.F.F.F.F.F.F.F.F.F.F.F.F.F.F.F.F.F.F.F.F.F.F.j.b.b.b.p.r.p.p.p.p.p.p.p.p.r.p.j.b.j.j.F.F",
".G.G.G.G.G.G.G.G.G.G.G.G.t.w.z.t.G.C.w.C.G.G.G.G.G.G.G.G.G.G.G.G.G.G.G.G.G.G.G.G.G.G.G.j.b.b.b.p.r.p.p.p.p.p.p.r.p.j.j.b.j.G.G.G",
".H.H.H.H.H.H.H.H.H.H.H.H.C.w.w.t.H.t.w.C.H.H.H.H.H.H.H.H.H.H.H.H.H.H.H.H.H.H.H.H.H.H.H.H.I.I.I.I.p.r.r.r.r.r.r.p.j.j.I.I.H.H.H.H",
".J.J.J.J.J.J.J.J.J.J.J.J.C.w.w.t.J.C.w.C.J.J.J.J.J.J.J.J.J.J.J.J.J.J.J.J.J.J.J.J.J.J.J.K.I.I.I.I.I.p.p.p.p.p.p.j.j.I.I.I.K.J.J.J",
".L.L.L.L.L.L.L.L.L.L.L.L.C.w.w.t.L.C.w.M.L.L.L.L.L.L.L.L.L.L.L.L.L.L.L.L.L.L.L.L.L.L.N.I.I.I.I.I.I.I.j.j.j.j.j.j.j.I.I.I.I.N.L.L",
".O.O.O.O.O.O.O.O.O.O.O.O.M.t.w.t.C.C.t.M.O.O.O.O.O.O.O.O.O.O.O.O.O.O.O.O.O.O.O.O.O.O.P.I.I.I.I.j.I.I.I.I.I.I.I.j.j.I.I.I.I.P.O.O",
".Q.Q.Q.Q.Q.Q.Q.Q.Q.Q.Q.Q.M.t.t.w.C.t.t.M.Q.Q.Q.Q.Q.Q.Q.Q.Q.Q.Q.Q.Q.Q.Q.Q.Q.Q.Q.Q.Q.R.I.I.I.j.S.Q.I.I.I.I.I.I.j.j.Q.S.j.I.I.I.R.Q",
".T.T.T.T.T.T.T.T.T.T.T.T.T.C.t.t.t.t.M.T.T.T.T.T.T.T.T.T.T.T.T.T.T.T.T.T.T.T.T.T.T.U.I.j.S.V.T.T.W.I.I.I.I.j.j.W.T.T.V.S.j.I.S.T",
".X.X.X.X.X.X.X.X.X.X.X.X.X.M.C.C.t.C.M.X.X.X.X.X.X.X.X.X.X.X.X.X.X.X.X.X.X.X.X.X.X.j.Y.Z.X.X.X.X.0.1.I.I.j.j.1.0.X.X.X.X.Z.Y.j.X",
".2.2.2.2.2.2.2.2.2.2.2.2.2.2.M.M.M.M.2.2.2.2.2.2.2.2.2.2.2.2.2.2.2.2.2.2.2.2.2.2.2.2.2.2.2.2.2.2.3.1.4.j.j.1.1.3.2.2.2.2.2.2.2.2",
".5.5.5.5.5.5.5.5.5.5.5.5.5.5.5.5.5.5.5.5.5.5.5.5.5.5.5.5.5.5.5.5.5.5.5.5.5.5.5.5.5.5.5.5.5.5.5.5.6.1.4.4.1.1.1.6.5.5.5.5.5.5.5.5",
".7.7.7.7.7.7.7.7.7.7.7.7.7.7.7.7.7.7.7.7.7.7.7.7.7.7.7.7.7.7.7.7.7.7.7.7.7.7.7.7.7.7.7.7.7.7.7.7.8.1.4.4.1.1.1.7.7.7.7.7.7.7.7.7",
".9.9.9.9.9.9.9.9.9.9.9.9.9.9.9.9.9.9.9.9.9.9.9.9.9.9.9.9.9.9.t.t.t.t.9.9.9.9.9.9.9.9.9.9.9.9.9.9#..1.4.4.1##.1.9.9.9.9.9.9.9.9.9",
"#a#a#a#a#a#a#a#a#a#a#a#a#a#a#a#a#a#a#a#a#a#a#a#a#a#a#a#a#a.t.w.w.w.t.t#a#a#a#a#a#a#a#a#a#a#a#a#a#b.1.4.4.1.1.1#a#a#a#a#a#a#a#a#a",
"#c#c#c#c#c#c#c#c#c#c#c#c#c#c#c#c#c#c#c#c#c#c#c#c#c#c#c#c#c.t.w.y.z.w.t#c#c#c#c#c#c#c#c#c#c#c#c#c#c.1.4.4.1.1.1#c#c#c#c#c#c#c#c#c",
"#d#d#d#d#d#d#d#d#d#d#d#d#d#d#d#d#d#d#d#d#d#d#d#d#d#d#d#d.t.w.y.z.t.w.t.C#d#d#d#d#d#d#d#d#d#d#d#d#d.1.4.4.1.1.1#d#d#d#d#d#d#d#d#d",
"#e#e#e#e#e#e#e#e#e#e#e#e#e#e#e#e#e#e#e#e#e#e#e#e#e#e#e#e.t.y.y.w.C.t.w.t#e#e#e#e#e#e#e#e#e#e#e#e#e.1.4.4.1##.1#e#e#e#e#e#e#e#e#e",
"#f#f#f#f#f#f#f#f#f#f#f#f#f#f#f#f#f#f#f#f#f#f#f#f#f#f#f#f.t.z.y.t#f.C.w.C#f#f#f#f#f#f#f#f#f#f#f#f#f.1.4.4.1.1.1#f#f#f#f#f#f#f#f#f",
"#g#g#g#g#g#g#g#g#g#g#g#g#g#g#g#g#g#g#g#g#g#g#g#g#g#g#g#g.t.w.y.t#g.C.w.C#g#g#g#g#g#g#g#g#g#g#g#g#g.1.4.4.1.1.1#g#g#g#g#g#g#g#g#g",
"#g#g#g#g#g#g#g#g#g#g#g#g#g#g#g#g#g#g#g#g#g#g#g#g#g#g#g#g.t.w.z.t#g.C.w.C#g#g#g#g#g#g#h#i.4#i#h#g#g.1.4.4.1.1.1#g#g#h#i.4#i#h#g#g",
"#j#j#j#j#j#j#j#j#j#j#j#j#j#j#j#j#j#j#j#j#j#j#j#j#j#j#j#j.C.w.w.t#j.t.w.C#j#j#j#j#j.4.4.4.4.4.4#k#j.1.4.4.1##.1#j#k.4.4.4.4.4.4#j",
"#l#l#l#l#l#l#l#l#l#l#l#l#l#l#l#l#l#l#l#l#l#l#l#l#l#l#l#l.C.w.w.t#l.C.w.C#l#l#l#l.4.4.4.4.4.4.4.4.4.1.4.4.1.1.1.4.4.4.4.4.4.4.4.4",
"#m#m#m#m#m#m#m#m#m#m#m#m#m#m#m#m#m#m#m#m#m#m#m#m#m#m#m#m.C.w.w.t#m.C.w.M#m#m#m#m##.1.1.1.1.1.1.1##.1.4.4.1.1.1##.1.1.1.1.1.1.1##",
"#n#n#n#n#n#n#n#n#n#n#n#n#n#n#n#n#n#n#n#n#n#n#n#n#n#n#n#n.M.t.w.t.C.C.t.M#n#n#n#n#n#o##.1.1.1###o#p.1.4.4.1.1.1#n#o##.1.1.1###o#n",
"#q#q#q#q#q#q#q#q#q#q#q#q#q#q#q#q#q#q#q#q#q#q#q#q#q#q#q#q.M.t.t.w.C.t.t.M#q#q#q#q#q#q#r#s###t#r#p#u.1.4#p.1##.1#p#q#r#s###s#t#q#p",
"#p#v#v#v#v#v#v#v#v#v#v#v#v#v#v#v#v#v#v#v#v#v#v#p#v#v#v#v#v.C.t.t.t.t.M#v#v#v#v#p#v#v#v#v#v#w#v#u#u.1#t#u.1.1.1#u#v#v#p#v#v#w#v#u",
"#u#x#x#p#x#x#x#x#x#x#x#x#x#x#x#x#x#x#x#x#p#x#x#u#p#x#t#x#x.M.C.C.t.C.M#x#p#x#x#u#p#x#t#x#p#w#p#u#u#p#w#u#p#x#p#u#x#p#u#x#p#w#p#u",
"#u#y#t#u#y#t#y#p#p#y#y#p#p#y#y#p#p#y#t#y#u#t#y#u#u#y#w#y#p#y.M.M.M.M#t#y#u#t#y#u#u#y#w#y#u#w#u#u#u#u#w#w#u#t#u#u#p#u#w#t#u#w#u#u",
"#u#p#w#u#z#w#z#u#u#z#t#u#u#t#z#u#u#z#w#z#u#w#p#u#u#p#w#p#u#t#z#u#u#z#w#z#u#w#p#u#u#p#w#p#u#w#u#u#u#u#w#w#u#w#u#u#u#u#w#w#u#w#u#u",
"#u#u#w#w#p#w#p#u#u#p#w#u#u#w#p#u#u#p#w#p#w#w#u#u#u#u#w#u#u#w#p#u#u#p#w#p#w#w#u#u#u#u#w#u#u#w#u#u#u#u#w#w#u#w#u#u#u#u#w#w#u#w#u#u",
"#u#u#w#w#u#w#u#u#u#u#w#w#w#w#u#u#u#u#w#u#w#w#u#u#u#u#w#u#w#w#u#u#u#u#w#u#w#w#u#u#u#u#w#u#w#w#u#u#u#u#w#w#u#w#u#u#u#u#w#w#w#w#u#u",
"#u#u#w#w#u#w#u#u#u#u#w#w#w#w#u#u#u#u#w#u#w#w#u#u#u#u#w#u#w#w#u#u#u#u#w#u#w#w#u#u#u#u#w#u#w#t#u#u#u#u#w#w#w#w#u#u#u#u#t#w#w#t#u#u",
"#u#u#w#w#u#w#u#u#u#u#w#w#w#w#u#u#u#u#w#u#w#w#u#u#u#u#w#w#w#w#u#u#u#u#w#u#w#w#u#u#u#u#w#w#w#t#u#u#u#u#t#w#w#w#u#p#u#u#t#w#w#t#u#u",
"#u#u#w#w#w#w#u#u#u#u#w#w#w#w#u#u#u#u#w#w#w#w#u#u#u#u#t#w#w#w#u#u#u#u#w#w#w#w#u#u#u#u#t#w#w#u#p#u#u#u#t#w#w#t#u#p#u#u#u#t#w#u#p#u",
"#u#u#t#w#w#t#u#u#u#u#t#t#t#t#u#u#u#u#t#w#w#t#u#u#u#u#t#w#t#t#u#u#u#u#t#w#w#t#u#u#u#u#t#w#t#u#p#u#p#u#u#t#w#t#u#A#p#u#u#t#t#u#p#u",
"#u#u#t#t#w#t#u#u#u#u#t#t#t#t#u#u#u#u#t#w#t#t#u#u#u#p#u#t#t#t#u#u#u#u#t#w#t#t#u#u#u#p#u#t#t#u#A#u#p#u#u#t#t#u#p#A#p#u#u#u#t#u#A#u",
"#p#u#u#t#t#u#p#p#p#u#u#u#u#u#u#p#p#p#u#t#t#u#u#p#u#p#u#t#u#u#u#p#p#p#u#t#t#u#u#p#u#p#u#t#u#u#A#p#A#u#u#u#t#u#p#A#A#u#u#u#u#u#A#p",
"#p#u#u#u#t#u#p#p#p#u#u#u#u#u#u#p#p#p#u#t#u#u#u#p#p#A#u#u#u#u#u#p#p#p#u#t#u#u#u#p#p#A#u#u#u#u#A#p#A#p#u#u#u#u#A#A#A#p#u#u#u#u#A#p",
"#A#p#u#u#u#u#A#A#A#p#u#u#u#u#p#A#A#A#u#u#u#u#p#A#p#A#u#u#u#u#p#A#A#A#u#u#u#u#p#A#p#A#u#u#u#u#A#A#A#p#u#u#u#u#A#A#A#p#u#u#u#u#A#A",
"#A#p#u#u#u#u#A#A#A#p#u#u#u#u#p#A#A#A#u#u#u#u#p#A#A#A#u#u#u#u#p#A#A#A#u#u#u#u#p#A#A#A#u#u#u#u#A#A#A#A#u#u#u#u#A#A#A#A#u#u#u#u#A#A",
"#A#A#u#u#u#u#A#A#A#A#u#u#u#u#A#A#A#A#u#u#u#u#A#A#A#A#u#u#u#u#A#A#A#A#u#u#u#u#A#A#A#A#u#u#u#u#A#A#A#A#u#u#u#u#A#A#A#A#u#u#u#u#A#A",
"#A#A#u#u#u#u#A#A#A#A#u#u#u#u#A#A#A#A#u#u#u#u#A#A#A#A#u#u#u#u#A#A#A#A#u#u#u#u#A#A#A#A#u#u#u#u#A#B#A#A#u#u#u#u#A#A#A#B#u#p#u#u#A#B",
"#A#A#u#u#u#u#A#A#A#B#u#p#p#u#B#A#A#A#u#u#u#u#A#A#B#A#u#u#p#u#B#A#A#A#u#u#u#u#A#A#B#A#u#u#u#u#A#C#B#A#u#p#u#p#A#A#A#C#u#C#u#u#A#C",
"#B#A#u#p#u#u#A#A#A#C#u#C#C#u#C#A#A#A#u#u#p#u#A#B#C#A#u#u#C#u#C#A#A#A#u#u#p#u#A#B#C#A#u#u#p#u#A#C#D#A#p#D#u#D#A#A#B#C#p#C#p#u#A#C",
"#D#B#p#D#p#p#B#B#B#C#p#C#C#p#C#B#B#B#p#p#D#p#B#D#C#B#p#p#C#p#C#B#B#B#p#p#D#p#B#D#C#B#p#p#C#p#B#C#D#B#D#D#p#D#B#B#C#C#C#C#C#p#B#C",
"#D#D#D#D#D#D#D#D#C#C#C#C#C#C#C#C#D#D#D#D#D#D#D#D#C#C#C#C#C#C#C#C#D#D#D#D#D#D#D#D#C#C#C#C#C#C#C#C#D#D#D#D#D#D#D#D#C#C#C#C#C#C#C#C",
"#D#D#D#D#D#D#D#D#C#C#C#C#C#C#C#C#D#D#D#D#D#D#D#D#C#C#C#C#C#C#C#C#D#D#D#D#D#D#D#D#C#C#C#C#C#C#C#C#D#D#D#D#D#D#D#D#C#C#C#C#C#C#C#C",
"#D#D#D#D#D#D#D#D#C#C#C#C#C#C#C#C#D#D#D#D#D#D#D#D#C#C#C#C#C#C#C#C#D#D#D#D#D#D#D#D#C#C#C#C#C#C#C#C#D#D#D#D#D#D#D#D#C#C#C#C#C#C#C#C",
"#C#C#C#C#C#C#C#C#D#D#D#D#D#D#D#D#C#C#C#C#C#C#C#C#D#D#D#D#D#D#D#D#C#C#C#C#C#C#C#C#D#D#D#D#D#D#D#D#C#C#C#C#C#C#C#C#D#D#D#D#D#D#D#D",
"#C#C#C#C#C#C#C#C#D#D#D#D#D#D#D#D#C#C#C#C#C#C#C#C#D#D#D#D#D#D#D#D#C#C#C#C#C#C#C#C#D#D#D#D#D#D#D#D#C#C#C#C#C#C#C#C#D#D#D#D#D#D#D#D"};
