/* XPM */
static char *dummy[]={
"64 64 1586 2",
"wK c #000c23",
"rm c #000c24",
".J c #000c29",
"a8 c #000d23",
"d6 c #000d25",
".K c #000d29",
"tO c #000f29",
"cQ c #000f2a",
"dt c #001126",
".F c #00112a",
".G c #00112b",
".Q c #00112c",
"hd c #001224",
"gD c #001225",
"#7 c #001227",
"wD c #001329",
".y c #00132a",
"n3 c #00132b",
"t8 c #00132c",
"f6 c #001426",
"v2 c #001428",
"tp c #001429",
".w c #00142a",
"mQ c #00142b",
"ds c #00142c",
"ha c #00142d",
"bE c #001529",
"cf c #00152a",
"#x c #00152b",
"wT c #00152c",
".e c #00152d",
".B c #00152e",
"vh c #00152f",
"#c c #00162a",
".b c #00162b",
".a c #00162c",
".# c #00162d",
"n0 c #00162e",
"lC c #001632",
".C c #00172b",
".j c #00172c",
"Qt c #00172d",
".c c #00172e",
".E c #00172f",
"uA c #001730",
"uX c #001731",
"iZ c #00182b",
".V c #00182c",
"d7 c #00182d",
".m c #00182e",
".i c #001830",
"hc c #00192b",
".W c #00192c",
"#A c #00192e",
"aC c #001930",
"b# c #001931",
"hb c #001932",
".O c #001a2c",
"t9 c #001a2e",
"#a c #001a2f",
"dq c #001a30",
"vI c #001a31",
"n1 c #001b32",
".k c #001c31",
".v c #001c32",
"#6 c #001d31",
".r c #001e33",
".q c #001e34",
"wC c #001e35",
"f5 c #001f34",
".n c #002036",
"sl c #002338",
"du c #00283b",
"nq c #002b40",
"kT c #00374e",
"a. c #00506a",
"aB c #011c32",
"sm c #011c33",
"vj c #011d30",
"#. c #011e34",
"uy c #012034",
"#5 c #012134",
"f3 c #01233b",
"fr c #012438",
"#E c #01243b",
"wy c #012537",
"wj c #01273c",
"wg c #022237",
".z c #022336",
"u. c #022436",
"cR c #022a3d",
"t5 c #023650",
"az c #032237",
"vJ c #032339",
"qj c #032439",
"wl c #03253c",
".I c #03263b",
"wi c #03263c",
"wm c #03273b",
"wA c #03273c",
"wS c #03283e",
"wz c #03293b",
"jB c #032a3d",
"lB c #032a3f",
"fo c #042035",
".R c #042439",
"vi c #04243a",
"wk c #04253c",
"#C c #04263c",
"#D c #04273d",
".p c #04283d",
".f c #04293d",
"kd c #042a3c",
"#9 c #045268",
"cO c #04526e",
"a9 c #052138",
"fp c #05293d",
"pF c #062438",
"#2 c #06283d",
"mP c #062940",
"mj c #062a40",
"bG c #062c40",
".T c #062c41",
"#B c #062f46",
"rl c #063b4f",
"gX c #068df3",
"oA c #072a3d",
"dr c #072c42",
"eK c #072d42",
"wh c #072f43",
"ux c #08293b",
"rP c #082e41",
"wV c #082f43",
".l c #083043",
"wB c #083145",
"uw c #083147",
".A c #083245",
"fq c #083446",
"wM c #083649",
"tq c #08364b",
".x c #093041",
"o9 c #093140",
"ce c #093349",
"ik c #093547",
"wL c #093648",
".h c #09394e",
"gC c #0a3046",
".u c #0a3144",
"#y c #0a3145",
"f4 c #0a3245",
".N c #0a364c",
"wN c #0a374a",
"bF c #0a374b",
"rO c #0a384b",
".g c #0a394f",
"qO c #0b2e42",
"t7 c #0b3447",
"wQ c #0b3548",
"sk c #0b384e",
"## c #0b394c",
"ay c #0b3a4d",
".9 c #0b3c4d",
"np c #0b5460",
"pG c #0c3245",
"vK c #0c3649",
"#3 c #0c3749",
"vL c #0c3849",
"cd c #0c394a",
"tN c #0c394f",
"qP c #0c3a4b",
"wE c #0c3a51",
"wR c #0c3b4f",
"u# c #0c3c50",
"t6 c #0c3d50",
"kc c #0c5666",
".o c #0d3447",
"mR c #0d3545",
"wO c #0d374b",
"il c #0d384e",
"b. c #0d394b",
"#b c #0d394d",
".P c #0d394e",
"ke c #0d3a4a",
".d c #0d3a4b",
"aA c #0d3a4c",
".D c #0d3a4e",
"qi c #0d3b4b",
".U c #0d3b4c",
"wf c #0d3b4d",
"eL c #0d3d4d",
"#4 c #0d4053",
"wn c #0d4054",
"n4 c #0d4157",
"hv c #0d89f3",
"n2 c #0e3749",
"#z c #0e3e4e",
"rQ c #0e3e4f",
"hL c #0f394d",
"uz c #0f394f",
"fn c #0f3c4b",
".H c #0f3d4d",
"cc c #0f3e53",
"jC c #0f4252",
"i0 c #0f4353",
"wU c #103f50",
"rL c #1090fa",
"nr c #113e4e",
"lD c #114252",
"im c #114253",
"mi c #114f5e",
"lA c #11515f",
"jA c #115364",
"dv c #115366",
"e. c #115564",
"rg c #118ff4",
".S c #123e51",
"kf c #124657",
"i1 c #125263",
"a# c #125264",
"#8 c #125769",
"oB c #134056",
"pa c #134156",
".s c #13475a",
"vF c #134c61",
"nZ c #13545d",
"ca c #135566",
"vM c #153f56",
"pH c #154157",
"ua c #154158",
"mS c #154656",
".t c #15475b",
"hM c #154a5c",
"ns c #154c5e",
"kU c #154d5d",
"eJ c #154e62",
"vG c #154e63",
"mO c #15525e",
"cS c #155267",
"u0 c #155462",
"wx c #155465",
"lE c #155665",
"fm c #164f63",
"aw c #165260",
"vH c #165361",
"we c #165363",
"v7 c #165366",
"kW c #165464",
"n5 c #165465",
".8 c #165466",
"eI c #165467",
"cg c #165468",
"jD c #165564",
"av c #165565",
"wP c #165566",
"d9 c #165567",
"vf c #165667",
"ax c #16576b",
"sn c #16586d",
"mk c #168fec",
"p. c #174e61",
"t4 c #174f57",
"tP c #174f68",
"sY c #175065",
".X c #175161",
"sj c #175165",
"v5 c #175261",
"v4 c #17535f",
"oz c #175360",
"v6 c #175364",
"tn c #175367",
"rN c #175368",
"#s c #17545e",
"wd c #175462",
".6 c #175468",
"to c #175469",
"qQ c #17546a",
"s1 c #175565",
".M c #175566",
"bD c #175567",
".L c #175568",
"h# c #175665",
"hK c #175667",
"a6 c #175668",
"a7 c #17566a",
"#t c #175767",
"#1 c #175768",
".Z c #175769",
"eH c #17576a",
"wJ c #175868",
"#w c #175869",
"bI c #175969",
"iY c #185264",
"in c #18535e",
"tr c #185361",
"rk c #185364",
".0 c #185567",
".4 c #185568",
"qN c #185569",
"rn c #18556a",
"he c #185667",
"v0 c #185668",
"#F c #185669",
"hN c #18566a",
"vm c #185767",
"wH c #185768",
"vZ c #185769",
".5 c #18576a",
"#g c #18586a",
"vg c #185968",
"tQ c #185969",
"d8 c #18596b",
"#u c #185a6a",
"wI c #185a6b",
"so c #185a71",
"#v c #185b6b",
"ww c #18668c",
"f# c #188ef9",
"vk c #194f64",
"pb c #195260",
"oC c #195363",
"bH c #195464",
".7 c #195467",
"gB c #195564",
".Y c #195569",
"qR c #195664",
"cb c #195666",
"vN c #19566b",
".2 c #195769",
"#f c #195868",
"v3 c #195869",
".1 c #19586a",
"uW c #19586b",
"qh c #19586c",
"rR c #19586d",
"dp c #19596b",
"#d c #19596c",
"d5 c #195a6c",
"wG c #195a6d",
"wF c #195c70",
"vl c #1a5367",
"ch c #1a5666",
"uZ c #1a5667",
"v1 c #1a5668",
"ba c #1a5969",
"aD c #1a596b",
"sZ c #1a5970",
"si c #1a5a6c",
"s0 c #1a5b6d",
"p# c #1a5b6e",
"cP c #1a5c6b",
"#e c #1a5c6d",
"f2 c #1a618b",
"rS c #1a6285",
"bU c #1a90f8",
"eQ c #1a91f3",
"uB c #1b5669",
".3 c #1b576b",
"bJ c #1b576c",
"aE c #1b5867",
"uY c #1b5a6b",
"rj c #1b5a6c",
"kV c #1b5b6e",
"wu c #1b5e76",
"sp c #1b5f7e",
"vO c #1b6485",
"sX c #1b648f",
"wv c #1c6388",
"ws c #1c638a",
"wt c #1c648a",
"dR c #1c8ff3",
"pI c #1d596a",
"wr c #1d638c",
"wp c #1d6587",
"qK c #1d7bb2",
"oq c #1d8ff0",
"lz c #1d97e8",
"wq c #1e5e74",
"qS c #1e5e77",
"#X c #1e678a",
"f1 c #1e678d",
"a5 c #1e6792",
"cy c #1e7ac7",
"ad c #1e8ff4",
"ae c #1e91f1",
"fb c #1e92fa",
"ro c #1f5e74",
"#0 c #1f6993",
"wo c #1f6e9c",
"#K c #1f70a1",
"lw c #1f7bae",
"cz c #1f7cc5",
"au c #1f8de4",
"at c #1f8ff0",
"mV c #1f92ef",
"#Z c #206d9b",
"#W c #206e9d",
"cx c #207cc6",
"bo c #207cc8",
"q8 c #207dc7",
"fa c #2091f8",
"#Y c #21657f",
"uC c #21719c",
"vn c #2178ba",
"dL c #218ff0",
"nv c #2192f4",
"ub c #226588",
"#J c #226fa0",
"tm c #227198",
"sf c #2279af",
"rX c #227aad",
"rY c #227baf",
"tY c #227cb3",
"cG c #227cb5",
"ve c #227cc4",
"bY c #227dc6",
"qk c #227ecd",
"uv c #227fc3",
"wa c #2280cb",
"mM c #2291e9",
"gn c #2292f0",
"#I c #236ea0",
"tG c #2377b7",
"vU c #2378bb",
"pE c #2379b6",
"t# c #237ab2",
"o0 c #237bb0",
"aS c #237bc5",
"o5 c #237caf",
"vV c #237cc6",
"aj c #237cc7",
"r8 c #237cc8",
"rT c #237cc9",
"q9 c #237dc6",
"rC c #237dc7",
"rD c #237dc9",
"w# c #237ecb",
"#r c #237fcc",
"rW c #2381c4",
"ga c #2390ec",
"ct c #2391f3",
"tH c #246b91",
"#k c #246c95",
"r# c #246d91",
"wc c #2478bb",
"pc c #247ab3",
"tC c #247bb3",
"cE c #247cae",
"tt c #247cc3",
"qC c #247cc7",
"p2 c #247cc8",
"r. c #247cc9",
"lu c #247db3",
"qD c #247dc7",
"r9 c #247dca",
"vY c #247ecd",
"va c #2481d0",
"tM c #2485ce",
"ag c #248feb",
"oX c #2490ee",
"rZ c #2492f4",
"tk c #2494f1",
"r6 c #256a90",
"s2 c #256a94",
"#n c #256b91",
"tI c #256b92",
"vD c #256c8f",
"ak c #256c93",
"#q c #256c96",
"gs c #256d92",
"rE c #256d93",
"#p c #256f9c",
"sW c #2576a1",
"u9 c #2579c4",
"vE c #257ac0",
"tT c #257bc3",
"vW c #257bc4",
"p4 c #257cc4",
"tu c #257cc5",
"bp c #257cc8",
"u1 c #257dc4",
"qF c #257dc5",
"rB c #257dc9",
"#M c #2581d1",
"ac c #258ef4",
"dQ c #258fec",
"op c #2590e9",
"qo c #2591eb",
"hJ c #2592e3",
"a4 c #2593ec",
"h. c #2594ea",
"tL c #2594f1",
"v8 c #2597f9",
"up c #26688e",
"uo c #26688f",
"ff c #26698f",
"vc c #266993",
"qT c #266b93",
"vz c #266c92",
"vA c #266c94",
"uc c #266e9e",
"ud c #2674b1",
"ue c #2674b9",
"r7 c #2677b7",
"ts c #2679bf",
"as c #267bad",
"aT c #267cc5",
"bZ c #267cc6",
"p3 c #267cc7",
"qE c #267dc7",
"wb c #267dcf",
"#i c #267fca",
"rM c #268cd7",
"gZ c #268fe7",
"vP c #2690e7",
"nY c #2690ee",
"ah c #2691ec",
"jF c #2692ec",
"qB c #2693ef",
"r4 c #2693f3",
"uE c #2695f3",
"p8 c #2695f5",
"gA c #2697eb",
"s. c #276688",
"am c #27698b",
"al c #27698d",
"#R c #27698e",
"gr c #27698f",
"uM c #276990",
"t3 c #276a90",
"#l c #276a93",
"sM c #276b8d",
"#Q c #276b90",
"s3 c #276c8f",
"sr c #276c94",
"vd c #276d97",
"sK c #276e9c",
"fT c #276e9d",
"uq c #276e9f",
"vX c #276ea2",
"vB c #2773ab",
"#S c #2775af",
"vb c #2775b0",
"vy c #2779c1",
"hf c #277bb2",
"v9 c #277bb6",
"uR c #277cca",
"cF c #277dad",
"uU c #2787d4",
"e7 c #278eeb",
"vr c #278fe1",
"oY c #278fea",
"qH c #2790e4",
"hx c #2790ea",
"b8 c #2790f1",
"qM c #2791e6",
"qG c #2791e9",
"p7 c #2791eb",
"kg c #2791ee",
"pY c #2791ef",
"pL c #2793eb",
"pw c #2793ef",
"jG c #2794f0",
"tc c #2794f2",
"#h c #2797f8",
"ci c #286064",
"tR c #28678b",
"w. c #28688d",
"td c #286890",
"tF c #28698f",
"uQ c #286a8d",
"gt c #286a8e",
"uN c #286a8f",
"te c #286a90",
"rV c #286a91",
"sq c #286a92",
"uL c #286b8c",
"v. c #286b90",
"v# c #286b91",
"tv c #286c8e",
"uT c #286c94",
"vC c #286e96",
"sJ c #286e98",
"sG c #286e9a",
"sH c #286f9d",
"#P c #2870a3",
"#T c #28719c",
"#j c #2873aa",
"tS c #2873af",
"#O c #2876af",
"s# c #2877b2",
"kb c #287ab3",
"gw c #287bb2",
"ql c #287bbc",
"#N c #287cbe",
"us c #2885cd",
"ar c #2887d4",
"sv c #2889d8",
"pv c #2889dd",
"uF c #288ede",
"g0 c #288ee2",
"vs c #288fdf",
"mh c #2890de",
"i3 c #2890ea",
"fO c #2890eb",
"n9 c #2891ed",
"u6 c #2891f2",
"eA c #2892e9",
"nu c #2892ea",
"gY c #2892ec",
"mU c #2892ed",
"oZ c #2892f0",
"af c #2893ed",
"rA c #2893ee",
"aU c #2895f2",
"sa c #2895f3",
"aq c #2896f9",
"s4 c #296787",
"fe c #296789",
"t1 c #29698f",
"uP c #296990",
"uO c #296a8f",
"fU c #296a90",
"tf c #296a91",
"#m c #296a92",
"rU c #296b8a",
"t2 c #296b8e",
"vT c #296b90",
"sI c #296b91",
"tE c #296b92",
"uD c #296c90",
"ur c #296d9c",
"sL c #296e9a",
"tg c #29709a",
"un c #297197",
"#U c #297297",
"vx c #2978be",
"uS c #2978c3",
"sV c #297aaa",
"me c #297caf",
"vo c #297da6",
"o6 c #297da7",
"#o c #297fd3",
"ij c #2980ac",
"uu c #2983c0",
"rh c #298cd8",
"hz c #298ce5",
"hw c #298fe7",
"u3 c #2990e3",
"aN c #2992eb",
"fP c #2992ed",
"ip c #2992ef",
"#L c #2993ec",
"b1 c #2993ee",
"p1 c #2993ef",
"qp c #2994eb",
"ai c #2994ef",
"p6 c #2994f0",
"gq c #2995f3",
"io c #2995f6",
"hO c #2997f2",
"sh c #2997f6",
"uV c #2998fa",
"bb c #2a6362",
"rp c #2a6c92",
"sN c #2a73a1",
"fg c #2a76a0",
"fR c #2a77a1",
"an c #2a7aa0",
"oy c #2a7bab",
"kO c #2a7bb2",
"th c #2a7ca9",
"qg c #2a7cac",
"n6 c #2a7da6",
"g2 c #2a7da8",
"vt c #2a7eae",
"sE c #2a81b7",
"ut c #2a82c0",
"u7 c #2a84c6",
"g1 c #2a89d8",
"sF c #2a8cda",
"bt c #2a8ee2",
"hy c #2a8fea",
"jH c #2a8fee",
"ox c #2a90e8",
"fi c #2a91e8",
"qe c #2a91ef",
"cC c #2a91f0",
"dP c #2a93ee",
"aR c #2a93ef",
"b0 c #2a93f0",
"on c #2a94f0",
"rs c #2a94f1",
"fQ c #2a94f2",
"cD c #2a95f7",
"iX c #2a96f1",
"fl c #2a9bfb",
"bC c #2b6261",
"ss c #2b6f92",
"gu c #2b769f",
"tw c #2b779f",
"fV c #2b77a0",
"hD c #2b7aa8",
"vp c #2b7ca7",
"uG c #2b7cac",
"#V c #2b7cbb",
"qf c #2b7da8",
"gv c #2b7da9",
"mL c #2b7daa",
"mN c #2b7dab",
"vS c #2b7eac",
"b2 c #2b80a9",
"vQ c #2b80b3",
"tJ c #2b81ba",
"vu c #2b83c5",
"i2 c #2b84c4",
"qn c #2b90ea",
"eq c #2b92eb",
"gp c #2b92ec",
"go c #2b93ec",
"bq c #2b93f0",
"o8 c #2b93f1",
"aX c #2b94ed",
"uf c #2c77a3",
"fS c #2c79a5",
"tb c #2c7ba5",
"g4 c #2c7ba6",
"rc c #2c7ba8",
"rd c #2c7ba9",
"fW c #2c7ca8",
"qm c #2c7ca9",
"hA c #2c7caa",
"ao c #2c7cac",
"gE c #2c7cad",
"eC c #2c7da7",
"tD c #2c7da8",
"fc c #2c7da9",
"tU c #2c7daa",
"rG c #2c7dab",
"rb c #2c7dac",
"s5 c #2c7ea9",
"sP c #2c7eaa",
"ra c #2c7ead",
"pC c #2c7eae",
"nt c #2c7fa9",
"mT c #2c80ab",
"br c #2c80b2",
"oD c #2c81ae",
"sw c #2c81b8",
"sg c #2c82ba",
"sO c #2c84ba",
"fX c #2c8cd8",
"db c #2c8ff0",
"eE c #2c92e6",
"oo c #2c93ec",
"p0 c #2c93ee",
"ep c #2c94ed",
"aQ c #2c94ee",
"p5 c #2c94ef",
"qU c #2d79a4",
"tl c #2d7aa1",
"qV c #2d7aa8",
"nX c #2d7ba5",
"vw c #2d7ba6",
"g3 c #2d7ba7",
"ti c #2d7ca4",
"tj c #2d7ca7",
"rH c #2d7caa",
"ta c #2d7cab",
"a3 c #2d7cac",
"eB c #2d7da5",
"sb c #2d7daa",
"hB c #2d7dab",
"u2 c #2d7dac",
"ap c #2d7dad",
"vq c #2d7dae",
"sQ c #2d7eaa",
"rr c #2d7fa9",
"n7 c #2d7faa",
"rF c #2d7fac",
"jE c #2d80aa",
"kX c #2d80ab",
"pD c #2d80ae",
"pK c #2d82be",
"pd c #2d82bf",
"oE c #2d82c0",
"pB c #2d83bf",
"no c #2d8edf",
"f9 c #2d90e9",
"eu c #2d94e8",
"u4 c #2d94ed",
"ok c #2d95ed",
"aW c #2e7aa5",
"fd c #2e7ba7",
"rq c #2e7ba8",
"hC c #2e7ba9",
"eD c #2e7ca4",
"vR c #2e7ca9",
"fh c #2e7da6",
"qL c #2e7da7",
"u8 c #2e7da8",
"tK c #2e7da9",
"tx c #2e7dab",
"r5 c #2e7dae",
"ri c #2e7daf",
"tZ c #2e7ea8",
"bs c #2e7eae",
"bz c #2e7eb0",
"su c #2e7eb1",
"pJ c #2e7fb0",
"st c #2e80b7",
"nn c #2e81b6",
"aV c #2e82b6",
"n8 c #2e83c1",
"qW c #2e94ea",
"bn c #2e95ef",
"aY c #2f79a2",
"hE c #2f7aa6",
"p9 c #2f7ca7",
"t0 c #2f7cab",
"lv c #2f7da5",
"vv c #2f7daa",
"ez c #2f7dae",
"g5 c #2f7ea7",
"px c #2f7eaa",
"uH c #2f7fa9",
"o7 c #2f81b3",
"uh c #2f81b7",
"g. c #2f95f1",
"u5 c #307eae",
"ey c #307fa9",
"ug c #3083bb",
"pu c #308ede",
"ow c #3093e3",
"bm c #3095ed",
"bB c #316c82",
"oW c #3197ee",
"nW c #327ca1",
"ty c #327ea8",
"ii c #327fa4",
"jz c #328ac4",
"cB c #3298ed",
"i4 c #3298ef",
"nm c #337da4",
"o1 c #347da4",
"o. c #3495e1",
"hI c #368fd8",
"bA c #3690d6",
"bj c #3698dd",
"gz c #3796e8",
"lF c #379def",
"g9 c #3896e3",
"fw c #389df0",
"pe c #3997e2",
"iq c #3aa1f3",
"sD c #3b80a1",
"c8 c #3b9cec",
"kh c #3b9ff0",
"bu c #3c7d9c",
"md c #3c7e99",
"kY c #3ca0f1",
"um c #3e7e95",
"r0 c #3e93cb",
"nc c #3e93d5",
"pM c #3e96e2",
"da c #3e9df1",
"py c #3f809f",
"sC c #3f848e",
"i5 c #3f9ef7",
"q. c #407e9b",
"f7 c #417053",
"oF c #4194db",
"fs c #426f53",
"#H c #42735e",
"ul c #427c87",
"mc c #42809f",
"dK c #42a1f0",
"bl c #42a3ee",
"fK c #42a3f0",
"eM c #437052",
"pt c #439de4",
"pr c #43a0e3",
"c9 c #449cd8",
"pq c #44a6f1",
"bV c #45a4f1",
"aP c #45a5ef",
"ps c #46a0e9",
"c7 c #46a6f1",
"d. c #49a2e0",
"d# c #49a4e7",
"hg c #4c8987",
"lG c #4cb2fa",
"#G c #4e7550",
"gb c #4eaaf2",
"fN c #4eadf1",
"e8 c #4faef1",
"aZ c #507e76",
"gx c #50828e",
"gF c #508881",
"s6 c #508998",
"sx c #508ca4",
"gg c #50a5dc",
"n. c #51b0f2",
"ir c #51b2fb",
"e1 c #52a4d7",
"f0 c #5393c0",
"oT c #53a8e1",
"lY c #53b0f3",
"hr c #53b1f0",
"fL c #53b1f2",
"bv c #548073",
"iB c #54a8dc",
"dJ c #54b1f0",
"m9 c #54b2f2",
"lg c #54b4f6",
"en c #55a8db",
"lZ c #55b1f7",
"kz c #55b5f9",
"dM c #56a7db",
"oU c #56a8df",
"hU c #56b1f6",
"hT c #56b3f3",
"c6 c #56b4f1",
"jJ c #56b7fc",
"do c #578147",
"gM c #57a9de",
"hj c #57b1f0",
"eV c #57b1f1",
"ol c #57b2f5",
"lW c #57b4f5",
"jT c #57b5f3",
"iy c #57b5f5",
"iv c #57b5fb",
"kZ c #57b6fa",
"gm c #57b7f5",
"sT c #588386",
"sR c #58848b",
"sU c #5895bb",
"hn c #58a9dd",
"ld c #58b4f2",
"mx c #58b4f5",
"gc c #58b5f2",
"gT c #58b5f5",
"pZ c #58b6f4",
"oV c #58b7f9",
"sS c #59838a",
"nL c #599ea5",
"bk c #59b1f4",
"my c #59b2f4",
"gJ c #59b3f2",
"nI c #59b4f1",
"es c #59b4f2",
"hS c #59b4f3",
"ki c #59b4f5",
"nK c #59b5f1",
"nG c #59b5f3",
"m8 c #59b5f4",
"oS c #59b7f5",
"hP c #5aa2ce",
"eo c #5ab4f1",
"hk c #5ab4f3",
"gI c #5ab5f1",
"h0 c #5ab5f2",
"fM c #5ab5f3",
"hq c #5ab5f4",
"e9 c #5ab5f5",
"gi c #5ab6f1",
"nH c #5ab6f2",
"jI c #5ab6f3",
"gH c #5ab6f4",
"mv c #5ab6f7",
"cA c #5ab7f3",
"om c #5ab7f4",
"ek c #5bb4f3",
"er c #5bb5f2",
"e4 c #5bb5f4",
"lf c #5bb5f5",
"dF c #5bb5f7",
"mw c #5bb6f0",
"nJ c #5bb6f3",
"fJ c #5bb6f4",
"f. c #5bb8f5",
"bX c #5bb8f7",
"g# c #5cb4f3",
"gj c #5cb4f4",
"kj c #5cb5f3",
"eh c #5cb5f4",
"dN c #5cb5f5",
"aO c #5cb6f2",
"et c #5cb6f4",
"bW c #5cb6f6",
"ky c #5cb7f2",
"cv c #5cb7f4",
"cw c #5cb7f5",
"e5 c #5cb8f5",
"hi c #5db2ea",
"cu c #5dbbf3",
"fF c #5eafe0",
"kk c #5eb3e2",
"ee c #5eb5ee",
"ks c #5eb6f5",
"e6 c #5eb9f5",
"dO c #5ebbf6",
"uK c #5f8164",
"r3 c #5f9a88",
"gl c #5fb8f8",
"q7 c #609a87",
"qA c #609a88",
"eW c #60b7f3",
"gf c #62b3e0",
"fB c #62baf2",
"fI c #62bbf2",
"kP c #63838c",
"nd c #63a199",
"em c #64b5e4",
"fG c #67b6e2",
"lV c #67bff5",
"df c #688851",
"fZ c #688862",
"e2 c #68b4e3",
"nb c #68baea",
"c5 c #68bbf1",
"pX c #69a7b0",
"lc c #69c0f6",
"fC c #6abcf2",
"eG c #6b7e38",
"de c #6b8e53",
"jg c #6bc1f6",
"dn c #6c8843",
"cT c #6c8c45",
"jd c #6cbeed",
"gK c #6cbeef",
"dd c #6d9556",
"hl c #6dc0ee",
"n# c #6eb6de",
"ja c #6ec3f2",
"fk c #6f8e5a",
"cU c #6f913e",
"na c #6fb3d6",
"fH c #70bfe7",
"lX c #71c0ea",
"d4 c #728f41",
"fY c #73883c",
"dc c #739d6b",
"iA c #73c4f1",
"pp c #74aaa2",
"i8 c #74ac9f",
"fA c #74c5f4",
"iw c #74c6f5",
"eg c #74c7f4",
"c2 c #75b8c8",
"aF c #76954b",
"le c #76c3ea",
"oR c #77ab8f",
"m7 c #77babf",
"lU c #77c9f5",
"lT c #77caf4",
"gR c #77ccf4",
"jN c #77ccf9",
"gO c #78c3e7",
"iC c #78c3e8",
"iD c #78c6eb",
"jc c #78caf4",
"ab c #799f53",
"gP c #79c4e8",
"hW c #79c4e9",
"hX c #79c5e9",
"gN c #79c5ea",
"je c #79c6eb",
"ho c #79c7ed",
"dG c #79ccf5",
"iH c #79cef7",
"tz c #7a8735",
"kw c #7ac3e6",
"el c #7ac3e9",
"jR c #7ac4e8",
"hV c #7ac4eb",
"fE c #7ac5e9",
"ge c #7ac5ea",
"e0 c #7ac6e9",
"gd c #7ac7e9",
"jQ c #7ac7ea",
"gQ c #7ac8ef",
"iE c #7accf4",
"lb c #7acdf5",
"kt c #7acdf7",
"jO c #7acdf9",
"jM c #7acef9",
"jV c #7ad0f9",
"hm c #7bc4ea",
"jS c #7bc5e6",
"hY c #7bc5ea",
"eZ c #7bc6ea",
"kv c #7bc8ef",
"ei c #7bccf6",
"gh c #7bccf7",
"dH c #7bcdf5",
"kx c #7bcdf6",
"jh c #7bcdf7",
"ji c #7bcff9",
"bc c #7c9d56",
"i6 c #7cb9bf",
"gL c #7cc4eb",
"eY c #7cc7ec",
"jf c #7cc9f0",
"hp c #7cccf6",
"l# c #7cccf9",
"h2 c #7ccdf9",
"h1 c #7ccef6",
"b7 c #7d8d3e",
"i7 c #7db6bc",
"e3 c #7dc9ea",
"ej c #7dccf5",
"gS c #7dcef7",
"jb c #7dcff7",
"la c #7dcff8",
"dI c #7dd0f8",
"fD c #7ecbf4",
"ku c #7ecdf5",
"ef c #7ecef5",
"iG c #7ecff5",
"hZ c #7ecff7",
"eX c #7ecff9",
"iF c #7ed0f7",
"jP c #7fcef6",
"iz c #7fcff5",
"cI c #808b2f",
"nF c #80bab3",
"eU c #80cff6",
"jU c #80d0f7",
"uJ c #81882b",
"oj c #81bab5",
"cL c #82882e",
"a0 c #82892d",
"cM c #828a2f",
"b6 c #828c2d",
"gk c #82d0f9",
"ix c #82d1f8",
"bw c #83892d",
"tB c #838a2f",
"b5 c #838b2e",
"tX c #838b2f",
"l. c #83cff1",
"cH c #84892d",
"cK c #848a2e",
"di c #848a30",
"cJ c #848c2a",
"dj c #848c2e",
"b4 c #848c2f",
"dV c #858a2f",
"dm c #859431",
"by c #859d41",
"lS c #85cbe4",
"i9 c #86beaf",
"b9 c #878b2c",
"tA c #878e30",
"s9 c #879031",
"a2 c #879f42",
"lR c #87cfde",
"fj c #888a28",
"dZ c #888b2a",
"pO c #889e36",
"c3 c #88c9ce",
"eF c #898b28",
"dY c #898c29",
"sA c #899332",
"dk c #899532",
"dU c #899834",
"dg c #899935",
"b3 c #8a8d29",
"c. c #8a9934",
"d2 c #8b8d2a",
"dl c #8b9934",
"co c #8b9f32",
"oH c #8ba037",
"hR c #8ba142",
"fv c #8bb49b",
"dh c #8c9832",
"oQ c #8c9e32",
"q0 c #8ca037",
"pg c #8ca138",
"j4 c #8d9b36",
"cm c #8d9d31",
"cN c #8da036",
"nB c #8da132",
"rw c #8da237",
"k0 c #8da238",
"dT c #8da439",
"dw c #8da43a",
"s8 c #8e902f",
"ew c #8ea23b",
"r1 c #8ea337",
"dx c #8ea33a",
"bS c #8ea43c",
"fx c #8eb695",
"c4 c #8ec8d2",
"nw c #8f9e37",
"dy c #8fa236",
"q5 c #8fa237",
"q6 c #8fa238",
"oN c #8fa337",
"sB c #8fa33a",
"fu c #8fb591",
"ui c #909564",
"lr c #909636",
"dz c #90a237",
"qy c #90a337",
"qx c #90a338",
"qz c #90a339",
"k1 c #90a33b",
"pV c #90a438",
"rz c #90a439",
"sz c #919836",
"kN c #919839",
"bx c #91a139",
"ft c #91a236",
"bN c #91a238",
"qs c #91a439",
"q1 c #91a43a",
"bR c #91a53c",
"t. c #91a73b",
"m1 c #91a73d",
"j. c #91c2b0",
"uk c #929133",
"d0 c #929c32",
"iu c #92a132",
"gG c #92a335",
"d3 c #92a336",
"ex c #92a436",
"a1 c #92a439",
"kl c #92a43a",
"qw c #92a539",
"lt c #939938",
"kM c #939a35",
"dX c #93a032",
"rx c #93a63a",
"cV c #93a63b",
"cp c #93a944",
"mW c #93a94c",
"fy c #93bb97",
"j7 c #949a37",
"ls c #949a38",
"dW c #94a534",
"nx c #94a537",
"f8 c #94a637",
"lH c #94af52",
"kJ c #959c37",
"kL c #95a03a",
"dS c #95a232",
"hh c #95a33a",
"aa c #95a637",
"c# c #95a638",
"e# c #95a73f",
"ed c #96a131",
"ev c #96a433",
"c1 c #96b77e",
"d1 c #97a636",
"mb c #989a37",
"po c #98af54",
"fz c #98c091",
"m# c #999a36",
"ma c #999a37",
"ec c #99ae4e",
"lI c #9aab4d",
"pm c #9ab357",
"pP c #9bb03f",
"m5 c #9bbf8f",
"j# c #9bc9ad",
"m. c #9c9937",
"eN c #9ca735",
"mX c #9cab47",
"cY c #9cb263",
"m6 c #9cbf8e",
"cl c #9db05b",
"cW c #9db35c",
"lo c #9db443",
"dA c #9eb665",
"c0 c #9eb667",
"aG c #9fb342",
"mD c #9fb544",
"pn c #9fb560",
"dE c #9fc08e",
"mn c #a0b341",
"oa c #a0b440",
"cX c #a0b563",
"aI c #a0b643",
"uj c #a19859",
"mC c #a1b141",
"qu c #a1b343",
"nA c #a1b355",
"q4 c #a1b443",
"r2 c #a1b444",
"qX c #a1b483",
"q2 c #a1b544",
"nM c #a1b63c",
"ne c #a1b643",
"lp c #a1b644",
"pj c #a1b745",
"oK c #a1b843",
"m0 c #a1ba5d",
"bi c #a1be78",
"l8 c #a2b543",
"q3 c #a2b544",
"pR c #a2b642",
"qt c #a2b643",
"l7 c #a2b644",
"ph c #a2b75a",
"bf c #a2b84a",
"aJ c #a2b950",
"kr c #a2d0b9",
"mK c #a3924c",
"mF c #a3b341",
"lq c #a3b644",
"kK c #a3b743",
"ry c #a3b744",
"pQ c #a3b745",
"oM c #a3b86e",
"pS c #a3b951",
"pl c #a3ba63",
"bg c #a3bb56",
"bh c #a3be76",
"eP c #a3be8b",
"mE c #a4b644",
"bd c #a4bc50",
"be c #a4be76",
"aH c #a4c182",
"o4 c #a59256",
"l9 c #a5b240",
"qv c #a5b845",
"nC c #a5be7c",
"ea c #a5c07e",
"pA c #a69655",
"bQ c #a6bf7d",
"nD c #a6bf7e",
"oe c #a6c07d",
"aM c #a6c080",
"aL c #a6c17e",
"is c #a6c285",
"cj c #a7bc45",
"bL c #a7bc6b",
"pk c #a7bd65",
"oI c #a7be6a",
"oO c #a7bf7c",
"m2 c #a7c07c",
"of c #a7c07d",
"eb c #a7c07e",
"aK c #a7c07f",
"bT c #a7c080",
"cs c #a7c081",
"bP c #a7c17e",
"ko c #a7c27c",
"jK c #a7c27e",
"qd c #a89a62",
"it c #a8bd79",
"k5 c #a8c07d",
"og c #a8c080",
"kn c #a8c17d",
"m3 c #a8c17e",
"oP c #a8c17f",
"bO c #a8c181",
"pT c #a8c280",
"km c #a8c281",
"kp c #a8c282",
"k2 c #a8c381",
"cZ c #a8c489",
"js c #a99b38",
"cq c #a9bf7c",
"ms c #a9c07f",
"nE c #a9c17e",
"m4 c #a9c17f",
"mr c #a9c180",
"od c #a9c27e",
"oi c #a9c27f",
"pU c #a9c281",
"dB c #a9c484",
"lJ c #aac074",
"mu c #aac07f",
"hQ c #aac17e",
"o# c #aac180",
"jL c #aac274",
"eS c #aac282",
"oh c #aac37f",
"oL c #abc080",
"cr c #abc081",
"mt c #abc17d",
"pW c #abc387",
"k4 c #abc481",
"mf c #ac924b",
"jv c #ac9a38",
"rt c #acb382",
"dC c #acc276",
"dD c #acc27a",
"bM c #acc382",
"lM c #acc581",
"bK c #adbe47",
"eO c #adc383",
"eR c #aec378",
"pi c #aec46b",
"ob c #aec770",
"eT c #afc27d",
"lL c #afc883",
"ny c #b0cd82",
"mY c #b1cb7e",
"qr c #b2b042",
"k3 c #b2cd88",
"nz c #b2ce8a",
"mg c #b39949",
"oc c #b3cf83",
"nl c #b49444",
"lx c #b4983b",
"mp c #b4cd87",
"lN c #b4d2a9",
"mB c #b5cb84",
"mq c #b5cf85",
"oJ c #b6ce8d",
"lK c #b6cf88",
"mZ c #b6d18b",
"lQ c #b6d2aa",
"lO c #b6d3aa",
"ml c #b6d3af",
"ck c #b6d5b2",
"cn c #b6d6b1",
"mo c #b7d18d",
"mm c #b7d5a6",
"k7 c #b7d6b0",
"kq c #b7d6b2",
"lP c #b8d2aa",
"k6 c #b9d4b0",
"k8 c #bad6af",
"j5 c #bc983b",
"ly c #bd963b",
"k9 c #bdd5ae",
"jt c #be9939",
"gU c #bfc49f",
"mz c #c1b263",
"ka c #c2963b",
"nk c #c2993a",
"tV c #c2a548",
"g7 c #c39e3f",
"rf c #c59839",
"se c #c5993c",
"nQ c #c69739",
"kS c #c69839",
"ni c #c79738",
"nR c #c7983a",
"g6 c #c79a3c",
"k. c #c89838",
"qJ c #c8983a",
"nT c #c8993a",
"nS c #c8993b",
"ie c #c8993c",
"jw c #c89a39",
"sc c #c89a3a",
"nU c #c89a3b",
"hs c #c8c59e",
"k# c #c99839",
"mG c #c99939",
"qa c #c9993a",
"rK c #c9993c",
"gy c #c99a36",
"rJ c #c99a39",
"mI c #c99a3a",
"sd c #c99b3a",
"o3 c #ca983b",
"ia c #ca993a",
"nj c #ca9a39",
"iR c #ca9a3a",
"id c #ca9a3c",
"iT c #ca9b3a",
"o2 c #ca9b3b",
"ju c #cb983a",
"mJ c #cb9939",
"if c #cb993a",
"pz c #cb993c",
"qb c #cb9a39",
"iS c #cb9a3a",
"iQ c #cb9a3b",
"ig c #cb9b3b",
"re c #cc9a38",
"ou c #cc9d3d",
"hG c #cca23c",
"j9 c #cd9936",
"mH c #cd9a3b",
"jy c #cda43e",
"qI c #ce9a37",
"iU c #ce9a3b",
"nV c #ce9b38",
"rI c #cf9b38",
"ih c #cf9c39",
"ic c #cfa040",
"sy c #cfbd4c",
"j6 c #d0963a",
"l5 c #d0b248",
"ov c #d19938",
"jx c #d1a440",
"qc c #d29a38",
"q# c #d29b39",
"l6 c #d3b547",
"tW c #d4a73f",
"kI c #d4b147",
"l4 c #d4b246",
"jr c #d5a942",
"nf c #d5b548",
"l0 c #d5c894",
"j8 c #d69a35",
"uI c #d6aa3e",
"lm c #d6af47",
"ng c #d6b347",
"gV c #d6c78c",
"gW c #d7c691",
"h8 c #d8b149",
"kR c #d8b247",
"h7 c #d8b348",
"kQ c #d8b447",
"hF c #d99b37",
"i# c #d9af46",
"os c #d9b148",
"kF c #d9b248",
"nh c #dab047",
"iP c #dab048",
"iN c #dab249",
"h9 c #dab348",
"h3 c #dab447",
"or c #dab448",
"ib c #dab449",
"i. c #dbb249",
"nO c #dbb347",
"h6 c #dbb34a",
"nN c #dbb447",
"ot c #dbb548",
"j0 c #dcb248",
"iM c #dcb344",
"jq c #dcb347",
"nP c #dcb349",
"iW c #dcb442",
"iO c #dcb448",
"jo c #dcb548",
"kB c #dcb955",
"g8 c #ddaf43",
"kH c #ddb548",
"j1 c #ddb549",
"j2 c #ddb54a",
"kG c #ddb649",
"l3 c #ddcb88",
"ll c #deb146",
"jn c #deb447",
"jp c #deb448",
"h4 c #dec77c",
"l1 c #dec883",
"hu c #dec98c",
"hH c #dfae45",
"kC c #dfb247",
"jZ c #dfb447",
"ln c #e0b148",
"mA c #e0b449",
"jm c #e0c065",
"jX c #e1cb8d",
"kE c #e2b244",
"qY c #e2c452",
"li c #e2c98a",
"lk c #e2cc87",
"lj c #e2cd8c",
"j3 c #e3b64b",
"jW c #e3ca85",
"ht c #e3cc8c",
"iK c #e3cd8b",
"iV c #e4b445",
"jl c #e4ca87",
"jk c #e4cd8c",
"iL c #e4ce8a",
"iJ c #e4cf94",
"qZ c #e5c451",
"l2 c #e5c881",
"kD c #e5cc88",
"h5 c #e5ce8d",
"jY c #e6cf92",
"jj c #e6d49a",
"kA c #e7cc88",
"lh c #e8ce87",
"rv c #e9c651",
"pf c #e9c753",
"ru c #eac751",
"oG c #eec851",
"iI c #efdebb",
"qq c #f1c84d",
"pN c #f2ca4c",
"s7 c #f3cc4e",
"QtQtQtQtQtQtQtQtQtQtQtQtQtQtQtQtQtQtQtQtQtQtQtQtQtQtQtQtQtQtQtQtQtQtQtQtQtQtQtQtQtQtQtQtQtQtQtQtQtQtQtQtQtQtQtQtQtQtQtQtQtQtQtQt",
"QtQtQtQtQtQtQtQtQtQtQtQtQtQtQtQtQtQtQtQtQtQtQtQtQtQtQtQtQtQtQtQtQtQtQtQtQtQtQtQtQtQtQtQtQtQtQtQtQtQtQtQtQtQtQtQtQtQtQtQtQtQtQtQt",
"QtQtQtQtQtQtQtQtQtQtQtQtQtQtQtQtQtQtQtQtQtQtQtQtQtQtQtQtQtQtQtQtQtQtQtQtQtQtQtQtQtQtQtQtQtQtQtQtQtQtQtQtQtQtQtQtQtQtQtQtQtQtQtQt",
"QtQtQtQtQtQtQtQtQtQtQtQtQtQtQtQtQtQtQtQtQtQtQtQtQtQtQtQtQtQtQtQtQtQtQtQtQtQtQtQtQtQtQtQtQtQtQtQtQtQtQtQtQtQtQtQtQtQtQtQtQtQtQtQt",
"QtQtQtQtQtQtQtQtQtQtQtQtQtQtQtQtQtQtQtQtQtQtQtQtQtQt.#.a.a.a.a.a.aQtQtQtQtQtQtQtQtQtQtQtQtQtQtQtQtQtQtQtQtQtQtQtQtQtQtQtQtQtQtQt",
"QtQtQtQtQtQtQtQtQtQtQtQtQtQtQtQtQtQtQtQtQtQtQtQtQtQt.a.a.b.b.a.a.aQtQtQtQtQtQtQtQtQtQtQtQtQtQtQtQtQtQtQtQtQtQtQtQtQtQtQtQtQtQtQt",
"QtQtQtQtQtQtQtQtQtQtQtQtQtQtQtQtQtQtQtQtQtQtQt.aQt.c.d.e.f.g.h.i.b.#Qt.aQt.a.aQt.jQtQtQtQtQtQtQtQtQtQtQtQtQtQtQtQtQtQtQtQtQtQtQt",
"QtQtQtQtQtQtQtQtQtQtQtQtQtQtQtQtQtQt.a.#.jQt.k.l.m.a.n.o.p.q.r.s.t.u.v.w.x.y.z.A.jQtQtQtQtQtQtQtQtQtQtQtQtQtQtQtQtQtQtQtQtQtQtQt",
"QtQtQtQtQtQtQtQtQtQtQtQtQtQtQtQtQtQt.a.B.C.j.r.D.E.F.G.H.I.J.K.L.M.N.O.a.P.Q.R.SQt.a.b.aQtQtQtQtQtQtQtQtQtQtQtQtQtQtQtQtQtQtQtQt",
"QtQtQtQtQtQtQtQtQtQtQtQtQtQtQt.j.j.j.T.U.V.V.V.W.X.M.Y.Z.0.1.2.3.1.4.5.6.7.8.9.jQt#.##.b.c.cQtQtQtQtQtQtQtQtQtQtQtQtQtQtQtQtQtQt",
"QtQtQtQtQtQtQtQtQtQtQtQtQtQtQt#a#b#cQt.K#d#e#e#e#f#g#h#i#j#k#l#m#n#o#p#q#r#s#t#u#v#v#w#x#y#zQtQt.aQt.aQtQtQtQtQtQtQtQtQtQtQtQtQt",
"QtQtQtQtQtQtQtQtQtQtQtQt.a.j.j#A#B#C#D#E#F#G#H#I#J#K#L#M#N#O#P#Q#R#S#T#U#V#W#X#Y#Z#0#1#2#3#4.a#5#6Qt.aQtQtQtQtQtQtQtQtQtQtQtQtQt",
"QtQtQtQtQtQtQtQtQtQtQtQt#c#c#c#c#7#8#9a.a#aaabacadaeafagahaiajakalamanaoapaqarasatauavaw.8ax#7ay.T.cQtQtQtQtQtQtQtQtQtQtQtQtQtQt",
"QtQtQtQtQtQtQtQtQtQtQt.jazaAaBaCaDaEaFaGaHaIaJaKaLaMaNaOaPaQaRaSaTaUaVaWaXaYaZa0a1a2a3a4a5a6a7a8.aQtQtQtQtQtQtQtQtQtQtQtQtQtQtQt",
"QtQtQtQtQtQtQtQtQtQt.a.ja9b.aBb#babbbcbdbebfbgaKbhbibjbkblbmbnbobpbqbrbsbtbubvbwbxbybzbAbBbCbDbE.c.aQt.mQtQtQtQtQtQtQtQtQtQtQtQt",
"QtQtQtQtQtQtQtQtQtQt.CbFbGaCbHbIbJbKbLbMbNbObPbQbRbSbTbUbVbWbXbYbZb0b1afb2b3b4b5b6b7b8b9c.c#cacbcc.wcdceQtQtQtQtQtQtQtQtQtQtQtQt",
"QtQtQtQtQtQtQtQtQtQt.acf.fcgchcicjckclcmcncocpcqcrcsctcucvcwcxcyczcAcBcCcDcEcFcGcHcIcJcKcLcMcNcO.2cPcQ.bQtQtQtQtQtQtQtQtQtQtQtQt",
"QtQtQtQtQtQtQtQtQt.a.T.acRcScTcUcVcWcXcYcZc0c1c2c3c4c5c6c7c8c9d.d#daaQdbdcdddedfdgdhdidjdkdldmdndodp.wdqdr.aQtQtQtQtQtQtQtQtQtQt",
"QtQtQtQtQtQtQtQtQtdsaAdtdudvdwdxdydzdAdBdCdDdEdFdGdHdIdJdKdLdMdNdOdPdQdRdSdTdUdVdWdXdYdZd0d1d2d3d4d5d6d7.D.aQtQtQtQtQtQtQtQtQtQt",
"QtQtQtQtQtQtQtQtQtQt.jd8d9e.bSe#eaebecedeeefegeheiejekelemeneoepeqereseteuevewexeyezeAeBeCeDeEeFeGeHeIeJQtQtQtQtQtQtQtQtQtQtQtQt",
"QtQtQtQtQtQtQtQteKeL.md5eMeNeOePeQeReSeTeUeVeWeXeYeZe0e1e2e3e4e5e6e7e8e9f.f#fafbfcfdfefffgfhfifjfkfl#dfm.mfnfo.a.aQtQtQtQtQtQtQt",
"QtQtQtQtQtQtQtQtfpfqfrdpfsftfufvfwfxfyfzfAfBfCfDeZfEfEfFfGfHfIfJdNfKfLfMfNfOfPfQfRfSfTfUfVfWfXfYfZf0f1f2f3f4azf5.aQtQtQtQtQtQtQt",
"QtQtQtQtQtQtQtQt.jf6a6.4f7f8f9g.g#gagbgcbWgdfEfEfEeZeZgegfggghgigjgkglgmgngogpgqgrgsbpgtgugvfcgwgxgygzgAgB.egCeL.bQtQtQtQtQtQtQt",
"QtQtQtQtQtQt.jQt.bgDeHgEgFgGeogHgIgJgKgLgMgNgOgOgPgPgPgPgQgRgSgHgHgTgUgVgWgXgYgZg0g1g2g3g4fcg5g6g7g8g9h.h#hahb.v.aQtQtQtQtQtQtQt",
"QtQtQtQtQtQt.jb#hchdhehfhghhhihjhkhkhlhmhnfEgOgPgPgPgPgPhohpeihqe4hrhshthuhvhwhxhyhzhAhBhChDhEhFhGhHhIhJhK#c.W.i.aQt.jQtQtQtQtQt",
"QtQtQtQtQtQt.jhLhMbDhNhOhPhQdwhReohShThUhVhWgPhXhYfEfEgPhohZh0h1h2h3h4h5h6h7h8h9i.i#iaibicidieifigihiiijeIikil.H.#QtQtQtQtQtQtQt",
"QtQtQtQtQtQt.a.wiminioipiqirisitiuiviwixiyiziAiBiCeZeZfEiDiEiFiGiHiIiJiKiLiMiNiOiOiPiQiRiSigiTiSigiUiViWiXiY.fiZQtQtQtQtQtQtQtQt",
"QtQtQtQtQtQtQt.ai0i1i2i3i4i5i6i7i8i9j.j#jajbjcjdgegegefEjejfjgjhjijjjkjljmjniNjojpjqjrjsjtjujvjwiRiSjxjyjzjAjB.jQtQtQtQtQtQtQtQt",
"QtQtQtQtQtQtQt#xjCjDjEjFjGjHjIfJjJdDjKjLjMjNjOjPjQfEjRgehWjSjTjUjVjWjXjYjZj0i.iOj1j2j3j4j5j6j7j8j9k.k#kakbkckdbEQtQtQtQtQtQtQtQt",
"QtQtQtQtQtQt.akekfjDjEkgkhkikjkkklkmknkokpkqkrksktkufJjbkvkwkxkykzkAkBkCkDkEkFkGkHkIkJkKkLkMkNkOkPidkQkRkSkTkUkVQtQtQtQtQtQtQtQt",
"QtQtQtQtQtQt.b.ajCkWkXkgkYkZk0k1k2k3k4k5k6k7k8k9l.l#lalblcldlelflglhliljlklllmlnlolplqlrlsltkNlulvlwlxlylzlAlBlCQtQtQtQtQtQtQtQt",
"QtQtQtQtQtQtQt.jlDlEkXb0lFlGlHlIlJlKlLlMlNlOlPlQlRlSlTlUlVlWlXlYlZl0l1l2l3l4l5l6l7l8l9m.m#mambmcmdmemfmgmhmimj.eQtQtQtQtQtQtQtQt",
"QtQtQtQtQtQt.a.#lDlEkXb0gYmkmlmmmnmompmqmrmrmrmsmtmumvmwjImxhkdPa4mymzmAmBmCmDl8mEmFmGmHk.mImImJmKmLmMgYmNmOmPmQQtQtQtQtQtQtQtQt",
"QtQtQtQt.j.j.bmRmSjDmTipmUmVmWmXmYmZm0m1m2m3m3m3m4knm5m6m7m8e9m9n.esn#nanbncndnenfngnhigninjiRiRnknlnmnnnonpnq.aQtQtQtQtQtQtQtQt",
"QtQtQtQt.a#x.anrnsjDntfinunvnwnxnynznAnBnCnDnDnDm3nEm4bQnFnGnHhTh0fMnInJnKe7nLnMnNnOnPnQnRnRnSnTnUnVnWnXnYnZnqn0QtQtQtQtQtQtQtQt",
"QtQtQtQt.an1n2n3n4n5n6n7n8n9eAo.o#oaobocodoeofogohoim3bPojkyokolomonfNhkooi3opoqorosmGotounTiTmGiRovowoxoyozoA#c.aQtQtQtQtQtQtQt",
"QtQtQtQt.a.a.w.boBoCgooDoEmUgYoFoGoHoIoJoKoLoMoNoOoPm2oQoResoSoToUoVoWoXgYmUoYoZo0o1o2mGmGmIifo3o4o5o6o7o8o9p.p#.mQtQtQtQtQtQtQt",
"QtQtQtQtQtQtQt.jpapbpcntpdn9gYpepfpgphpipjpkplpmk5k5pnpopppqhSprpsptpupvgYahgZpwpxpyiaiRmGiRiSpzpApBpCpDpEpFpGhLQtQtQtQtQtQtQtQt",
"QtQtQtQtQtQtQtcfpHpI#1pJpKpLeApMpNpOpPkKpQpRpSpTpUm4pVpWpXpYpZp0p1p2p3p4p5p6p7p8p9q.q#qamGmIqbqcqdqeqfqgqh#c#c.b.CQtQtQtQtQtQtQt",
"QtQtQtQtQtQt.jqiqjdt.YqkqlqmqnqoqpqqqrqsqsqtquqvqwqxqyqzqAqBb1gYmUqCqDqEqFfWgvqmqGqHmLqInRjwqJqKgvqLg0qMqN.aqOqP.jQtQtQtQtQtQtQt",
"QtQtQtQtQtQt.acf.ad6qQqRqSqTqUqVa3qWqXqYqZq0q1q2q3q4q5q6q7pwgYq8czqDq9r.r#rarbqfrcrdmNrerfnTiergrhrirjrkrl.#.j.b.bQtQtQtQtQtQtQt",
"QtQtQtQtQtQt.a.a.brmrna6rorprqa3rrrsrtrurvrwrxryryl7qsrzq7rAmUajajrBrCrDrErFrGqmrHrHmNrInTrJrKrLrMbzaDrNrO.#Qtd7.bQtQtQtQtQtQtQt",
"QtQtQtQtQtQtQtQtrPrQ.arRrSrTrUrVeCb0rWrXrYrZr0r1r2q2qxq6r3r4r5qCqEr6r7r8r9s.s#sasbsbmLnVscsdsesfsgshsisj#cskslQt.jQtQtQtQtQtQtQt",
"QtQtQtQtQtQtQtQtsm#..#snsospsqsrssstsueCsvswsxsyszsAsBsCsDsEsFsGsHsIsJsKsLsMsNsOsPsQfcsRsSsTsUsVsWsXdpsYQt.raC.#QtQtQtQtQtQtQtQt",
"QtQtQtQtQtQtQtQt.#.a.asZs0s1s2s3s4pDs5qLp7qms6s7s8s9t.t#tatbtctdsIteamtetftetgthfcsQsbtitjtjtktltmtn.5to.Ccfcf.aQtQtQtQtQtQtQtQt",
"QtQtQtQtQtQtQtQt.jtptqQtfptrtstttutvtwsPp9hBtxtytztAtBtCtDrHtEtFtftetGqCsI#ntHtIfcfcfWb1tJtKtatLtM#d#c#A.btNaz.#QtQtQtQtQtQtQtQt",
"QtQtQtQtQtQtQtQt.#n0n0.j.btOtPtQtRsqtStTapgvtUtKtVtWtXtYtZt0sItetetFt1t2tet3tF#ntetegraRswfWgYt4t5#ct6t7n0t8cf.bQtQtQtQtQtQtQtQt",
"QtQtQtQtQtQtQtQtQtQtQtQtt9u.u#uaubucudueufuguhtauiujukulumqmungrgrgruotefUteupteuqur#Rusutuuuv#buw.cuxkd.b.jQt.#QtQtQtQtQtQtQtQt",
"QtQtQtQtQtQtQtQtQtQtQt.#uyuzuA.kuBajuCsIuDuEuFhBuGuHuIuJuKtKfWuLuMuNtesIuOrVuPuQuRuSuLuTuUuVuWtpn0ds.e.a.aQtQtQtQtQtQtQtQtQtQtQt",
"QtQtQtQtQtQtQtQtQtQtQt.##cuA#c#cuXuYuZu0u1hBu2sPu3u4u5u6u7u8fcu9q8v.v#sIrVvavbvctevdven5vfvgvh.avi.H.E.aQtQtQtQtQtQtQtQtQtQtQtQt",
"QtQtQtQtQtQtQtQtQtQtQtQtQt.a.j.Vvjvkvlvmvnvovpvqvrvsvtp1vuvvvwvxvyvzsrsrvAp3vBvCuNvDvEvFvGvHvI.bvJvK.E.jQtQtQtQtQtQtQtQtQtQtQtQt",
"QtQtQtQtQtQtQtQtQtQtQtQtQtQtQtaCvL#cvMvNhNqNvOvPvQfWqfvRrGvSuMtvvTvTvUvVvWsqvXvYvZv0v1n3.bcf.P.w.aQt.jQtQtQtQtQtQtQtQtQtQtQtQtQt",
"QtQtQtQtQtQtQtQtQtQtQtQtQtQtQt.a.y#c.wtpv2v3s1v4v5v6v7v8v9w.w#wawbtEwcrBwdwekWa6.w.w.wwfwg.btp.bQtQtQtQtQtQtQtQtQtQtQtQtQtQtQtQt",
"QtQtQtQtQtQtQtQtQtQtQtQtQtQtQt.a.#.a.acfwhwiwjwkwlwmwnwowpwqwrwswtwuwvwwwxwywzwAwBbG.awC.m.bQt.aQtQtQtQtQtQtQtQtQtQtQtQtQtQtQtQt",
"QtQtQtQtQtQtQtQtQtQtQtQtQtQtQtQtQtQtQtwDhL.bQt.#.B#cwEwFwGdpwHhKvfwIwJ#1.5wK#ccf.9wLQt.#.a.aQtQtQtQtQtQtQtQtQtQtQtQtQtQtQtQtQtQt",
"QtQtQtQtQtQtQtQtQtQtQtQtQtQtQtQtQtQtQt.aQtQtQt.#wMwN.Cd7QtcfwOwP#1QtwQ.P.awRwS.aQtQtQtQtQtQtQtQtQtQtQtQtQtQtQtQtQtQtQtQtQtQtQtQt",
"QtQtQtQtQtQtQtQtQtQtQtQtQtQtQtQtQtQtQtQtQtQtQt.#wT.w.bwU.p.bwT.w.wQt.#.y.bds.e.#QtQtQtQtQtQtQtQtQtQtQtQtQtQtQtQtQtQtQtQtQtQtQtQt",
"QtQtQtQtQtQtQtQtQtQtQtQtQtQtQtQtQtQtQtQtQtQtQt.#.#.#.awVwg.b.#Qt.jQt.#.#.a.#.#.#QtQtQtQtQtQtQtQtQtQtQtQtQtQtQtQtQtQtQtQtQtQtQtQt",
"QtQtQtQtQtQtQtQtQtQtQtQtQtQtQtQtQtQtQtQtQtQtQtQtQtQt.a.a.a.aQtQtQtQtQtQtQtQtQtQtQtQtQtQtQtQtQtQtQtQtQtQtQtQtQtQtQtQtQtQtQtQtQtQt",
"QtQtQtQtQtQtQtQtQtQtQtQtQtQtQtQtQtQtQtQtQtQtQtQtQtQtQtQtQtQtQtQtQtQtQtQtQtQtQtQtQtQtQtQtQtQtQtQtQtQtQtQtQtQtQtQtQtQtQtQtQtQtQtQt",
"QtQtQtQtQtQtQtQtQtQtQtQtQtQtQtQtQtQtQtQtQtQtQtQtQtQtQtQtQtQtQtQtQtQtQtQtQtQtQtQtQtQtQtQtQtQtQtQtQtQtQtQtQtQtQtQtQtQtQtQtQtQtQtQt",
"QtQtQtQtQtQtQtQtQtQtQtQtQtQtQtQtQtQtQtQtQtQtQtQtQtQtQtQtQtQtQtQtQtQtQtQtQtQtQtQtQtQtQtQtQtQtQtQtQtQtQtQtQtQtQtQtQtQtQtQtQtQtQtQt",
"QtQtQtQtQtQtQtQtQtQtQtQtQtQtQtQtQtQtQtQtQtQtQtQtQtQtQtQtQtQtQtQtQtQtQtQtQtQtQtQtQtQtQtQtQtQtQtQtQtQtQtQtQtQtQtQtQtQtQtQtQtQtQtQt",
"QtQtQtQtQtQtQtQtQtQtQtQtQtQtQtQtQtQtQtQtQtQtQtQtQtQtQtQtQtQtQtQtQtQtQtQtQtQtQtQtQtQtQtQtQtQtQtQtQtQtQtQtQtQtQtQtQtQtQtQtQtQtQtQt"};
