/* XPM */
static char *dummy[]={
"64 64 7 1",
"e c #454a42",
"b c #4b5145",
"a c #525a51",
"d c #5b625e",
"c c #636c6d",
". c #76776f",
"# c #85837a",
"........########............########........########............",
"........########............########........########............",
"........########............########........########............",
"........########............########........########............",
"####aaaabbbbbbbbbbbbaaaaaaaaaaaaaaaaaaaaaaaaaaaabbbbbbbbaaaa....",
"####aaaabbbbbbbbbbbbaaaaaaaaaaaaaaaaaaaaaaaaaaaabbbbbbbbaaaa....",
"####aaaabbbbbbbbbbbbaaaaaaaaaaaaaaaaaaaaaaaaaaaabbbbbbbbaaaa....",
"####aaaabbbbbbbbbbbbaaaaaaaaaaaaaaaaaaaaaaaaaaaabbbbbbbbaaaa....",
"####bbbbccccccccddddddddccccccccccccddddddddddddddddccccbbbb####",
"####bbbbccccccccddddddddccccccccccccddddddddddddddddccccbbbb####",
"####bbbbccccccccddddddddccccccccccccddddddddddddddddccccbbbb####",
"####bbbbccccccccddddddddccccccccccccddddddddddddddddccccbbbb####",
"....bbbbccccbbbbeeeeeeeeeeeeeeeeeeeeeeeeeeeebbbbaaaaccccbbbb####",
"....bbbbccccbbbbeeeeeeeeeeeeeeeeeeeeeeeeeeeebbbbaaaaccccbbbb####",
"....bbbbccccbbbbeeeeeeeeeeeeeeeeeeeeeeeeeeeebbbbaaaaccccbbbb####",
"....bbbbccccbbbbeeeeeeeeeeeeeeeeeeeeeeeeeeeebbbbaaaaccccbbbb####",
"....aaaaddddeeeeeeeeddddddddddddddddddddddddeeeebbbbccccaaaa....",
"....aaaaddddeeeeeeeeddddddddddddddddddddddddeeeebbbbccccaaaa....",
"....aaaaddddeeeeeeeeddddddddddddddddddddddddeeeebbbbccccaaaa....",
"....aaaaddddeeeeeeeeddddddddddddddddddddddddeeeebbbbccccaaaa....",
"####aaaaddddeeeeeeeeddddbbbbeeeeeeeebbbbddddeeeeeeeeccccaaaa....",
"####aaaaddddeeeeeeeeddddbbbbeeeeeeeebbbbddddeeeeeeeeccccaaaa....",
"####aaaaddddeeeeeeeeddddbbbbeeeeeeeebbbbddddeeeeeeeeccccaaaa....",
"####aaaaddddeeeeeeeeddddbbbbeeeeeeeebbbbddddeeeeeeeeccccaaaa....",
"####aaaaddddeeeebbbbddddbbbbeeeeddddeeeecccceeeeeeeeccccaaaa....",
"####aaaaddddeeeebbbbddddbbbbeeeeddddeeeecccceeeeeeeeccccaaaa....",
"####aaaaddddeeeebbbbddddbbbbeeeeddddeeeecccceeeeeeeeccccaaaa....",
"####aaaaddddeeeebbbbddddbbbbeeeeddddeeeecccceeeeeeeeccccaaaa....",
"....aaaaddddeeeebbbbddddbbbbbbbb....eeee....bbbbeeeeddddaaaa####",
"....aaaaddddeeeebbbbddddbbbbbbbb....eeee....bbbbeeeeddddaaaa####",
"....aaaaddddeeeebbbbddddbbbbbbbb....eeee....bbbbeeeeddddaaaa####",
"....aaaaddddeeeebbbbddddbbbbbbbb....eeee....bbbbeeeeddddaaaa####",
"....aaaacccceeeebbbbddddbbbbbbbb....eeee....bbbbeeeeddddaaaa####",
"....aaaacccceeeebbbbddddbbbbbbbb....eeee....bbbbeeeeddddaaaa####",
"....aaaacccceeeebbbbddddbbbbbbbb....eeee....bbbbeeeeddddaaaa####",
"....aaaacccceeeebbbbddddbbbbbbbb....eeee....bbbbeeeeddddaaaa####",
"####aaaacccceeeebbbbddddcccc....cccceeee....bbbbeeeeddddaaaa....",
"####aaaacccceeeebbbbddddcccc....cccceeee....bbbbeeeeddddaaaa....",
"####aaaacccceeeebbbbddddcccc....cccceeee....bbbbeeeeddddaaaa....",
"####aaaacccceeeebbbbddddcccc....cccceeee....bbbbeeeeddddaaaa....",
"####aaaaccccbbbbbbbbeeeeeeeeeeeeeeeebbbbccccbbbbeeeeddddaaaa....",
"####aaaaccccbbbbbbbbeeeeeeeeeeeeeeeebbbbccccbbbbeeeeddddaaaa....",
"####aaaaccccbbbbbbbbeeeeeeeeeeeeeeeebbbbccccbbbbeeeeddddaaaa....",
"####aaaaccccbbbbbbbbeeeeeeeeeeeeeeeebbbbccccbbbbeeeeddddaaaa....",
"####bbbbccccddddcccccccc............ccccddddbbbbbbbbccccaaaa####",
"####bbbbccccddddcccccccc............ccccddddbbbbbbbbccccaaaa####",
"####bbbbccccddddcccccccc............ccccddddbbbbbbbbccccaaaa####",
"####bbbbccccddddcccccccc............ccccddddbbbbbbbbccccaaaa####",
"....bbbbccccddddbbbbeeeeeeeeeeeeeeeeeeeeeeeebbbb....ccccbbbb####",
"....bbbbccccddddbbbbeeeeeeeeeeeeeeeeeeeeeeeebbbb....ccccbbbb####",
"....bbbbccccddddbbbbeeeeeeeeeeeeeeeeeeeeeeeebbbb....ccccbbbb####",
"....bbbbccccddddbbbbeeeeeeeeeeeeeeeeeeeeeeeebbbb....ccccbbbb####",
"....bbbbddddddddbbbbbbbbddddcccccccc............ccccccccbbbb....",
"....bbbbddddddddbbbbbbbbddddcccccccc............ccccccccbbbb....",
"....bbbbddddddddbbbbbbbbddddcccccccc............ccccccccbbbb....",
"....bbbbddddddddbbbbbbbbddddcccccccc............ccccccccbbbb....",
"....aaaabbbbbbbbbbbbaaaaaaaaaaaaaaaaaaaaaaaaaaaaaaaabbbbaaaa####",
"....aaaabbbbbbbbbbbbaaaaaaaaaaaaaaaaaaaaaaaaaaaaaaaabbbbaaaa####",
"....aaaabbbbbbbbbbbbaaaaaaaaaaaaaaaaaaaaaaaaaaaaaaaabbbbaaaa####",
"....aaaabbbbbbbbbbbbaaaaaaaaaaaaaaaaaaaaaaaaaaaaaaaabbbbaaaa####",
"########........########....########........########....########",
"########........########....########........########....########",
"########........########....########........########....########",
"########........########....########........########....########"};
