/* XPM */
static char *dummy[]={
"64 64 1471 2",
"ox c #00152a",
"cQ c #00152b",
"l4 c #00152d",
"mA c #001629",
"bP c #00162a",
".h c #00162b",
".b c #00162c",
".# c #00162d",
"#t c #00162e",
"bO c #00162f",
"d6 c #00172b",
".a c #00172c",
"Qt c #00172d",
".i c #00172e",
".3 c #00172f",
"gB c #00182b",
"uU c #00182c",
".u c #00182d",
"tH c #00182e",
"u4 c #00192d",
"sG c #01152c",
"o8 c #011629",
"ck c #01162a",
"fk c #01162c",
".M c #01162d",
"aN c #01172b",
"uT c #01172c",
"hN c #01172d",
"al c #02172c",
"oy c #03152a",
"u8 c #04162c",
"r9 c #05162c",
"bN c #08182e",
".L c #0c162c",
".v c #0c162d",
"#v c #0c172d",
".w c #0d162c",
"#T c #0d162d",
"sH c #0d172d",
".x c #0d172e",
"mz c #0d192d",
"be c #0f152d",
"#u c #0f162c",
"im c #0f162d",
"iW c #0f162e",
"jv c #0f172f",
"j8 c #0f182f",
"uJ c #11162c",
"bf c #11172e",
"kG c #11172f",
"lu c #111730",
"rH c #11182f",
"l5 c #111830",
"fl c #13152c",
"uq c #13162d",
"d5 c #13172c",
"#s c #13172e",
"j7 c #13172f",
".K c #13182e",
".c c #15162e",
"s. c #15172d",
"aO c #15172e",
"uI c #15172f",
"cP c #151730",
"pI c #15182c",
"h. c #16162c",
"uS c #16162d",
"q9 c #16162e",
"t6 c #16172c",
"uK c #16172d",
"f2 c #16172e",
"dr c #16172f",
"d4 c #16182b",
".g c #16182d",
"tI c #16182f",
"#V c #17162b",
"q8 c #17162d",
"o9 c #17162e",
"nG c #17172c",
"qz c #17172d",
"j6 c #17172e",
"fj c #17172f",
"f1 c #17182d",
"p7 c #17182e",
"tc c #171831",
"sI c #17192d",
"in c #17192f",
".j c #18162d",
"aM c #18162e",
"bd c #18172d",
"uW c #18172f",
"l3 c #18182d",
"lt c #18182e",
"kF c #18182f",
"t5 c #18192c",
"p6 c #18192f",
".k c #19162c",
"nF c #19172b",
"cl c #19172d",
".m c #19172e",
".4 c #19172f",
"am c #191730",
"uV c #19182d",
".t c #19182e",
".l c #19182f",
"m5 c #19192d",
"#r c #19192f",
"t7 c #1a162b",
"n9 c #1a172c",
"o7 c #1a172d",
".f c #1a172e",
".d c #1a172f",
"cO c #1a1730",
"sF c #1a182b",
"cj c #1a182d",
"#U c #1a182e",
".e c #1a182f",
"bM c #1a1832",
".N c #1a192f",
"ju c #1b172c",
"s# c #1b172d",
"jw c #1b172e",
".2 c #1b182f",
"td c #1b1830",
"u3 c #1b192e",
"aP c #1b192f",
"oz c #1c1630",
"ak c #1c172e",
"bQ c #1c172f",
"uR c #1c1930",
"u7 c #1d162d",
"h# c #1d172c",
"ur c #1d172e",
"u5 c #1e162b",
"fm c #1e162c",
"uH c #1e162e",
"t4 c #1e172c",
".z c #1e172d",
".J c #1e172e",
".y c #1e172f",
".A c #1e182e",
".1 c #1e182f",
".B c #1f172c",
".I c #1f172e",
".H c #1f182d",
"bR c #1f182f",
"u6 c #20162c",
"#w c #20162d",
"fn c #20172c",
"sJ c #20172d",
"bg c #20172f",
"tK c #20182d",
"r8 c #201830",
"m7 c #201831",
"hb c #210a26",
"m4 c #21162c",
"nH c #21162d",
"pH c #21172e",
"up c #21172f",
"r. c #21182f",
"uQ c #211830",
"t3 c #22162c",
"eH c #22162d",
"j5 c #22162e",
"kE c #22162f",
"ao c #22172b",
".r c #22172d",
"tJ c #22172e",
"o# c #22172f",
"jt c #22182d",
"d7 c #22182e",
"gC c #221830",
".O c #22192e",
".P c #22192f",
"tb c #23162b",
"aQ c #23162c",
"o. c #23162f",
"sa c #23172c",
".q c #23172d",
"cR c #23172e",
"ds c #23172f",
"o6 c #23182d",
"bL c #23182e",
"ci c #23182f",
"hP c #240520",
"bc c #24162c",
"an c #24162d",
".n c #24162e",
"te c #24162f",
"il c #241630",
"cm c #24172c",
"eG c #24172d",
"#q c #24172e",
"aj c #24172f",
"q7 c #241730",
".o c #24182d",
".p c #24182e",
"fi c #24182f",
"ow c #241830",
"p8 c #24192e",
"iX c #250d21",
"#W c #25162c",
".5 c #25162d",
"gA c #25162e",
".6 c #25172e",
"tG c #251730",
"f3 c #25182b",
"gD c #25182c",
"uL c #25182d",
".0 c #25182e",
".Q c #25182f",
"qy c #251a2f",
".Z c #260d27",
".s c #26162d",
"d3 c #26172e",
".7 c #26192e",
"uo c #261a2e",
"cg c #270c24",
".R c #270c25",
".W c #270d25",
".S c #270d26",
".T c #270d27",
"sK c #271228",
".Y c #27162b",
"t8 c #27182e",
"ai c #27182f",
"u2 c #27192c",
"ip c #280a20",
".U c #281229",
".V c #28122a",
"r7 c #28162c",
"oA c #28172d",
"uX c #28182c",
"uY c #28182e",
"u1 c #28192c",
".X c #291529",
"ch c #29162c",
"uZ c #29182e",
"#p c #29182f",
"sE c #291b31",
"lv c #2a0f2a",
"k0 c #2a142b",
"bK c #2a152b",
"o5 c #2a162d",
".F c #2a172e",
"u0 c #2a182c",
"r# c #2a182e",
"m6 c #2a182f",
"t9 c #2a192e",
"k. c #2a1b30",
"qA c #2b172c",
".G c #2b182e",
"kH c #2b1b30",
"ah c #2c112a",
"rG c #2c152b",
"p9 c #2c162c",
"uM c #2c162e",
".E c #2c172d",
".C c #2c172e",
"cS c #2c182c",
".D c #2c182e",
"l6 c #2d0c26",
"ta c #2d162c",
"bS c #2d162d",
"qx c #2d182c",
"gz c #2d192d",
"#Z c #2e1227",
"q6 c #2e122b",
"fh c #2e162c",
"#S c #2e162d",
"ag c #2e172c",
"#y c #2e172d",
"f0 c #2e182c",
"mB c #2e1831",
"dt c #2f1526",
"ha c #2f162d",
"aS c #2f172c",
"aL c #2f172e",
"hM c #2f172f",
"#Y c #30122c",
"q. c #301528",
"cT c #301626",
"uG c #30162c",
"dq c #30162e",
"tL c #301630",
"#z c #30172c",
"qB c #30172d",
"#x c #30172e",
"g9 c #30182c",
"jy c #30192c",
"cn c #31162d",
"cN c #31162e",
"ra c #31172c",
"uu c #31172d",
"d2 c #31172e",
"ik c #31182c",
"uF c #31182d",
"tF c #31182f",
"uv c #31192d",
"aK c #32152d",
"us c #32162c",
"ut c #32162d",
"j4 c #32172c",
"p. c #32172e",
"#X c #32172f",
"iV c #321828",
"pJ c #32182c",
"t2 c #32182f",
"uO c #32192c",
"p5 c #33162d",
"#l c #33172c",
"js c #33182c",
"tM c #331a2e",
"t0 c #341629",
"kD c #34162c",
"n8 c #34182c",
"fZ c #34182d",
".9 c #34192d",
"uk c #341f38",
"sc c #350d24",
"ap c #35162a",
"nI c #35162b",
"l2 c #35162c",
"gy c #35172c",
"j9 c #35182b",
"uP c #35182c",
"#. c #35182d",
"ov c #35182e",
"d8 c #35192c",
"un c #351930",
"jx c #36162b",
"ls c #36162c",
"uN c #36162d",
"eF c #36172b",
"io c #36172c",
"bb c #36172e",
"eI c #36182c",
"tf c #36182f",
"t1 c #361a2d",
"u# c #361c34",
"u. c #361d36",
"hO c #37162c",
"aR c #37172c",
"rI c #37172e",
".8 c #37182c",
"tg c #37182d",
"## c #37182e",
"#o c #371a2e",
"#R c #371c31",
"tN c #38152e",
"#n c #38192d",
"tD c #38192e",
"tE c #381a2d",
"#m c #381a2e",
"rF c #381b30",
"f4 c #3a182d",
"q5 c #3a1a30",
"um c #3a1a31",
"ua c #3a1d34",
"af c #3c1e31",
"nE c #3d152c",
"dp c #3d1a2d",
"ub c #3d1c31",
"ul c #3f1630",
"sb c #41172d",
"d1 c #411930",
"nD c #42152b",
"m8 c #43162f",
"sD c #43243a",
"oB c #48122c",
"o4 c #4f2338",
"eJ c #920628",
"d9 c #930628",
"#P c #9a2f43",
"fo c #9d0223",
"iU c #9d0423",
"kC c #9d0727",
"fd c #9e0012",
"jr c #9e0023",
"cd c #9f0014",
"gv c #9f0019",
"cI c #a00018",
"m2 c #a00019",
"pZ c #a0001a",
"my c #a00524",
"fe c #a10017",
"rZ c #a10018",
"r1 c #a10019",
"ff c #a1001a",
"qv c #a1001c",
"r0 c #a20017",
"rK c #a20018",
"kz c #a2001a",
"ky c #a2001b",
"n4 c #a2001c",
"j3 c #a20025",
"kA c #a20319",
"rW c #a30018",
"ot c #a3001a",
"cc c #a3001b",
"kx c #a3001c",
"qG c #a30821",
"rV c #a40018",
"fV c #a4001a",
"oZ c #a4001c",
"pB c #a4011d",
"eE c #a40227",
"q0 c #a5041f",
"qF c #a5061f",
"r2 c #a50821",
"rY c #a60019",
"pA c #a6031e",
"o0 c #a6041f",
"qE c #a6081f",
"rz c #a7001b",
"qw c #a7001d",
"m3 c #a70327",
"qZ c #a80620",
"qH c #a90422",
"nA c #a90620",
"jY c #a90d23",
"re c #aa001c",
"oY c #aa0e24",
"pz c #ab0420",
"j0 c #ab0b23",
"pC c #ab0c23",
"jZ c #ab0e24",
"rf c #ac0623",
"j1 c #ad0020",
"rg c #ad0921",
"bI c #ad172f",
"ce c #ad1829",
"#O c #ad5767",
"hL c #ad5f6e",
"rB c #ae1027",
"q2 c #ae1629",
"kW c #ae1f29",
"g4 c #af001f",
"bH c #af0021",
"oX c #af1126",
"rU c #b0001c",
"fU c #b0001d",
"cH c #b00020",
"p4 c #b0002c",
"fp c #b10024",
"ba c #b10028",
"#Q c #b15f6d",
"#N c #b15f6f",
"rX c #b2001b",
"rm c #b2001e",
"cb c #b20021",
"dT c #b20022",
"rj c #b20922",
"oC c #b23d4d",
"#A c #b25e6d",
"jq c #b3001f",
"nB c #b30020",
"rh c #b30722",
"qI c #b30724",
"p# c #b3505c",
"#B c #b3606e",
"nC c #b4001f",
"iT c #b40020",
"qJ c #b40624",
"kI c #b5001f",
"f5 c #b50020",
"py c #b50021",
"g3 c #b50022",
"id c #b50322",
"bi c #b53f4c",
"oF c #b6001f",
"k# c #b60020",
"gt c #b60021",
"gs c #b60022",
"hB c #b60323",
"ri c #b60723",
"qM c #b60725",
"bJ c #b68792",
"gu c #b70020",
"cE c #b70022",
"rl c #b70120",
"kV c #b70122",
"bG c #b71a2c",
"fW c #b80022",
"kU c #b80023",
"cG c #b80024",
"pY c #b80125",
"pc c #b80221",
"qL c #b80525",
"kS c #b80a28",
"ic c #b90022",
"dS c #b90023",
"pV c #b90027",
"lT c #b9041f",
"qK c #b90525",
"uw c #b9868f",
"eL c #ba0020",
"dQ c #ba0023",
"dR c #ba0024",
"pX c #ba0025",
"pU c #ba0027",
"bh c #ba404b",
"j2 c #bb0023",
"oc c #bb0024",
"qN c #bb0527",
"ca c #bb0726",
"rC c #bb2336",
"mJ c #bc001f",
"nJ c #bc0021",
"bW c #bc0023",
"oG c #bc0025",
"dP c #bc0026",
"li c #bc0125",
"rT c #bc0423",
"mS c #bc072c",
"pK c #bc6773",
"pT c #bd0022",
"gw c #bd0023",
"dh c #bd0024",
"dg c #bd0025",
"pW c #bd0026",
"fX c #bd0027",
"n6 c #bd0725",
"oV c #bd1129",
"oW c #bd182a",
"f6 c #be0022",
"pl c #be0024",
"eK c #be0026",
"i# c #be0027",
"pd c #be0a29",
"rk c #be1329",
"ob c #bf0025",
"lQ c #bf0026",
"eD c #bf0027",
"dL c #bf002a",
"lS c #bf012a",
"kB c #bf0228",
"lz c #bf072d",
"mb c #c00029",
"mx c #c0002a",
"lR c #c0012a",
"kL c #c0022d",
"pi c #c00d2b",
"n. c #c0162e",
"rL c #c10023",
"jp c #c10024",
"kT c #c10026",
"od c #c10027",
"gH c #c10028",
"mT c #c1022d",
"pe c #c1082d",
"lA c #c1082e",
"n# c #c11636",
"cF c #c20025",
"g2 c #c20026",
"e. c #c20027",
"ia c #c20028",
"kJ c #c20029",
"mn c #c2002a",
"pj c #c20d2b",
"rJ c #c30020",
"ib c #c30027",
"kK c #c30028",
"ph c #c30328",
"pg c #c30329",
"n5 c #c30627",
"n7 c #c30826",
"pk c #c40027",
"fq c #c40029",
"lE c #c4002b",
"mm c #c4002d",
"q1 c #c40327",
"mM c #c40530",
"gx c #c50022",
"oI c #c51b37",
"fT c #c52238",
"m9 c #c60f2f",
"rA c #c61736",
"oJ c #c61c37",
"aq c #c70026",
"fS c #c7263b",
"pf c #c80328",
"bk c #c81733",
"jz c #c81e33",
"fR c #c8273b",
"k4 c #c91b39",
"oH c #c91d39",
"ln c #c93e4c",
"lo c #c9424e",
"b# c #ca0029",
"fY c #cb002a",
"aT c #cb002e",
"lm c #cb3d4d",
"sv c #cb4c5d",
"dC c #cc2d48",
"lh c #cd1e3a",
"dO c #cd2b43",
"n3 c #cd4351",
"sw c #cd495c",
"st c #cd4b5e",
"lr c #cd8c99",
"oa c #ce0028",
"lg c #ce1e3b",
"hV c #ce2f46",
"dD c #ce304c",
"bF c #ce3443",
"hy c #ce354c",
"su c #ce4a5e",
"pG c #ce5064",
"o3 c #ce5263",
"kZ c #ce6a7b",
"uy c #ce6d7d",
"mR c #cf2b45",
"mQ c #cf2b49",
"dA c #cf3146",
"hz c #cf344d",
"rM c #cf394c",
"sr c #cf4a5e",
"sn c #cf4b57",
"fr c #d0273f",
"k7 c #d02844",
"f9 c #d02940",
"mP c #d02c46",
"dM c #d02f44",
"o1 c #d03241",
"jo c #d03646",
"hA c #d0364e",
"ll c #d04051",
"mw c #d04355",
"sf c #d05768",
"hK c #d0727d",
"fg c #d10026",
"dK c #d12a45",
"ml c #d12e49",
"cs c #d12f47",
"ru c #d13446",
"ss c #d1495e",
"hc c #d1737e",
"dN c #d22d45",
"mK c #d22d48",
"mL c #d22e49",
"ct c #d22f47",
"cr c #d23047",
"f8 c #d23148",
"k3 c #d2374f",
"nz c #d24859",
"t# c #d2969e",
"uc c #d2a2b4",
"ry c #d31d32",
"dJ c #d32a46",
"mN c #d33048",
"mO c #d33049",
"hj c #d3314b",
"rx c #d33445",
"q# c #d33c4a",
"so c #d34958",
"s5 c #d35062",
"uC c #d36e7f",
"uD c #d3959e",
"l1 c #d3969d",
"qY c #d4213a",
"f7 c #d42f47",
"h0 c #d43042",
"lD c #d43048",
"iK c #d43148",
"mg c #d4314c",
"md c #d4324b",
"gI c #d4354c",
"bE c #d43748",
"b. c #d43949",
"#j c #d43d4e",
"qV c #d43f51",
"sp c #d44957",
"sm c #d44a58",
"sR c #d44e5d",
"uE c #d496a1",
"dI c #d53249",
"gK c #d5324a",
"cu c #d5334d",
"mc c #d5344b",
"i. c #d5354c",
"c0 c #d5364d",
"g6 c #d53c4b",
"qX c #d53c4c",
"g7 c #d53d4b",
"sQ c #d5495b",
"tm c #d54b59",
"sq c #d54b5e",
"n2 c #d54c5a",
"rO c #d54f5f",
"mu c #d5515f",
"s1 c #d55263",
"sN c #d55d6e",
"rS c #d61c32",
"h9 c #d63047",
"iJ c #d6314a",
"df c #d63349",
"iF c #d6334c",
"mf c #d6344e",
"me c #d6364f",
"iR c #d63d4d",
"ly c #d6455c",
"sl c #d64a59",
"lZ c #d64c5c",
"m1 c #d64f5f",
"mv c #d65060",
"sZ c #d65061",
"lW c #d6515e",
"s2 c #d65162",
"d0 c #d6525e",
"s0 c #d65262",
"dF c #d7304c",
"iI c #d73249",
"hY c #d7334b",
"iG c #d7334d",
"pD c #d73a49",
"d# c #d73b52",
"aG c #d73c4d",
"jn c #d73d4c",
"qr c #d73d4e",
"tw c #d74c59",
"sh c #d74c5e",
"tj c #d74c5f",
"si c #d74c60",
"lY c #d74f5d",
"eC c #d75061",
"lX c #d7515f",
"rP c #d75162",
"s4 c #d75968",
"ij c #d7727d",
"ux c #d797a2",
"th c #d79da4",
"h1 c #d82f43",
"gJ c #d8314a",
"de c #d8364c",
"dd c #d8364f",
"lB c #d83650",
"ad c #d83a4c",
"g5 c #d83b4b",
"hG c #d83c4c",
"hH c #d83d4c",
"qt c #d83e4c",
"hX c #d83e52",
"iS c #d84050",
"#i c #d84658",
"n1 c #d84c5e",
"tk c #d84e5d",
"sT c #d8505e",
"rN c #d85061",
"m0 c #d85062",
"tr c #d8525e",
"dk c #d8525f",
"ny c #d85363",
"s3 c #d85a69",
"aU c #d9334a",
"lC c #d93750",
"bj c #d94159",
"tv c #d94d5d",
"tV c #d94e5b",
"rQ c #d94e63",
"cL c #d9515f",
"mr c #d95164",
"sW c #d95260",
"dX c #d95261",
"nx c #d95464",
"sU c #d95663",
"iQ c #da3f4e",
"qu c #da404f",
"qs c #da4150",
"p3 c #da4250",
"aH c #da4253",
"hI c #da4453",
"tq c #da4f5d",
"sX c #da515f",
"ez c #da5263",
"sO c #da5560",
"sY c #da5667",
"sM c #da7983",
"g8 c #db3e4c",
"p2 c #db3f4f",
"kw c #db4150",
"aI c #db4253",
"k6 c #db445b",
"tt c #db4c5c",
"tp c #db5060",
"sV c #db5766",
"uA c #db9fa7",
"uz c #dba0a8",
"dz c #dc3a4e",
"ii c #dc4755",
"sk c #dc4a5a",
"tu c #dc4e5d",
"tT c #dc5263",
"ms c #dc5769",
"fs c #dc5b6f",
"uB c #dca0aa",
"cZ c #dd384d",
"mk c #dd3b56",
"sS c #dd5b6a",
"lp c #dd616d",
"s9 c #dd7484",
"jX c #de4654",
"lk c #de5c69",
"h8 c #df4b5b",
"sj c #df5363",
"ft c #df5464",
"hw c #df586b",
"ho c #df596b",
"dY c #df6170",
"k5 c #e0445c",
"hn c #e0596b",
"hl c #e05e6e",
"eA c #e06271",
"c1 c #e15165",
"bX c #e15263",
"c2 c #e1556a",
"c3 c #e1566a",
"hk c #e15b6e",
"k1 c #e1626d",
"dG c #e2546b",
"hx c #e2576a",
"d. c #e25a6b",
"lj c #e2636f",
"dj c #e2717d",
"sC c #e29fa9",
"hF c #e34956",
"c8 c #e35366",
"c9 c #e35769",
"di c #e36f7e",
"rn c #e42844",
"hE c #e44856",
"dc c #e45162",
"c5 c #e46071",
"do c #e4717f",
"hD c #e54856",
"iz c #e56473",
"dl c #e56f80",
"bl c #e65c6d",
"hW c #e65e6c",
"dB c #e65f71",
"dE c #e66072",
"bY c #e66674",
"hv c #e66b75",
"hC c #e74657",
"db c #e75364",
"hZ c #e76174",
"iH c #e76575",
"kM c #e76674",
"fc c #e76e7b",
"dm c #e77382",
"rb c #e77e88",
"#L c #e8515f",
"da c #e85362",
"dH c #e86175",
"iy c #e86374",
"bV c #e86473",
"iA c #e86978",
"iE c #e86979",
"sL c #e8a9af",
"rw c #e9505e",
"sz c #e9777f",
"oE c #ea5361",
"kv c #ea5563",
"iD c #ea6979",
"c6 c #ea7684",
"sy c #ea7d86",
"t. c #eaa8b0",
"rp c #eb5563",
"rr c #eb5663",
"ro c #eb5664",
"qg c #eb5968",
"iC c #eb6878",
"pm c #ec344f",
"oD c #ec525f",
"#K c #ec5966",
"iB c #ec6879",
"mo c #ec7782",
"pv c #ec7b85",
"tY c #ec808c",
"rE c #ecabb1",
"rq c #ed5663",
"jW c #ed5764",
"jj c #ed616d",
"q3 c #ed737c",
"lF c #ed737f",
"lV c #ed7380",
"n0 c #ed7986",
"rv c #ee5061",
"iP c #ee5563",
"aF c #ee5968",
"jk c #ee606d",
"qQ c #ee636c",
"ar c #ee7484",
"c7 c #ee7684",
"rR c #ee7b8a",
"gr c #ee7c82",
"l7 c #ee7d87",
"tQ c #ee7e8c",
"lw c #ee8088",
"cY c #ef4450",
"pO c #ef5562",
"qc c #ef5b66",
"#g c #ef5b67",
"#e c #ef5d68",
"#d c #ef5d6b",
"bm c #ef7581",
"k8 c #ef7584",
"lU c #ef7985",
"nw c #ef7e88",
"tS c #ef7e8b",
"hm c #ef8091",
"s8 c #ef838c",
"qO c #f0314d",
"oU c #f04e66",
"qq c #f05968",
"b8 c #f05b69",
"pb c #f05c67",
"ku c #f05c6a",
"bA c #f05d68",
"#f c #f05d69",
"aC c #f0616d",
"qP c #f0646d",
"os c #f07b84",
"mX c #f07d89",
"kY c #f07e89",
"c4 c #f07e8a",
"sA c #f07f88",
"l8 c #f08088",
"op c #f0818b",
"mp c #f0838e",
"oq c #f08390",
"oS c #f08690",
"k2 c #f0959f",
"uj c #f0b1b8",
"tC c #f0b2b3",
"oK c #f1435f",
"p0 c #f15464",
"pN c #f15966",
"a4 c #f15b67",
"b9 c #f15c69",
"bB c #f15d68",
"bD c #f15d69",
"qR c #f15d6b",
"bC c #f15e6a",
"qm c #f15e6b",
"qn c #f15e6c",
"qo c #f15e6d",
"ql c #f15f6d",
"mZ c #f17986",
"e9 c #f17e89",
"tR c #f17f8a",
"ey c #f17f8c",
"r4 c #f1808a",
"ex c #f1808b",
"tU c #f1818a",
"tX c #f1838f",
"hg c #f25361",
"aa c #f25a68",
"qS c #f25c6b",
"qe c #f25d68",
"iO c #f25d69",
"pQ c #f25d6b",
"#8 c #f25d6c",
"a5 c #f25e6a",
"iN c #f25f6b",
"aB c #f2616f",
"ou c #f26673",
"aV c #f2707d",
"se c #f27889",
"nu c #f27e88",
"fa c #f27f8b",
"dW c #f2818a",
"fQ c #f2848c",
"nv c #f2878f",
"s7 c #f28892",
"r5 c #f28c97",
"hi c #f34854",
"hh c #f34955",
"p1 c #f35967",
"pR c #f35c68",
"qb c #f35c69",
"#9 c #f35d6a",
"qp c #f35d6b",
"qW c #f35d6c",
"if c #f35e6a",
"aE c #f35e6d",
"a. c #f35f6b",
"#I c #f35f6c",
"qj c #f35f6f",
"c# c #f3636d",
"rt c #f3727c",
"uh c #f37f8a",
"nZ c #f3808c",
"tW c #f3818c",
"fb c #f3828c",
"ti c #f3828d",
"dn c #f398a1",
"gL c #f3a9b5",
"a8 c #f45a67",
"ie c #f45d6a",
"kt c #f45d6d",
"a# c #f45e6a",
"ig c #f45f6a",
"a6 c #f45f6b",
"pF c #f45f6e",
"a7 c #f4606c",
"pa c #f4636e",
"c. c #f4646e",
"o2 c #f47a83",
"ew c #f47a87",
"mt c #f4828c",
"nY c #f4838e",
"rD c #f4858e",
"or c #f4858f",
"mC c #f4888e",
"sd c #f4acb6",
"px c #f5405a",
"qk c #f55e6e",
"ih c #f5616d",
"mY c #f5808b",
"gq c #f58d94",
"pn c #f6455e",
"iq c #f65e6b",
"pM c #f65f6c",
"gF c #f66261",
"jm c #f6626d",
"qa c #f6626e",
"jV c #f66572",
"#J c #f66a76",
"rs c #f67382",
"lf c #f67d89",
"mU c #f6878f",
"qi c #f76674",
"#M c #f7707c",
"hJ c #f77a7f",
"fP c #f79098",
"mD c #f7a2ac",
"nr c #f7a8b0",
"q4 c #f7aab7",
"lq c #f7abb4",
"no c #f7acb3",
"sx c #f7adb5",
"tA c #f8838d",
"oo c #f8848f",
"#c c #f8888d",
"l9 c #f8a0ab",
"tn c #f8a6b1",
"cK c #f8abb3",
"nk c #f8afb5",
"nl c #f8b0b6",
"nj c #f8b0b7",
"oL c #f9526c",
"lP c #f97787",
"qU c #f97b84",
"qd c #f97c85",
"rc c #f97d85",
"cD c #f97f86",
"cA c #f99ea5",
"np c #f9abb3",
"pu c #f9abb4",
"ue c #f9b8b9",
"oT c #fa516d",
"#H c #fa7981",
"#F c #fa7984",
"#G c #fa7a82",
"qT c #fa7d88",
"ac c #fa818a",
"rd c #fa838e",
"nq c #faa7b0",
"dU c #faaeb7",
"pq c #faafb7",
"pt c #faafb8",
"kj c #fab4b9",
"kl c #fab4ba",
"uf c #fababd",
"bz c #fb7a83",
"jU c #fb7c85",
"tz c #fb7d8c",
"qC c #fb828a",
"iZ c #fb969d",
"jB c #fb979c",
"le c #fb979e",
"po c #fbacb5",
"pr c #fbaeb7",
"ps c #fbafb8",
"ui c #fbb0b6",
"pp c #fbb0b8",
"ty c #fbb2ba",
"l0 c #fbb2bc",
"ng c #fbb3ba",
"ki c #fbb4bb",
"kk c #fbb5b7",
"nf c #fbb5ba",
"oO c #fbb9c0",
"ok c #fbc2c8",
"co c #fc5158",
"jT c #fc828b",
"qD c #fc858c",
"iM c #fc878e",
"l# c #fc9aa1",
"j. c #fcabaa",
"sP c #fcb0bc",
"ni c #fcb1b8",
"oR c #fcb2ba",
"nn c #fcb3b8",
"sB c #fcb3bb",
"ud c #fcb3bc",
"nm c #fcb4ba",
"nL c #fcb5b9",
"nM c #fcb5ba",
"nh c #fcb5bb",
"fN c #fcb9c0",
"oM c #fcbbc0",
"eW c #fccbcb",
"eR c #fccdcc",
"ga c #fccfd6",
"gR c #fcd6d8",
"e2 c #fcdfe1",
"i4 c #fd7071",
"el c #fd7579",
"pE c #fd8589",
"a3 c #fd878e",
"#0 c #fd8992",
"#2 c #fd8c93",
"kQ c #fd8c94",
"qf c #fd8f91",
"bv c #fd929a",
"ka c #fd959a",
"lN c #fd969c",
"b2 c #fd979e",
"lI c #fd9ba2",
"lM c #fd9ca0",
"la c #fd9ca3",
"ko c #fd9ea3",
"s6 c #fdb0b7",
"nK c #fdb1b4",
"km c #fdb3b9",
"nN c #fdb4ba",
"mW c #fdb5ba",
"sg c #fdb5c5",
"kg c #fdb6bc",
"dV c #fdb7bc",
"ug c #fdb7c2",
"du c #fdb9c0",
"mV c #fdbabd",
"tx c #fdbac0",
"oP c #fdbac1",
"cM c #fdbcc3",
"tP c #fdbdbf",
"go c #fdbec3",
"on c #fdbfc6",
"nR c #fdc3ca",
"nQ c #fdc5c9",
"e4 c #fdc6ca",
"gX c #fdc6cb",
"fK c #fdc7cb",
"fz c #fdc8ca",
"fy c #fdc9cb",
"gU c #fdcace",
"eQ c #fdcbd0",
"eP c #fdcdd1",
"hu c #fdd2d2",
"fD c #fdd4d5",
"fC c #fdd4d6",
"gh c #fdd7d9",
"h6 c #fdd7dc",
"h5 c #fdd7df",
"gc c #fdd8da",
"gd c #fdd8db",
"gN c #fdd8dc",
"eX c #fdd9db",
"pw c #fe4562",
"hT c #fe4f54",
"dy c #fe5257",
"en c #fe7075",
"eo c #fe7275",
"ef c #fe7373",
"a9 c #fe838b",
"#E c #fe888f",
"#b c #fe8991",
"#h c #fe8992",
"ed c #fe8a8b",
"iw c #fe8b8b",
"ji c #fe8b92",
"#k c #fe8b93",
"a1 c #fe8b95",
"#1 c #fe8c93",
"#4 c #fe8c94",
"jh c #fe8d95",
"aJ c #fe8d96",
"kb c #fe8e96",
"#a c #fe8e97",
"lH c #fe9a9e",
"lK c #fe9ca0",
"lL c #fe9ca1",
"lb c #fe9da4",
"cw c #fe9ea3",
"kd c #fe9ea5",
"b0 c #fe9fa4",
"b3 c #fea0a5",
"as c #fea1a9",
"fO c #feacb5",
"jM c #feb2b6",
"jN c #feb6b8",
"kh c #feb6bc",
"to c #feb8c4",
"g0 c #feb9c1",
"fM c #febbc2",
"eu c #febcc4",
"ev c #febcc5",
"m. c #febdc5",
"f. c #febec5",
"eN c #fec3c5",
"oj c #fec3c8",
"nS c #fec5c8",
"er c #fec7cc",
"fL c #fec8cd",
"gl c #fecace",
"fw c #fecccf",
"fJ c #fecdd1",
"gb c #feced0",
"e3 c #fed3d6",
"h2 c #fed3d9",
"fv c #fed4d5",
"gg c #fed6d9",
"hp c #fed6db",
"fF c #fed7d7",
"fG c #fed7d8",
"gi c #fed7d9",
"gQ c #fed7da",
"hq c #fed7db",
"gM c #fed7dc",
"h7 c #fed8d9",
"gS c #fed8da",
"ge c #fed8db",
"gj c #fed9d9",
"gO c #fed9db",
"pS c #ff4a65",
"cp c #ff5358",
"bU c #ff5459",
"cq c #ff5558",
"ep c #ff565c",
"bT c #ff5858",
"gE c #ff5859",
"hU c #ff585d",
"cV c #ff656a",
"cX c #ff6769",
"cW c #ff676c",
"dv c #ff6a6f",
"i3 c #ff6d71",
"iu c #ff6f72",
"hS c #ff6f75",
"dw c #ff7072",
"i9 c #ff7179",
"dx c #ff7275",
"hf c #ff727a",
"i5 c #ff727c",
"i6 c #ff7373",
"ec c #ff7375",
"iv c #ff7376",
"he c #ff7377",
"eb c #ff7478",
"i7 c #ff757b",
"gG c #ff757d",
"ek c #ff7b7c",
"hR c #ff7d82",
"hd c #ff7e80",
"lO c #ff818f",
"ks c #ff858e",
"kr c #ff8790",
"hQ c #ff888f",
"is c #ff8891",
"by c #ff8991",
"kq c #ff8992",
"it c #ff8994",
"aD c #ff8a8f",
"#7 c #ff8a90",
"aZ c #ff8a91",
"az c #ff8a92",
"b5 c #ff8a93",
"kp c #ff8a94",
"mj c #ff8a95",
"pP c #ff8a96",
"iL c #ff8b90",
"cC c #ff8b91",
"#5 c #ff8b93",
"jS c #ff8b94",
"b6 c #ff8b96",
"#6 c #ff8c92",
"#3 c #ff8c93",
"#D c #ff8c94",
"at c #ff8c95",
"ab c #ff8d95",
"ae c #ff8d96",
"aA c #ff8e93",
"i1 c #ff8e95",
"i2 c #ff8e96",
"jl c #ff8e97",
"pL c #ff8f96",
"#C c #ff8f97",
"ir c #ff8f98",
"qh c #ff9096",
"bx c #ff9097",
"iY c #ff9099",
"ee c #ff9193",
"jA c #ff9195",
"jD c #ff919a",
"ej c #ff9298",
"eh c #ff9392",
"eT c #ff9395",
"bu c #ff9398",
"ei c #ff9495",
"eV c #ff9497",
"em c #ff9498",
"bZ c #ff949a",
"eg c #ff9592",
"eU c #ff9596",
"cU c #ff959b",
"bn c #ff959c",
"jf c #ff959d",
"eS c #ff9697",
"jF c #ff969b",
"br c #ff969d",
"ld c #ff96a0",
"i8 c #ff9795",
"ix c #ff979b",
"bs c #ff979c",
"bt c #ff979e",
"bq c #ff989f",
"lc c #ff98a0",
"ax c #ff98a1",
"lJ c #ff999f",
"je c #ff99a0",
"lG c #ff9a9e",
"bw c #ff9a9f",
"jE c #ff9aa2",
"jC c #ff9ba3",
"jQ c #ff9ca3",
"kn c #ff9da3",
"l. c #ff9da4",
"kP c #ff9da5",
"kO c #ff9da6",
"kR c #ff9ea4",
"aW c #ff9ea5",
"cB c #ff9ea6",
"k9 c #ff9ea8",
"ay c #ff9fa3",
"mh c #ff9fa4",
"b1 c #ff9fa5",
"av c #ff9fa6",
"b4 c #ff9fa7",
"kN c #ff9fa8",
"aY c #ff9fa9",
"kc c #ffa0a4",
"au c #ffa0a5",
"bp c #ffa0a6",
"jR c #ffa0a7",
"aX c #ffa0a8",
"aw c #ffa0aa",
"mi c #ffa1a4",
"a2 c #ffa1a5",
"b7 c #ffa1a6",
"i0 c #ffa1a7",
"a0 c #ffa1a8",
"bo c #ffa2a9",
"jO c #ffa3a8",
"cz c #ffa3a9",
"jG c #ffa4aa",
"jd c #ffa5ab",
"cv c #ffa6a7",
"jL c #ffa8af",
"jg c #ffa9aa",
"jJ c #ffaaaf",
"jH c #ffaab0",
"ke c #ffadb4",
"jI c #ffafb4",
"jK c #ffb0b5",
"jP c #ffb5b9",
"nW c #ffb5bd",
"kf c #ffb6bb",
"nV c #ffb6bd",
"cy c #ffb7ba",
"cx c #ffb7bb",
"nX c #ffb8bf",
"tB c #ffb9b7",
"jc c #ffb9bb",
"j# c #ffbab9",
"ja c #ffbabc",
"f# c #ffbabf",
"oQ c #ffbac1",
"oN c #ffbac2",
"e7 c #ffbbc2",
"eq c #ffbbc5",
"tl c #ffbbc7",
"jb c #ffbcbd",
"gZ c #ffbcc3",
"cJ c #ffbdc3",
"nU c #ffbdc4",
"et c #ffbdc5",
"gY c #ffbdc6",
"lx c #ffbec2",
"e6 c #ffbec3",
"ns c #ffbec4",
"m# c #ffbec5",
"mE c #ffbec6",
"e5 c #ffbec7",
"nT c #ffbfc4",
"om c #ffbfc5",
"na c #ffbfc6",
"nc c #ffbfc8",
"tZ c #ffc0c2",
"gV c #ffc0c3",
"ea c #ffc0c4",
"e8 c #ffc0c5",
"nO c #ffc0c6",
"mq c #ffc0c7",
"ol c #ffc0c9",
"kX c #ffc0cb",
"nt c #ffc1c5",
"gn c #ffc1c6",
"ne c #ffc1c7",
"nd c #ffc1ca",
"ts c #ffc1cb",
"tO c #ffc2c2",
"of c #ffc2c6",
"eO c #ffc2c7",
"nb c #ffc2cb",
"r3 c #ffc3c4",
"oh c #ffc3c6",
"og c #ffc3c7",
"gp c #ffc3c8",
"mF c #ffc3ca",
"oi c #ffc4c7",
"dZ c #ffc4cb",
"gW c #ffc5c8",
"nP c #ffc5c9",
"e# c #ffc5cb",
"fu c #ffc5cc",
"eB c #ffc6c7",
"g1 c #ffc6c9",
"es c #ffc6cc",
"fA c #ffc7ca",
"gm c #ffc7cb",
"fB c #ffc8ca",
"mI c #ffc8cc",
"mG c #ffc8ce",
"fx c #ffc9cb",
"cf c #ffc9ce",
"r6 c #ffc9cf",
"gk c #ffcace",
"g. c #ffcad6",
"oe c #ffcbcf",
"fH c #ffcdd0",
"mH c #ffced1",
"fI c #ffcfd1",
"eY c #ffd0d3",
"ma c #ffd1d4",
"fE c #ffd3d4",
"ht c #ffd3d5",
"hs c #ffd4d6",
"e1 c #ffd4d9",
"h3 c #ffd5db",
"gP c #ffd6da",
"gf c #ffd7db",
"gT c #ffd8da",
"hr c #ffd9d9",
"h4 c #ffdbe1",
"g# c #ffdbe6",
"eM c #ffdcdd",
"e0 c #ffddde",
"eZ c #ffdddf",
"QtQtQtQtQtQtQtQtQtQtQtQtQtQtQtQtQtQtQtQtQtQtQtQtQtQtQtQtQtQtQtQtQtQtQtQtQtQtQtQtQtQtQtQtQtQtQtQtQtQtQtQtQtQtQtQtQtQtQtQtQtQtQtQt",
"QtQtQtQtQtQtQtQtQtQtQtQtQtQtQtQtQtQtQtQtQtQtQtQtQtQtQtQtQtQtQtQtQtQtQtQtQtQtQtQtQtQtQtQtQtQtQtQtQtQtQtQtQtQtQtQtQtQtQtQtQtQtQtQt",
"QtQtQtQtQtQtQtQtQtQtQtQtQtQtQtQtQtQtQtQtQtQtQtQtQtQtQtQtQtQtQtQtQtQtQtQtQtQtQtQtQtQtQtQtQtQtQtQtQtQtQtQtQtQtQtQtQtQtQtQtQtQtQtQt",
"QtQtQtQtQtQtQtQtQtQtQtQtQtQtQtQtQtQtQtQtQtQtQtQtQtQtQtQtQtQt.#.#.#.#QtQtQtQtQtQtQtQtQtQtQtQtQtQtQtQtQtQtQtQtQtQtQtQtQtQtQtQtQtQt",
"QtQtQtQtQtQtQtQtQtQtQtQtQtQtQtQtQtQtQtQtQtQtQtQtQtQtQtQtQtQt.#.#.#.#QtQt.aQtQtQtQtQtQtQtQtQtQtQtQtQtQtQtQtQtQtQtQtQtQtQtQtQtQtQt",
"QtQtQtQtQtQtQtQtQtQtQtQtQtQtQtQtQtQtQtQtQtQtQtQtQt.#.#QtQt.b.b.b.b.b.a.b.#.#.b.b.#.#QtQtQtQtQtQtQtQtQtQtQtQtQtQtQtQtQtQtQtQtQtQt",
"QtQtQtQtQtQtQtQtQtQtQtQtQtQtQtQtQtQtQtQtQt.b.a.a.b.#.#.#.c.d.e.e.e.e.e.f.g.#.b.a.bQtQtQtQt.#.#QtQtQtQtQtQtQtQtQtQtQtQtQtQtQtQtQt",
"QtQtQtQtQtQtQtQtQtQtQtQtQtQtQtQtQtQt.#QtQt.h.i.j.k.l.m.n.o.p.p.p.p.p.p.q.r.s.m.t.e.e.u.#.a.#.#QtQtQtQtQtQtQtQtQtQtQtQtQtQtQtQtQt",
"QtQtQtQtQtQtQtQtQtQtQtQtQtQtQtQtQtQt.#.b.v.w.x.y.z.A.B.C.D.D.D.D.D.D.D.E.F.G.z.H.I.J.K.v.L.b.#QtQtQtQtQtQtQtQtQtQtQtQtQtQtQtQtQt",
"QtQtQtQtQtQtQtQtQtQtQtQtQtQtQtQtQtQt.b.M.f.f.N.O.P.O.Q.R.S.T.U.V.U.V.W.X.Y.Z.Q.0.Q.Q.1.2.f.uQtQt.b.aQtQtQtQtQtQtQtQtQtQtQtQtQtQt",
"QtQtQtQtQtQtQtQtQtQtQtQtQtQtQtQtQt.a.3.4.5.6.7.8.9#.###a#b#c#d#e#f#g#h#i#j#k#l#m#n#o#p.p#q#r#s.b#t.bQtQtQtQtQtQtQtQtQtQtQtQtQtQt",
"QtQtQtQtQtQtQtQtQtQtQtQtQtQtQtQt.b#u#v#w#x#y#z#A#B#B#B#C#D#E#F#G#H#I#J#K#L#M#N#O#P#Q#R#y#S.1.4#T.b.bQtQtQtQtQtQtQtQtQtQtQtQtQtQt",
"QtQtQtQtQtQtQtQtQtQtQtQtQtQtQt.b.b#U#V#W#X#Y#Z#0#1#2#2#3#4#5#D#6#7#8#9a.a#aaabacadaeafagahaiajakal.bQtQt.aQtQtQtQtQtQtQtQtQtQtQt",
"QtQtQtQtQtQtQtQtQtQtQtQtQt.a.#.#amanaoapaqarasatauavaw#3axay#5#5az#5aAaBaCaDaEaFaG#3aHaIaJaKaL.qaMaN.a.h.bQtQtQtQtQtQtQtQtQtQtQt",
"QtQtQtQtQtQtQtQtQtQtQtQt.a.aaOaPaQaRaSaTaUaVataWaXaYaZa0#Da1aWa2au#5#D#3a3a4a5a6a7a8ata9b.b#babbbcbdbe.aQt.a.#.b.b.aQtQtQtQtQtQt",
"QtQtQtQtQtQtQtQtQtQtQtQt.bbf.mbgaLbhbibjbkblbmbnbobpbqbrbsbtavbubv#5bwbxbybzbAbBbCbDbEbFbGbHbIbJbKbLbMbNbO.b.b.hbP.aQtQtQtQtQtQt",
"QtQtQtQtQtQtQtQtQtQt.b.a.hbQbR.pbSbTbUbVbWbXbYbZb0b1ay#6b2b3b4b5b6aZb7#3#5#5b8b9c.c#cacbcccdcecfcgchcicj.hck.h.bQtQtQtQtQtQtQtQt",
"QtQtQtQtQtQtQtQtQtQt.bbPclcmaScncocpcqbUcrcsctcucvcwcxcyczcAabavaWcB#7#6azbycCcDcEcFcGcHcIcJcKcLcMbbcN.6cOcP.b.#.#QtQtQtQtQtQtQt",
"QtQtQtQtQtQtQtQtQt.acQ.b.4cRcScTcUcVcWcXcYcZc0c1c2c3c4c5c6c7c8c9d.d#dadbdcdddedfdgdhdidjdkdldmdndodpdq.6.mdr.#.bQtQtQtQtQtQtQtQt",
"QtQtQtQtQtQtQtQtQt.ack.b.mdsagdtdudvdwdxdydzdAdBdCdDdEdFdGdHdIdJdKdLdMdNdOdPdQdRdSdTdUdVdWdXdYdZd0d1d2d3d4d5ck.b.#QtQtQtQtQtQtQt",
"QtQtQtQtQtQtQtQtQtd6#Ucjd7d8d9e.e#eaeaebecedeeefegeheiejekelemeneoecepeqereseteuevewexexeyezeAeBeCeDeEeFeGeH.4.b.#.bQtQtQtQtQtQt",
"QtQtQtQtQtQtQtQt.#.hclcj.peIeJeKeLeMeNeOePeQeReSeTeTeUeVeWeXeYeZe0e1e2e3e4e5e6e7e8e9f.f#fafbfcfdfeffccfg#lfhfifjfk.bQtQtQtQtQtQt",
"QtQtQtQtQtQtQt.b.#flfmfnd2fofpfqfrfsftfufvfwfxfyfzfAfBfBfCfDfEfFfGfHfIfJfKfLfMfNeOfOfPfQfRfSfTfUfVfWfXfYfZf0.5f1d6.hQtQtQtQtQtQt",
"QtQtQtQtQtQtQt.b.hf2.5f3f4f5dQf6f7f8f9g.g#gagbgcgdgegfggghgigjfDfDfHgkglgmfLgngoeOgpgqgrdSgsgtgugvcFgwgxgygzgAbdgB.bQtQtQtQtQtQt",
"QtQtQtQtQtQtQt.bbPf2gCgD#mgEgFgGgHgIctgJgKgLgMgNgOgegPgQgRgSgTgUfwgQgVgWgXgYgZg0g1e.dSfWg2g3g4ffg5g6g7g8gyg9.nh.bP.bQtQtQtQtQtQt",
"QtQtQt.#.#Qt.a.h.hh#hahbhchdhehfhghhhihjc9hkhlhmhnhohphqgRgQhrhshtgQhuhvhwhxhyhzhAg2dShBhChDhEhFhGhHhIhJhKhLhM.I.b.b.#QtQt.#.#.#",
"QtQt.#.#.#Qt.bd6hNcmhOhPhQ#DhRhShehThUhVhWhXhYhZh0h1h2h3h3h3h3h4h5h6h7h8h9i.i#iaibg2icidieifigihhGhHiiaD#Dijikil.b.h.bQt.b.#.#.#",
"QtQtQtQtQtQt.aimineGioipiqirisitaWiuiviviviwixhZiyiziAiBiCiDiEiFiGiHiIiJiKgHab#D#3cCiLiMiNiOiPiQg5hHiRiSiTiUiV.r.#.#bP.h.b.#.#.#",
"QtQt.#.#.#.#d6iWineGioiXifiYiZbpi0i1i2a0i3i4i5ixi6i7i8i9j.j#jajbjcjdjdjejfjg#Djh#DjijjjkjliOa5jmg6jnjojpjqjrjsjtju.x.h.b.#.#.#.#",
"QtQtQtQtQtQt.bjvjweGjxjyjzjAjBjCjDjCjEaujFjGjHjIjJjHjKjLjMjNjOcxjPbpavjEjQjRatjSat#DjTjUjVb9jWjXjYjZj0j1j2j3j4j5j6j7.a.#.#QtQtQt",
"QtQtQtQtQtQtQtj8#U.qj9k.k#ejkabnkbkccBkdb4kekfkgkhkikjkkklkmb7jcjPknaWjCkoa0kpkqjSabkrksktkukvkwkxkykzkAkBkCkDkEkFcPQt.#QtQtQtQt",
"QtQtQtQtQt.#.#kG#U.qgykHkIkJkKkLkMirjlb7bpi0aXaYkNkNaWaWkOb4avbpkP#DbpirkQkRababi1i2kScEkTkUgskVcckxkWkXkYkZjxj5kFf2Qt.b.b.#QtQt",
"QtQtQtQtQt.#.#kG#U.qgyk0k1k2k3i#k4k5k6k6k7k8kNaYk9b4aWl.l#lalbl.lalcavldlekRablflglhlij2dQljlklllmlnlolplqlrlsj5lt.cQt.b.b.#QtQt",
"QtQtQtQtQtQtQtlu#U.qgylvlwlxlylzlAlBlClDlElFlGlGlHlbaWaWlIlbb1knlJa0lKlLlMlNlOlPlQlQlRlSlTlUlVezlWlXlYlZl0l1l2.rl3#sQt.b.b.#QtQt",
"QtQtQtQtl4.#Qtl5#U.qiol6l7l8l9m.m#e4mambmcmdmelBmfmgmhmia2a0jRi1i2avmjmkmlmmmni#jpmbmompmqmrmsmtmumvmwmxg3myap.rl3mz.a.b.b.#QtQt",
"QtQtQtQtQtQtQt.bmA.raRmBlQmCmDmEe5mqmFmGmHfLmImamJeDmKmLmMlQmNmOmPmQmRmSmTfAesgWgmmUmVmWmXmYmZm0m1m2fVk#kKm3l2m4.h.h.h.b.bQtQtQt",
"QtQtQtQtQtQt.h.b.hm5m6m7m8m9n.n#eqnanamqnbncndnenfngnhninjnknlnmnnnonpnqnrcJnscJntnunvnwnxnynznAnAnBnCeLnDnE.0nF.b.b.h.h.hQtQtQt",
"QtQtQtQtQtQtQt.h.bnGeGnHnInJj2j2nKnLnMnNnegYmqnOnPnQnQnenOnRe7fAnScJnsnTmEnUnVnWnXnYnZn0n1n2n3n4ffn5n6n7n8g9.6n9.hQtQtQtQtQtQtQt",
"QtQtQtQtQtQtQt.b.h.2o.o#lsoaobockTe.ibodoeofogohogoiogojokolnsomnTnscJnsonntooopoqndorosgtkykyotgvb9ouirovd2ow.f.#.#QtQtQtQtQtQt",
"QtQtQtQtQtQtQt.boxoyoz.yoAoBoCoDoEoFoGeDoHoIoJoJoJoJoJoJoKoLoMoNoOoPoQe7oRoSoToUoVoWoXoYoZkyo0o1o2a6o3o4o5o6o7o8.#.#QtQtQtQtQtQt",
"QtQtQtQtQtQtQt.#.#.bo9j6anp.p#papbpcpdpepfpgphpipjpjpkplpmpnpopppqprpsptpupvpwpxdQpypzpApBpApCpDpEpFpGkD.npHam.b.bQtQtQtQtQtQtQt",
"QtQtQtQtQtQtQt.#.bd6f1pI.qpJpKpLpMpNpOpPpQa.pRi2by#3pSpTeKeKgHpUpVoddgpWeKpWpXpYlQpZp0p1iQp2p2p3guibp4p5anm4p6.#.hQtQtQtQtQtQtQt",
"QtQtQtQtQtQtQtQt.b.b.hbPp7p8p9q.q#qaqbqcbBqd#Dqe#7qfqgqhqiqjqk#Ci2qlqmqnqoqpktqqqrigqsqtquqvqwlQf5l2qxqyp7f2.h.b.#.#QtQtQtQtQtQt",
"QtQtQtQtQtQtQtQtQt.#.b.hqzeGqAqBqCqD#DqEqFqGqHidqIqJqKqLqMqNqOqPqQqRqSqTqUqVqWqqqXqYqZq0q1kxq2q3q4q5q6q7q8q9.b.b.#.#QtQtQtQtQtQt",
"QtQtQtQtQtQtQt.#.#.#.b.hf2r.r#rarbrcrdccrerfrgrhrirjrkrlrmiTrnrorprqrrrsrtrurvrwrxryrzkxrArBrCrDrErFrGr.f2rHcQ.bQtQtQtQtQtQtQtQt",
"QtQtQtQtQtQtQt.#.#.#.#.abP.f.JcmrIrJeLrKrLrMrNrOrPrQrRrSrTrUrVrKrWrXrYrVrZr0rKcIr1rZm2r2r3r4r5r6gyr7r8.4bPQt.b.bQtQtQtQtQtQtQtQt",
"QtQtQtQtQtQtQt.#.#.#QtQt.hr9s.s#sasbscsdsesfdXsgshsisjskslsmsnsospsqsrssstsususvswsxsyszsAsBsCsDsEsFq9sG.h.#.#.#.#QtQtQtQtQtQtQt",
"QtQtQtQtQtQtQtQt.#Qt.#l4.#.#sHsIsJn8sKsLsMsNsOsPsQsRsSsTsUsVcLsWsXsYsZs0s1s2s3s4s5s6s7s8s9t.t#tatbtcbf.h.b.#.#.#QtQtQtQtQtQtQtQt",
"QtQtQtQtQtQtQtQtQtQtQt.a.aQt.b.btdteo6tftgthnOtitjtktltmtntotptqtrtstttutvtwtxtytztAtBtCtDtEtFtG.etH.a.bQtQt.#QtQtQtQtQtQtQtQtQt",
"QtQtQtQtQtQtQtQtQtQtQtQtQtQt.b.b.hjwtItJtKtLtMtNtOtPtQr4tRtStTtUkYtVtWnVnse6tXtYtZt0t1t2t3eHt4t5bP.bQtQtQtQtQtQtQtQtQtQtQtQtQtQt",
"QtQtQtQtQtQtQtQtQtQtQtQtQtQtQtQt.b.b.Mt6t7eGt8t9u.u#uaubucuddWueufuguhuiujukulumunuo.nup.m.tim.b.hQtQtQtQtQtQtQtQtQtQtQtQtQtQtQt",
"QtQtQtQtQtQtQtQtQtQtQtQtQtQtQtQt.#.h.#sHuquro#nHusutuuuvuwuxuyuzuAuBuCuDuEuFuu#zuGgCupuHuI.c.L.bQtQtQtQtQtQtQtQtQtQtQtQtQtQtQtQt",
"QtQtQtQtQtQtQtQtQtQtQtQtQtQtQtQtQt.aQt.h.auJl3uKuL#qds.quMkDjxuNuNuOuPeIpJuQuL.ocmuR.2uS.b.#.#.bQtQtQtQtQtQtQtQtQtQtQtQtQtQtQtQt",
"QtQtQtQtQtQtQtQtQtQtQtQtQtQtQtQtQtQtQt.b.buT.uuUuV.muWo7.6uXuYuYuZu0u1u2.7u3p7p7qzu4uUd6.h.#.#QtQtQtQtQtQtQtQtQtQtQtQtQtQtQtQtQt",
"QtQtQtQtQtQtQtQtQtQtQtQtQtQtQtQtQtQtQtQt.b.b.b.bj7s.tIf2o7u5#w#w#wu6u6h#u7uK.gs.d5Qt.a.b.bQtQtQtQtQtQtQtQtQtQtQtQtQtQtQtQtQtQtQt",
"QtQtQtQtQtQtQtQtQtQtQtQtQtQtQtQtQtQtQtQtQtQtQtQt.bQtQtQt.b.#.f.2.2.d.du8QtQt.a.a.aQtQtQtQtQtQtQtQtQtQtQtQtQtQtQtQtQtQtQtQtQtQtQt",
"QtQtQtQtQtQtQtQtQtQtQtQtQtQtQtQtQtQtQtQtQtQtQt.#.#QtQtQt.#.b.a.b.b.aQtQtQtQtQtQtQtQtQtQtQtQtQtQtQtQtQtQtQtQtQtQtQtQtQtQtQtQtQtQt",
"QtQtQtQtQtQtQtQtQtQtQtQtQtQtQtQtQtQtQtQtQt.#.#QtQtQtQtQtQtQtQtQtQtQtQtQtQtQtQtQtQtQtQtQtQtQtQtQtQtQtQtQtQtQtQtQtQtQtQtQtQtQtQtQt",
"QtQtQtQtQtQtQtQtQtQtQtQtQtQtQtQtQtQt.#.#.#Qt.#.#QtQtQtQtQtQtQtQtQtQtQtQtQtQtQtQtQtQtQtQtQtQtQtQtQtQtQtQtQtQtQtQtQtQtQtQtQtQtQtQt",
"QtQtQtQtQtQtQtQtQtQtQtQtQtQtQtQtQtQt.#.#.#Qt.#.#QtQtQtQtQtQtQtQtQtQtQtQtQtQtQtQtQtQtQtQtQtQtQtQtQtQtQtQtQtQtQtQtQtQtQtQtQtQtQtQt",
"QtQtQtQtQtQtQtQtQtQtQtQtQtQtQtQtQtQtQtQtQtQtQtQtQtQtQtQtQtQtQtQtQtQtQtQtQtQtQtQtQtQtQtQtQtQtQtQtQtQtQtQtQtQtQtQtQtQtQtQtQtQtQtQt",
"QtQtQtQtQtQtQtQtQtQtQtQtQtQtQtQtQtQtQtQtQtQtQtQtQtQtQtQtQtQtQtQtQtQtQtQtQtQtQtQtQtQtQtQtQtQtQtQtQtQtQtQtQtQtQtQtQtQtQtQtQtQtQtQt",
"QtQtQtQtQtQtQtQtQtQtQtQtQtQtQtQtQtQtQtQtQtQtQtQtQtQtQtQtQtQtQtQtQtQtQtQtQtQtQtQtQtQtQtQtQtQtQtQtQtQtQtQtQtQtQtQtQtQtQtQtQtQtQtQt",
"QtQtQtQtQtQtQtQtQtQtQtQtQtQtQtQtQtQtQtQtQtQtQtQtQtQtQtQtQt.#.#.#.#.#.#.#.#.#QtQtQtQtQtQtQtQtQtQtQtQtQtQtQtQtQtQtQtQtQtQtQtQtQtQt"};
