/* XPM */
static char *dummy[]={
"64 64 9 1",
"d c #454a42",
"# c #4b5145",
"b c #525a51",
"f c #5b625e",
"c c #636c6d",
"g c #6c716b",
". c #76776f",
"a c #85837a",
"e c #918e80",
"........####aaaa........####aaaa........####aaaa........####aaaa",
"........####aaaa........####aaaa........####aaaa........####aaaa",
"........####aaaa........####aaaa........####aaaa........####aaaa",
"........####aaaa........####aaaa........####aaaa........####aaaa",
"bbbbccccbbbb....bbbbccccbbbb....bbbbccccbbbb....bbbbccccbbbb....",
"bbbbccccbbbb....bbbbccccbbbb....bbbbccccbbbb....bbbbccccbbbb....",
"bbbbccccbbbb....bbbbccccbbbb....bbbbccccbbbb....bbbbccccbbbb....",
"bbbbccccbbbb....bbbbccccbbbb....bbbbccccbbbb....bbbbccccbbbb....",
"####cccc........####cccc........####cccc........####cccc....cccc",
"####cccc........####cccc........####cccc........####cccc....cccc",
"####cccc........####cccc........####cccc........####cccc....cccc",
"####cccc........####cccc........####cccc........####cccc....cccc",
"############dddddddd############dddd########dddddddd############",
"############dddddddd############dddd########dddddddd############",
"############dddddddd############dddd########dddddddd############",
"############dddddddd############dddd########dddddddd############",
"eeeeaaaaaaaaaaaaaaaaaaaaaaaaaaaa....aaaaaaaa........aaaaaaaaffff",
"eeeeaaaaaaaaaaaaaaaaaaaaaaaaaaaa....aaaaaaaa........aaaaaaaaffff",
"eeeeaaaaaaaaaaaaaaaaaaaaaaaaaaaa....aaaaaaaa........aaaaaaaaffff",
"eeeeaaaaaaaaaaaaaaaaaaaaaaaaaaaa....aaaaaaaa........aaaaaaaaffff",
"aaaaeeeeeeeeaaaaaaaaaaaaaaaa....aaaaaaaa........aaaaaaaaffffbbbb",
"aaaaeeeeeeeeaaaaaaaaaaaaaaaa....aaaaaaaa........aaaaaaaaffffbbbb",
"aaaaeeeeeeeeaaaaaaaaaaaaaaaa....aaaaaaaa........aaaaaaaaffffbbbb",
"aaaaeeeeeeeeaaaaaaaaaaaaaaaa....aaaaaaaa........aaaaaaaaffffbbbb",
"aaaaeeeeccccggggccccccccggggggggggggggggggggccccggggccccbbbbbbbb",
"aaaaeeeeccccggggccccccccggggggggggggggggggggccccggggccccbbbbbbbb",
"aaaaeeeeccccggggccccccccggggggggggggggggggggccccggggccccbbbbbbbb",
"aaaaeeeeccccggggccccccccggggggggggggggggggggccccggggccccbbbbbbbb",
"....aaaaccccccccggggccccccccccccgggg........gggg........bbbb####",
"....aaaaccccccccggggccccccccccccgggg........gggg........bbbb####",
"....aaaaccccccccggggccccccccccccgggg........gggg........bbbb####",
"....aaaaccccccccggggccccccccccccgggg........gggg........bbbb####",
"....aaaaggggccccggggggggccccccccccccccccgggg........aaaa########",
"....aaaaggggccccggggggggccccccccccccccccgggg........aaaa########",
"....aaaaggggccccggggggggccccccccccccccccgggg........aaaa########",
"....aaaaggggccccggggggggccccccccccccccccgggg........aaaa########",
"....ggggbbbbbbbbffffffffffffbbbbbbbbbbbbbbbbffffffffffff########",
"....ggggbbbbbbbbffffffffffffbbbbbbbbbbbbbbbbffffffffffff########",
"....ggggbbbbbbbbffffffffffffbbbbbbbbbbbbbbbbffffffffffff########",
"....ggggbbbbbbbbffffffffffffbbbbbbbbbbbbbbbbffffffffffff########",
"ggggbbbbbbbbffffffffffffbbbbbbbbbbbbbbbbffffffffffffbbbbbbbb####",
"ggggbbbbbbbbffffffffffffbbbbbbbbbbbbbbbbffffffffffffbbbbbbbb####",
"ggggbbbbbbbbffffffffffffbbbbbbbbbbbbbbbbffffffffffffbbbbbbbb####",
"ggggbbbbbbbbffffffffffffbbbbbbbbbbbbbbbbffffffffffffbbbbbbbb####",
"dddd############dddd################dddddddd############dddddddd",
"dddd############dddd################dddddddd############dddddddd",
"dddd############dddd################dddddddd############dddddddd",
"dddd############dddd################dddddddd############dddddddd",
"aaaa........####aaaa........####aaaa........####aaaa........####",
"aaaa........####aaaa........####aaaa........####aaaa........####",
"aaaa........####aaaa........####aaaa........####aaaa........####",
"aaaa........####aaaa........####aaaa........####aaaa........####",
"....bbbbccccbbbb....bbbbccccbbbb....bbbbccccbbbb....bbbbccccbbbb",
"....bbbbccccbbbb....bbbbccccbbbb....bbbbccccbbbb....bbbbccccbbbb",
"....bbbbccccbbbb....bbbbccccbbbb....bbbbccccbbbb....bbbbccccbbbb",
"....bbbbccccbbbb....bbbbccccbbbb....bbbbccccbbbb....bbbbccccbbbb",
"....####cccc........####cccc........####cccc........####cccc....",
"....####cccc........####cccc........####cccc........####cccc....",
"....####cccc........####cccc........####cccc........####cccc....",
"....####cccc........####cccc........####cccc........####cccc....",
"############dddddddd############dddd########dddddddd############",
"############dddddddd############dddd########dddddddd############",
"############dddddddd############dddd########dddddddd############",
"############dddddddd############dddd########dddddddd############"};
