/* XPM */
static char *dummy[]={
"64 64 100 2",
".T c #000000",
"#a c #00006c",
".4 c #0024d8",
"#F c #004000",
".7 c #0048fc",
"#E c #006000",
".V c #006cfc",
".L c #0367fb",
"#f c #040316",
".3 c #0563f9",
".9 c #060526",
"#o c #06067f",
"#i c #060680",
".Y c #0723db",
"#u c #090937",
".K c #095cf8",
".2 c #0a59f7",
"#m c #0b0b43",
"#c c #0c0a44",
".1 c #0f50f4",
".J c #0f51f5",
"#s c #108000",
"#D c #2027dd",
"#A c #2126df",
"#C c #2127de",
"#y c #2225df",
"#t c #2325e0",
"#p c #2424e1",
"#l c #2424e2",
"#j c #2523e3",
"#e c #2622e4",
".8 c #2721e5",
"#b c #2722e4",
"#H c #280108",
".5 c #2821e6",
".Z c #2920e7",
"#r c #293ec6",
".P c #2a1fe8",
".B c #2a1fe9",
"#g c #2a3dc8",
".A c #2b1ee9",
"#d c #2b3dc8",
"#q c #2b4bb9",
".w c #2c1eea",
".6 c #2c3cca",
"#k c #2c4aba",
".s c #2d1deb",
".r c #2e1cec",
".q c #2e1ced",
".H c #2e3acd",
".p c #2f1bee",
".0 c #2f48bd",
".o c #301bef",
".t c #3038ce",
".G c #3047bf",
".m c #3119f0",
".n c #311aef",
".l c #3219f1",
".k c #3318f2",
".i c #3417f4",
".j c #3418f3",
".h c #3516f4",
".g c #3616f5",
".f c #3715f6",
".e c #3715f7",
".d c #3814f8",
".c c #3913f9",
".a c #3a12fa",
".b c #3a13f9",
".# c #3b12fb",
"Qt c #3c11fc",
".F c #3e0a4e",
"#x c #40a000",
".W c #40c040",
".Q c #410839",
"#h c #42429e",
"## c #430526",
".C c #480000",
".U c #484890",
".O c #5451de",
".N c #5e5cdc",
"#w c #60c800",
".M c #6767d9",
"#G c #682001",
".X c #6c6cd8",
".E c #7f0526",
"#z c #80e000",
".D c #900000",
".R c #9090d8",
"#n c #9090f6",
"#B c #9c9df7",
".u c #a55479",
".S c #b4b4fc",
".x c #bc5f63",
".v c #c76458",
".I c #d86c48",
"#. c #fc0000",
".y c #fcb490",
"#v c #fcfc00",
".z c #fcfcfc",
"QtQtQtQtQtQtQtQtQtQtQtQtQtQtQtQtQtQtQtQtQtQtQtQtQtQtQtQtQtQtQtQtQtQtQtQtQtQtQtQtQtQtQtQtQtQtQtQtQtQtQtQtQtQtQtQtQtQtQtQtQtQtQtQt",
".#.#.#.#.#.#.#.#.#.#.#.#.#.#.#.#.#.#.#.#.#.#.#.#.#.#.#.#.#.#.#.#.#.#.#.#.#.#.#.#.#.#.#.#.#.#.#.#.#.#.#.#.#.#.#.#.#.#.#.#.#.#.#.#",
".a.a.a.a.a.a.a.a.a.a.a.a.a.a.a.a.a.a.a.a.a.a.a.a.a.a.a.a.a.a.a.a.a.a.a.a.a.a.a.a.a.a.a.a.a.a.a.a.a.a.a.a.a.a.a.a.a.a.a.a.a.a.a.a",
".b.b.b.b.b.b.b.b.b.b.b.b.b.b.b.b.b.b.b.b.b.b.b.b.b.b.b.b.b.b.b.b.b.b.b.b.b.b.b.b.b.b.b.b.b.b.b.b.b.b.b.b.b.b.b.b.b.b.b.b.b.b.b.b",
".c.c.c.c.c.c.c.c.c.c.c.c.c.c.c.c.c.c.c.c.c.c.c.c.c.c.c.c.c.c.c.c.c.c.c.c.c.c.c.c.c.c.c.c.c.c.c.c.c.c.c.c.c.c.c.c.c.c.c.c.c.c.c.c",
".d.d.d.d.d.d.d.d.d.d.d.d.d.d.d.d.d.d.d.d.d.d.d.d.d.d.d.d.d.d.d.d.d.d.d.d.d.d.d.d.d.d.d.d.d.d.d.d.d.d.d.d.d.d.d.d.d.d.d.d.d.d.d.d",
".e.e.e.e.e.e.e.e.e.e.e.e.e.e.e.e.e.e.e.e.e.e.e.e.e.e.e.e.e.e.e.e.e.e.e.e.e.e.e.e.e.e.e.e.e.e.e.e.e.e.e.e.e.e.e.e.e.e.e.e.e.e.e.e",
".f.f.f.f.f.f.f.f.f.f.f.f.f.f.f.f.f.f.f.f.f.f.f.f.f.f.f.f.f.f.f.f.f.f.f.f.f.f.f.f.f.f.f.f.f.f.f.f.f.f.f.f.f.f.f.f.f.f.f.f.f.f.f.f",
".g.g.g.g.g.g.g.g.g.g.g.g.g.g.g.g.g.g.g.g.g.g.g.g.g.g.g.g.g.g.g.g.g.g.g.g.g.g.g.g.g.g.g.g.g.g.g.g.g.g.g.g.g.g.g.g.g.g.g.g.g.g.g.g",
".h.h.h.h.h.h.h.h.h.h.h.h.h.h.h.h.h.h.h.h.h.h.h.h.h.h.h.h.h.h.h.h.h.h.h.h.h.h.h.h.h.h.h.h.h.h.h.h.h.h.h.h.h.h.h.h.h.h.h.h.h.h.h.h",
".i.i.i.i.i.i.i.i.i.i.i.i.i.i.i.i.i.i.i.i.i.i.i.i.i.i.i.i.i.i.i.i.i.i.i.i.i.i.i.i.i.i.i.i.i.i.i.i.i.i.i.i.i.i.i.i.i.i.i.i.i.i.i.i",
".j.j.j.j.j.j.j.j.j.j.j.j.j.j.j.j.j.j.j.j.j.j.j.j.j.j.j.j.j.j.j.j.j.j.j.j.j.j.j.j.j.j.j.j.j.j.j.j.j.j.j.j.j.j.j.j.j.j.j.j.j.j.j.j",
".k.k.k.k.k.k.k.k.k.k.k.k.k.k.k.k.k.k.k.k.k.k.k.k.k.k.k.k.k.k.k.k.k.k.k.k.k.k.k.k.k.k.k.k.k.k.k.k.k.k.k.k.k.k.k.k.k.k.k.k.k.k.k.k",
".l.l.l.l.l.l.l.l.l.l.l.l.l.l.l.l.l.l.l.l.l.l.l.l.l.l.l.l.l.l.l.l.l.l.l.l.l.l.l.l.l.l.l.l.l.l.l.l.l.l.l.l.l.l.l.l.l.l.l.l.l.l.l.l",
".m.m.m.m.m.m.m.m.m.m.m.m.m.m.m.m.m.m.m.m.m.m.m.m.m.m.m.m.m.m.m.m.m.m.m.m.m.m.m.m.m.m.m.m.m.m.m.m.m.m.m.m.m.m.m.m.m.m.m.m.m.m.m.m",
".n.n.n.n.n.n.n.n.n.n.n.n.n.n.n.n.n.n.n.n.n.n.n.n.n.n.n.n.n.n.n.n.n.n.n.n.n.n.n.n.n.n.n.n.n.n.n.n.n.n.n.n.n.n.n.n.n.n.n.n.n.n.n.n",
".o.o.o.o.o.o.o.o.o.o.o.o.o.o.o.o.o.o.o.o.o.o.o.o.o.o.o.o.o.o.o.o.o.o.o.o.o.o.o.o.o.o.o.o.o.o.o.o.o.o.o.o.o.o.o.o.o.o.o.o.o.o.o.o",
".p.p.p.p.p.p.p.p.p.p.p.p.p.p.p.p.p.p.p.p.p.p.p.p.p.p.p.p.p.p.p.p.p.p.p.p.p.p.p.p.p.p.p.p.p.p.p.p.p.p.p.p.p.p.p.p.p.p.p.p.p.p.p.p",
".q.q.q.q.q.q.q.q.q.q.q.q.q.q.q.q.q.q.q.q.q.q.q.q.q.q.q.q.q.q.q.q.q.q.q.q.q.q.q.q.q.q.q.q.q.q.q.q.q.q.q.q.q.q.q.q.q.q.q.q.q.q.q.q",
".r.r.r.r.r.r.r.r.r.r.r.r.r.r.r.r.r.r.r.r.r.r.r.r.r.r.r.r.r.r.r.r.r.r.r.r.r.r.r.r.r.r.r.r.r.r.r.r.r.r.r.r.r.r.r.r.r.r.r.r.r.r.r.r",
".s.s.s.s.s.s.s.s.s.s.s.s.s.s.s.s.s.s.s.s.s.s.s.s.s.s.s.s.s.s.s.s.s.s.t.u.v.v.u.t.s.s.s.s.s.s.s.s.s.s.s.s.s.s.s.s.s.s.s.s.s.s.s.s",
".w.w.w.w.w.w.w.w.w.w.w.w.w.w.w.w.w.w.w.w.w.w.w.w.w.w.w.w.w.w.w.w.w.x.y.z.z.y.y.y.x.w.w.w.w.w.w.w.w.w.w.w.w.w.w.w.w.w.w.w.w.w.w.w",
".A.A.A.A.A.A.A.A.A.A.A.A.A.A.A.A.A.A.A.A.A.A.A.A.A.A.A.A.A.A.A.A.x.y.y.z.z.y.y.y.y.x.A.A.A.A.A.A.A.A.A.A.A.A.A.A.A.A.A.A.A.A.A.A",
".B.B.B.B.B.B.B.B.B.B.B.B.B.B.B.B.B.B.B.B.B.B.C.C.D.E.F.G.B.B.B.H.y.I.I.I.y.y.I.I.I.y.H.B.B.B.G.J.K.L.M.N.O.H.B.B.B.B.B.B.B.B.B.B",
".P.P.P.P.P.P.P.P.P.P.P.P.P.P.P.P.P.P.P.P.P.P.P.C.C.C.D.D.C.Q.P.I.I.R.S.T.I.I.R.S.T.I.I.P.Q.S.S.R.U.U.V.W.V.X.Y.P.P.P.P.P.P.P.P.P",
".Z.Z.Z.Z.Z.Z.Z.Z.Z.Z.Z.Z.Z.Z.Z.0.1.2.3.V.V.V.V.V.C.C.C.D.D.D.D.C.I.U.T.T.U.R.U.T.T.I.C.D.S.S.D.C.C.C.U.U.W.V.W.4.Z.Z.Z.Z.Z.Z.Z.Z",
".5.5.5.5.5.5.5.5.5.5.5.5.6.2.V.V.V.V.V.7.7.4.4.D.D.D.D.D.D.D.D.D.C.U.T.T.I.I.U.T.T.C.D.S.S.z.V.D.D.D.D.W.U.W.V.W.4.5.5.5.5.5.5.5",
".8.8.8.8.8.8.8.8.8.8.8.9.V.7.7.V.V.V.V.4.4.4.C.C.C.C.C.D.D.D.D.D.D.C.C.D.y#..D.C.C.D.S.S.z.z.z.V.C.C.C##.8.U.W.V.W#a.8.8.8.8.8.8",
"#b#b#b#b#b#b#b#b#b#b#c.7.4.4.4.7.V.V.7.4.4.4.4.4.C.C.D.D.D.C.C.C.C.C.C.D#.#..D.C.C.S.S.V.z.z.z.z.V.C#b#b#b#d.U.W.V.W#a#b#b#b#b#b",
"#e#e#e#e#e#e#e#e#e#e#f.7.4.4#a.4.7.7.4.4.4.4.4.C.C.D.D.C.C.C.C.C.I.U.S.U.S.S.U.S.S.S.z.C.V.z.z.z.V.C#g#e#e#e#h.V.W.V.W#i#e#e#e#e",
"#j#j#j#j#j#j#j#j#j#j#f.4.4#a.4#a.4.7.4.4.4.4.C.C.D.C.C.C.C#.#.#..D.I.S.R.z.z.R.S.S.V.z.z.I.V.z.z.z.V.C#k#j#j#g.U.V.W.V#a#g#j#j#j",
"#l#l#l#l#l#l#l#l#l#l#m.4.4#a#a#a.4.7.4.4.4.C.D.C.C.C#.#.#.#.#.#.#..D.I.y.y.y.y.S.S.R.V.z.z.I.V.z.z.z.V.S.S#n#l.U.W.V.W.V#o#l#l#l",
"#p#p#p#p#p#p#p#p#p#p#q.T.4#a#a#a#a.4.7.4.4.C.D.D#.#.#.#.#.#..D#.#.#..D.D.D.D.D.S.S.z.R.V.z.S.V.z.z.z.V.z.z.z.S.S.U.W.V.W#a#r#p#p",
"#p#p#p#p#p#p#p#p#p#p#p.T.4.4#a#a#a.4.7.4.C.D.D.D#.#.#.#.#..D#.#.#.#.#..D.I.I.S.S.z.R#..V.z.z.U.V#s.z.z.V.S.z.z.z.S.V.W.V.W#o#p#p",
"#t#t#t#t#t#t#t#t#t#t#t#u.4.4#a#a#a#a.4.7.C.D.D#.#.#.#.#..D.D.D#.#.#.#..D.D#v.S.S.R#..U.U.V#w.U#s#x.z.z#s.U.U.U#s.U.U.V.W.V#w#t#s",
"#s#y#y#y#y#y#y#y#y#y#y#y.S.R.R.R.R.R.R.R.R.R.R#s.R.R.S.R.S.S.S.S.S.S.S.S.S.z.S#s.z.z.z.z.z#z.z#x#x.z#w#x.z.z.z#x.S.z#s.S.S#z#a#x",
"#x#A#A#s#A#A#A#A#A#A#A#B.U.U.U.U.U.U.U.U#s.U.U#x#s.U#w.R.R.R.R.R.R.R.R.R#s.R.R#x#s.S#w.S#s#z#s#x#x#s#z#x#s.S#s#x.R#s#x.R#s#z#s#x",
"#x#C#w#x#C#w#C#s#s#C#C#s#s.U.U#s#s.U#w.U#x#w.U#x#x.U#z.R#s.R.R#s#s.R#w.R#x#w.S#x#x.S#z.S#x#z#x#x#x#x#z#z#x#w#x#x#s#x#z#w#x#z#x#x",
"#x#s#z#x#D#z#D#x#x#D#w#x#x#w#D#x#x#D#z#D#x#z#s#x#x#s#z#s#x#w#D#x#x#D#z#D#x#z#s#x#x#s#z#s#x#z#x#x#x#x#z#z#x#z#x#x#x#x#z#z#x#z#x#x",
"#x#x#z#z#s#z#s#x#x#s#z#x#x#z#s#x#x#s#z#s#z#z#x#x#x#x#z#x#x#z#s#x#x#s#z#s#z#z#x#x#x#x#z#x#x#z#x#x#x#x#z#z#x#z#x#x#x#x#z#z#x#z#x#x",
"#x#x#z#z#x#z#x#x#x#x#z#z#z#z#x#x#x#x#z#x#z#z#x#x#x#x#z#x#z#z#x#x#x#x#z#x#z#z#x#x#x#x#z#x#z#z#x#x#x#x#z#z#x#z#x#x#x#x#z#z#z#z#x#x",
"#x#x#z#z#x#z#x#x#x#x#z#z#z#z#x#x#x#x#z#x#z#z#x#x#x#x#z#x#z#z#x#x#x#x#z#x#z#z#x#x#x#x#z#x#z#w#x#x#x#x#z#z#z#z#x#x#x#x#w#z#z#w#x#x",
"#x#x#z#z#x#z#x#x#x#x#z#z#z#z#x#x#x#x#z#x#z#z#x#x#x#x#z#z#z#z#x#x#x#x#z#x#z#z#x#x#x#x#z#z#z#w#x#x#x#x#w#z#z#z#x#s#x#x#w#z#z#w#x#x",
"#x#x#z#z#z#z#x#x#x#x#z#z#z#z#x#x#x#x#z#z#z#z#x#x#x#x#w#z#z#z#x#x#x#x#z#z#z#z#x#x#x#x#w#z#z#x#s#x#x#x#w#z#z#w#x#s#x#x#x#w#z#x#s#x",
"#x#x#w#z#z#w#x#x#x#x#w#w#w#w#x#x#x#x#w#z#z#w#x#x#x#x#w#z#w#w#x#x#x#x#w#z#z#w#x#x#x#x#w#z#w#x#s#x#s#x#x#w#z#w#x#E#s#x#x#w#w#x#s#x",
"#x#x#w#w#z#w#x#x#x#x#w#w#w#w#x#x#x#x#w#z#w#w#x#x#x#s#x#w#w#w#x#x#x#x#w#z#w#w#x#x#x#s#x#w#w#x#E#x#s#x#x#w#w#x#s#E#s#x#x#x#w#x#E#x",
"#s#x#x#w#w#x#s#s#s#x#x#x#x#x#x#s#s#s#x#w#w#x#x#s#x#s#x#w#x#x#x#s#s#s#x#w#w#x#x#s#x#s#x#w#x#x#E#s#E#x#x#x#w#x#s#E#E#x#x#x#x#x#E#s",
"#s#x#x#x#w#x#s#s#s#x#x#x#x#x#x#s#s#s#x#w#x#x#x#s#s#E#x#x#x#x#x#s#s#s#x#w#x#x#x#s#s#E#x#x#x#x#E#s#E#s#x#x#x#x#E#E#E#s#x#x#x#x#E#s",
"#E#s#x#x#x#x#E#E#E#s#x#x#x#x#s#E#E#E#x#x#x#x#s#E#s#E#x#x#x#x#s#E#E#E#x#x#x#x#s#E#s#E#x#x#x#x#E#E#E#s#x#x#x#x#E#E#E#s#x#x#x#x#E#E",
"#E#s#x#x#x#x#E#E#E#s#x#x#x#x#s#E#E#E#x#x#x#x#s#E#E#E#x#x#x#x#s#E#E#E#x#x#x#x#s#E#E#E#x#x#x#x#E#E#E#E#x#x#x#x#E#E#E#E#x#x#x#x#E#E",
"#E#E#x#x#x#x#E#E#E#E#x#x#x#x#E#E#E#E#x#x#x#x#E#E#E#E#x#x#x#x#E#E#E#E#x#x#x#x#E#E#E#E#x#x#x#x#E#E#E#E#x#x#x#x#E#E#E#E#x#x#x#x#E#E",
"#E#E#x#x#x#x#E#E#E#E#x#x#x#x#E#E#E#E#x#x#x#x#E#E#E#E#x#x#x#x#E#E#E#E#x#x#x#x#E#E#E#E#x#x#x#x#E#F#E#E#x#x#x#x#E#E#E#F#x#s#x#x#E#F",
"#E#E#x#x#x#x#E#E#E#F#x#s#s#x#F#E#E#E#x#x#x#x#E#E#F#E#x#x#s#x#F#E#E#E#x#x#x#x#E#E#F#E#x#x#x#x#E#G#F#E#x#s#x#s#E#E#E#G#x#G#x#x#E#G",
"#F#E#x#s#x#x#E#E#E#G#x#G#G#x#G#E#E#E#x#x#s#x#E#F#G#E#x#x#G#x#G#E#E#E#x#x#s#x#E#F#G#E#x#x#s#x#E#G#H#E#s#H#x#H#E#E#F#G#s#G#s#x#E#G",
"#H#F#s#H#s#s#F#F#F#G#s#G#G#s#G#F#F#F#s#s#H#s#F#H#G#F#s#s#G#s#G#F#F#F#s#s#H#s#F#H#G#F#s#s#G#s#F#G#H#F#H#H#s#H#F#F#G#G#G#G#G#s#F#G",
"#H#H#H#H#H#H#H#H#G#G#G#G#G#G#G#G#H#H#H#H#H#H#H#H#G#G#G#G#G#G#G#G#H#H#H#H#H#H#H#H#G#G#G#G#G#G#G#G#H#H#H#H#H#H#H#H#G#G#G#G#G#G#G#G",
"#H#H#H#H#H#H#H#H#G#G#G#G#G#G#G#G#H#H#H#H#H#H#H#H#G#G#G#G#G#G#G#G#H#H#H#H#H#H#H#H#G#G#G#G#G#G#G#G#H#H#H#H#H#H#H#H#G#G#G#G#G#G#G#G",
"#H#H#H#H#H#H#H#H#G#G#G#G#G#G#G#G#H#H#H#H#H#H#H#H#G#G#G#G#G#G#G#G#H#H#H#H#H#H#H#H#G#G#G#G#G#G#G#G#H#H#H#H#H#H#H#H#G#G#G#G#G#G#G#G",
"#G#G#G#G#G#G#G#G#H#H#H#H#H#H#H#H#G#G#G#G#G#G#G#G#H#H#H#H#H#H#H#H#G#G#G#G#G#G#G#G#H#H#H#H#H#H#H#H#G#G#G#G#G#G#G#G#H#H#H#H#H#H#H#H",
"#G#G#G#G#G#G#G#G#H#H#H#H#H#H#H#H#G#G#G#G#G#G#G#G#H#H#H#H#H#H#H#H#G#G#G#G#G#G#G#G#H#H#H#H#H#H#H#H#G#G#G#G#G#G#G#G#H#H#H#H#H#H#H#H",
"#G#G#G#G#G#G#G#G#H#H#H#H#H#H#H#H#G#G#G#G#G#G#G#G#H#H#H#H#H#H#H#H#G#G#G#G#G#G#G#G#H#H#H#H#H#H#H#H#G#G#G#G#G#G#G#G#H#H#H#H#H#H#H#H",
"#G#G#G#G#G#G#G#G#H#H#H#H#H#H#H#H#G#G#G#G#G#G#G#G#H#H#H#H#H#H#H#H#G#G#G#G#G#G#G#G#H#H#H#H#H#H#H#H#G#G#G#G#G#G#G#G#H#H#H#H#H#H#H#H",
"#G#G#G#G#G#G#G#G#H#H#H#H#H#H#H#H#G#G#G#G#G#G#G#G#H#H#H#H#H#H#H#H#G#G#G#G#G#G#G#G#H#H#H#H#H#H#H#H#G#G#G#G#G#G#G#G#H#H#H#H#H#H#H#H",
"#G#G#G#G#G#G#G#G#H#H#H#H#H#H#H#H#G#G#G#G#G#G#G#G#H#H#H#H#H#H#H#H#G#G#G#G#G#G#G#G#H#H#H#H#H#H#H#H#G#G#G#G#G#G#G#G#H#H#H#H#H#H#H#H"};
