/* XPM */
static char *dummy[]={
"64 64 1661 2",
"vr c #000d2e",
"#T c #00112a",
"cQ c #00112c",
"lf c #00132b",
"by c #00132c",
"ap c #00132d",
"ht c #00142a",
".b c #00142b",
".2 c #00142c",
"ux c #00142d",
"h8 c #00152a",
".z c #00152b",
".a c #00152c",
".K c #00152d",
"sm c #00152e",
"#k c #00162a",
".k c #00162b",
".# c #00162c",
".j c #00162d",
"uw c #00162e",
"vs c #00162f",
"eb c #00172b",
".c c #00172c",
"Qt c #00172d",
".J c #051c2d",
".y c #061d2d",
"fv c #081d2d",
"x4 c #081d31",
"x6 c #081e31",
"#j c #0c212d",
".1 c #0f232e",
"xH c #11232d",
"ts c #15262e",
"g# c #15272e",
"cR c #15272f",
"ao c #16262e",
"sl c #16272c",
"eQ c #16272f",
"vu c #17282f",
"xu c #17292e",
"#S c #17292f",
"xI c #18292e",
"vt c #18292f",
"xV c #182a2d",
"dw c #182a2f",
"xJ c #19292e",
"re c #19292f",
"j2 c #192a2e",
"cS c #192a2f",
"c. c #1a2a2e",
"bx c #1a2a2f",
"w. c #1a2b2e",
".d c #1a2b2f",
"nX c #1a2b30",
"tt c #1a2c2c",
"ec c #1a2c2e",
".l c #1a2c2f",
"dv c #1a2c30",
"x5 c #1a2d2e",
"ww c #1a2d2f",
"aX c #1a2d30",
"t0 c #1b2d2f",
"wv c #1b2d30",
".o c #1b2e2f",
".x c #1c2e31",
"xt c #1c2f2e",
".n c #1c2f2f",
".m c #1c2f30",
"wZ c #1c2f31",
"#U c #1c302d",
"bw c #1d2d30",
".w c #1d2f30",
".v c #1d2f31",
"#l c #1d302e",
"tr c #1d302f",
"xs c #1d3030",
"iT c #1d312d",
"bz c #1d312e",
".D c #1d312f",
"ea c #1e2f31",
"u2 c #1e302d",
"b9 c #1e302f",
"#R c #1e3031",
"iS c #1e312d",
"u1 c #1e312e",
"gP c #1e312f",
"dx c #1e3130",
"wu c #1e3131",
".3 c #1e322e",
"u0 c #1e322f",
".A c #1e3230",
"eP c #1f302f",
"lX c #1f3030",
"x2 c #1f312d",
"e# c #1f312e",
"h9 c #1f312f",
"tZ c #1f3130",
"hu c #1f3131",
"sV c #1f322d",
".5 c #1f322e",
"xv c #1f322f",
"ca c #1f3230",
"#i c #1f332d",
".4 c #1f332e",
".B c #1f332f",
".C c #1f3330",
"x1 c #1f3630",
"eO c #20312f",
"xK c #203130",
"sn c #20322e",
"aW c #20322f",
"uy c #203231",
"x3 c #20332d",
"rR c #20332e",
"fw c #20332f",
"c# c #203330",
"js c #203331",
"x0 c #20342f",
"oS c #21322e",
"tY c #21322f",
"mE c #213230",
"tu c #21332c",
"t1 c #21332e",
"nj c #21332f",
"h7 c #213330",
"rd c #213331",
".L c #21342e",
".M c #21342f",
".e c #213430",
"w0 c #22322f",
"ql c #223330",
"ph c #223331",
"kH c #22342f",
".h c #223430",
".0 c #22352e",
".f c #223530",
".i c #223531",
"nY c #22362e",
"cP c #223631",
".g c #233531",
"#h c #23362e",
"lY c #23372f",
"lg c #233730",
"xZ c #243531",
"xU c #243630",
".u c #243731",
"oT c #24382d",
"rQ c #24392f",
"eR c #25382f",
"xw c #253831",
".Z c #25392e",
"gO c #263a2f",
"pM c #273b30",
"wY c #283b32",
"eS c #283d30",
".I c #283d32",
"rc c #293e30",
"xG c #2a3d31",
"wt c #2a3d32",
"fu c #2a3e30",
"pN c #2a3e31",
"#V c #2a3f30",
"cU c #2a3f31",
"fx c #2a402f",
"aV c #2b3d31",
"jr c #2b3d32",
"xS c #2b3e30",
"tq c #2b3e31",
"qk c #2b3e33",
"qL c #2b3f30",
".p c #2b3f31",
"xT c #2b4030",
"gQ c #2b4032",
"iR c #2c3d32",
"h6 c #2c3f31",
"cT c #2c4032",
"vv c #2c4132",
"xa c #2c4231",
"du c #2c4232",
"xM c #2d3f32",
"cO c #2d4031",
"so c #2d4032",
"xL c #2d4132",
"rS c #2d422f",
"rP c #2d4230",
"xr c #2d4231",
"#W c #2d432d",
"bA c #2d4331",
"tp c #2e4132",
"sU c #2e4230",
"xW c #2e4231",
".q c #2e4232",
"an c #2e4233",
"vq c #2e4331",
"#m c #2e4332",
"aY c #2e4431",
"jt c #2e4432",
"j3 c #2e4433",
"f9 c #2e4830",
".r c #2f4231",
"bv c #2f4232",
"#Q c #2f4233",
".t c #2f4331",
".s c #2f4332",
"sk c #2f442f",
".6 c #2f4430",
"aU c #2f4431",
"lZ c #2f4432",
"kI c #2f4433",
"g. c #2f452f",
"rf c #2f4530",
"j4 c #2f4532",
"ju c #2f4533",
"gR c #2f4534",
"#g c #2f4630",
"tv c #2f4631",
"bB c #2f4633",
"cb c #2f4730",
"mF c #304331",
"pi c #304531",
".E c #304532",
"xx c #304534",
"aq c #30462f",
"qM c #304630",
".7 c #304631",
".H c #304632",
"dy c #304633",
"qm c #304730",
"#f c #304731",
"sj c #304732",
"ed c #304733",
"nk c #314331",
"w# c #314532",
"rb c #31462f",
"ee c #314630",
"tX c #314634",
"xX c #31472f",
"xy c #314730",
".F c #314731",
".G c #314732",
"le c #314830",
"hv c #314832",
"xF c #324531",
"sT c #324533",
"qK c #32472f",
".N c #324730",
"ni c #324731",
"xq c #324732",
"lW c #324733",
"u3 c #324734",
".P c #324830",
"j1 c #324831",
"pL c #324832",
"i. c #324833",
"rT c #33462f",
"pg c #334734",
"iQ c #334830",
".Y c #334831",
".X c #334832",
"cN c #334833",
"b8 c #344632",
"h5 c #34472e",
"uv c #344730",
".O c #344931",
"xY c #364a33",
"qj c #374d32",
"w1 c #375133",
"xb c #3b5333",
"#e c #3b5531",
"#P c #3c5034",
"am c #3c5234",
"dt c #3d5435",
"xN c #3e5433",
"bu c #3e5632",
"x# c #3f5934",
"qi c #405631",
"rg c #405632",
".W c #405732",
"mD c #405733",
"b7 c #405734",
"eU c #415635",
"lV c #415833",
"pK c #415934",
"ft c #415a34",
"ds c #415a35",
"hw c #415b36",
"eT c #425933",
"oR c #425934",
"j0 c #425a33",
"kG c #425a34",
"pO c #425b33",
"#Z c #426131",
"oo c #435833",
"nW c #435934",
"iU c #435936",
"wx c #435a32",
"vw c #445b35",
"xz c #445c32",
"uZ c #445c34",
"xR c #445d35",
"ar c #455b31",
"i# c #455b37",
"cV c #455c33",
"v9 c #455c34",
"wa c #455d32",
"rN c #455e35",
"xO c #465c34",
"rh c #465d32",
"vx c #465d34",
"gN c #466033",
"hr c #466136",
"gM c #466235",
"al c #466432",
"jp c #466433",
"xQ c #475b34",
"xP c #475c34",
"wX c #475d33",
"sX c #475e36",
"bt c #475f32",
"rO c #475f35",
"hs c #476134",
"gT c #476236",
"r# c #476433",
"#Y c #476532",
"vS c #485c35",
"sW c #485d34",
"h4 c #486331",
"x. c #486435",
"#p c #486533",
"hp c #49390b",
"jl c #493a0c",
"aZ c #495e33",
"qN c #495f34",
"wy c #496033",
"wz c #496134",
"jq c #496234",
"to c #496437",
"dz c #496534",
"w2 c #496735",
"e. c #4a5f34",
"eN c #4a6034",
"aT c #4a6131",
"wV c #4a6236",
"fz c #4a6335",
"gb c #4a6336",
"wb c #4a6431",
"ws c #4a6435",
"ra c #4a6437",
"ef c #4a6533",
"cc c #4a6535",
"iO c #4a6633",
"#d c #4a6634",
"w3 c #4a6635",
"uY c #4a6636",
"xE c #4a6736",
"iK c #4b3b0c",
"pJ c #4b6533",
"qJ c #4b6538",
"sp c #4b6632",
"#o c #4b6633",
".8 c #4b6733",
"fy c #4b6734",
"cd c #4b6736",
"tw c #4b6833",
"tV c #4b6835",
"wW c #4c6134",
"d9 c #4c6434",
"iP c #4c6435",
"pf c #4c6532",
"xD c #4c6533",
"f8 c #4c6534",
".9 c #4c6632",
"#. c #4c6633",
"mC c #4c6634",
"xc c #4c6733",
"#a c #4c6735",
"nh c #4c6833",
"ga c #4c6834",
"w9 c #4c6837",
"#X c #4c6838",
"ld c #4c6936",
"uG c #4d3c0d",
"uz c #4d5f33",
"qn c #4d6234",
"#O c #4d6533",
"iV c #4d6633",
"v8 c #4d6636",
"xd c #4d6733",
"xC c #4d6734",
"l0 c #4d6833",
"## c #4d6836",
"as c #4d6a37",
"vC c #4e3d0d",
"v# c #4e3d0f",
"h1 c #4e3e0d",
"pG c #4e3e0f",
"tW c #4e6034",
"u4 c #4e6235",
"#n c #4e6435",
"gS c #4e6533",
"t2 c #4e6633",
"xe c #4e6634",
"xp c #4e6635",
"xB c #4e6834",
"eM c #4e6835",
"#b c #4e6836",
"ak c #4e6935",
"wl c #4f3c0e",
"b6 c #4f6535",
"u5 c #4f6634",
"xo c #4f6735",
"nV c #4f6832",
"on c #4f6833",
"sS c #4f6834",
"lh c #4f6835",
"xA c #4f6836",
"oU c #4f6935",
"mG c #4f6936",
"#c c #4f6937",
"nl c #4f6a36",
"#N c #506733",
"vT c #506735",
".V c #506834",
"pj c #506835",
"hx c #506836",
"si c #506936",
"qo c #506937",
"jk c #513f0e",
"jj c #51400e",
"q7 c #514010",
"ky c #51410f",
".R c #516934",
"qG c #524110",
"vp c #526635",
".T c #526835",
"ia c #526836",
".S c #526934",
".U c #526935",
".Q c #526a33",
"cM c #536933",
"rU c #536938",
"jv c #546d36",
"j5 c #556b36",
"kJ c #556c38",
"v1 c #574516",
"qQ c #5a4a13",
"gJ c #5a4b1a",
"nc c #5b4516",
"hz c #5b4712",
"rk c #5b4913",
"nR c #5b4916",
"lO c #5b4b16",
"sh c #5b531d",
"rV c #5c4a14",
"iJ c #5c4a16",
"vi c #5c4b16",
"v4 c #5c4d15",
"hh c #5c4f15",
"q8 c #5d4813",
"wL c #5d4a18",
"uR c #5d4b16",
"hX c #5d5017",
"v2 c #5e4a16",
"pF c #5e4d17",
"vj c #5e4d19",
"v5 c #5e4e15",
"hq c #5e4e17",
"xh c #5e5016",
"li c #5e561d",
"wA c #5e6325",
"qc c #5f4a16",
"sg c #5f4d18",
"cE c #5f4e16",
"hy c #5f4f17",
"pH c #604b16",
"nS c #604d17",
"tQ c #604e16",
"u. c #604f17",
"lj c #605018",
"dY c #614e15",
"rK c #615017",
"uF c #615019",
"nd c #624b17",
"jP c #625117",
"wc c #626523",
"l# c #635018",
"jQ c #635117",
"jO c #635317",
"aR c #635319",
"iI c #645119",
"uS c #64511c",
"vM c #645319",
"vI c #655019",
"kz c #655219",
"hf c #655a19",
"vJ c #665318",
"hg c #665718",
"qb c #675319",
"ic c #675619",
"gK c #675b22",
"#M c #677636",
"gB c #685418",
"hW c #685519",
"bL c #685617",
"td c #685619",
"vW c #68581c",
"wK c #695318",
"mw c #695319",
"rJ c #69541c",
"bp c #695719",
"wk c #6a5319",
"vg c #6a5419",
"uf c #6a5619",
"jT c #6a561a",
"aQ c #6a561e",
"ne c #6a581a",
"ib c #6a5a1a",
"wB c #6a6220",
"aj c #6a7939",
"s9 c #6b541a",
"uL c #6b5519",
"mx c #6b5619",
"tJ c #6b561b",
"ta c #6b571b",
"iX c #6b5a1a",
"jy c #6b5b19",
"rL c #6b601f",
"un c #6c5519",
"t. c #6c561a",
"t# c #6c591c",
"j9 c #6c5b18",
"iF c #6c5b1b",
"k6 c #6c5f1a",
"l1 c #6c6220",
"qd c #6d561a",
"lP c #6d581a",
"qq c #6d5d1b",
"my c #6e581b",
"kN c #6e5918",
"pp c #6e5a1a",
"tc c #6e5c1d",
"iW c #6e5e1a",
"sE c #6e5e1c",
"kt c #6e5f1b",
"gA c #6f5c1b",
"tC c #6f5e1c",
"pS c #6f5f1b",
"at c #6f601e",
"um c #70591a",
"uo c #70591c",
"uM c #705b1d",
"bS c #705c19",
"dj c #705c1c",
"tK c #705d1d",
"tb c #705e1e",
"lI c #70601b",
"eC c #70601c",
"jN c #70611c",
"cy c #715919",
"q6 c #715a1b",
"qF c #715c1b",
"po c #715d1b",
"pr c #715f1e",
"lH c #71601b",
"mr c #71601c",
"r3 c #71611a",
"aB c #71611b",
"lG c #71611c",
"aF c #71621c",
"wd c #71621d",
"t9 c #725e1b",
"pE c #725e1d",
"pq c #725f1d",
"o8 c #72601b",
"b2 c #72601c",
"q9 c #72601e",
"aE c #72611b",
"fg c #72611c",
"vB c #726121",
"k4 c #72621d",
"hV c #72631e",
"r1 c #73611c",
"sD c #73611e",
"te c #73621d",
"j8 c #73621e",
"sF c #73621f",
"k5 c #73631d",
"kM c #74601d",
"bo c #746021",
"dV c #74611a",
"s8 c #74611c",
"m7 c #74611d",
"fZ c #74621d",
"r2 c #74631c",
"gz c #74631d",
"v3 c #74631f",
"tR c #755f1d",
"ck c #75621c",
"jg c #75631e",
"bK c #75641d",
"v. c #756424",
"eB c #75651f",
"tP c #765c1c",
"o9 c #76601b",
"s3 c #76651e",
"of c #766520",
"wJ c #775f1d",
"s4 c #77611d",
"r0 c #77611e",
"vR c #777b36",
"nb c #785d1d",
"lF c #78651f",
"pP c #787c39",
"rI c #795f1e",
"qa c #79611e",
"fs c #797f38",
"ul c #7a601c",
"tf c #7a611e",
"lC c #7a671f",
"sK c #7a6722",
"b1 c #7b6820",
"sJ c #7b6822",
"oI c #7b6a21",
"qx c #7b6b21",
"sR c #7b742e",
"aS c #7b7f38",
"cI c #7c631e",
"h0 c #7c6520",
"mq c #7c6c22",
"tg c #7d631f",
"s5 c #7d6620",
"r5 c #7d6821",
"rw c #7d6920",
"sI c #7d6b21",
"sC c #7d6c24",
"cl c #7d6d22",
"jo c #7e641f",
"tx c #7e661d",
"jR c #7e6921",
"nJ c #7e6b20",
"iE c #7e6b21",
"hY c #7e6b22",
"a9 c #7e6c21",
"dZ c #7e6c24",
"oe c #7e6d23",
"r6 c #7e6e23",
"sG c #7e6e25",
"d3 c #7f641e",
"oj c #7f641f",
"d6 c #7f6520",
"#J c #7f6720",
"dk c #7f6923",
"fh c #7f6c22",
"o7 c #7f6d22",
"ml c #7f6e23",
"sB c #7f6e24",
"qh c #7f843a",
"va c #80641e",
"qE c #806420",
"jn c #80651f",
"gI c #806520",
"wj c #80661e",
"tS c #80661f",
"hm c #806720",
"bf c #806821",
"sL c #806b21",
"tB c #806b22",
"xi c #807129",
"ty c #81641d",
"vb c #81641e",
"uP c #81641f",
"u8 c #816420",
"q5 c #81651f",
"dn c #81661f",
"f6 c #816620",
"pb c #816721",
"ok c #816820",
"b3 c #816821",
"oJ c #816b22",
"cD c #816b23",
"f0 c #816c22",
"rZ c #816c23",
"v6 c #817028",
"mp c #817125",
"mB c #817526",
"pQ c #81863a",
"qD c #82641f",
"vf c #826420",
"vh c #82651e",
"ve c #82651f",
"fq c #826620",
"jm c #826720",
"jV c #826721",
"jU c #82681f",
"aN c #826820",
"ag c #826821",
"ho c #826922",
"vy c #82782d",
"tn c #827f36",
"qg c #82853b",
"vZ c #83651f",
"rH c #836520",
"nQ c #83661f",
"sc c #836620",
"uD c #836621",
"kA c #836720",
"wH c #836921",
"v0 c #84651f",
"lQ c #846520",
"la c #846620",
"q4 c #846621",
"uQ c #84671f",
"kB c #846720",
"sd c #846721",
"p. c #846820",
"eL c #846821",
"cH c #846920",
"oN c #846b22",
"hn c #846c23",
"iG c #846e22",
"lB c #847627",
"ur c #856920",
"q# c #856b23",
"cJ c #856c23",
"dg c #856f23",
"cF c #857124",
"sH c #857324",
"sA c #857326",
"w6 c #857327",
"pD c #857425",
"kK c #858029",
"tT c #866b21",
"wO c #866c21",
"fn c #866c22",
"f4 c #866d22",
"gH c #866d23",
"bq c #867025",
"rx c #867526",
"mk c #867727",
"ng c #867a29",
"rG c #876b22",
"u7 c #876c22",
"sM c #876c23",
"eI c #876d24",
"a8 c #877526",
"aG c #877728",
"uE c #886c23",
"vK c #886e23",
"fm c #886f23",
"jW c #886f24",
"jh c #887324",
"mz c #88752a",
"oH c #887727",
"sQ c #88772a",
"qy c #887827",
"ku c #887828",
"oV c #88792a",
"nZ c #887a2a",
"eV c #888939",
"uV c #896d21",
"kC c #896d23",
"na c #896e23",
"uq c #896e24",
"oK c #896f24",
"lR c #897023",
"wE c #897025",
"eH c #897125",
"nK c #897626",
"sw c #897827",
"op c #897a2a",
"wP c #8a6e24",
"sN c #8a6f23",
"q3 c #8a6f24",
"vE c #8a7024",
"tj c #8a7025",
"we c #8a7124",
"mA c #8a7524",
"dp c #8a7627",
"cx c #8a7727",
"mo c #8a7827",
"pX c #8a7927",
"lE c #8a7a29",
"mH c #8a7c2a",
"vN c #8a7d2c",
"nP c #8b7023",
"pc c #8b7225",
"kw c #8b7626",
"sv c #8b7928",
"fr c #8b8938",
"tk c #8c7124",
"t8 c #8c7226",
"vD c #8c7227",
"iM c #8c7325",
"t7 c #8c7326",
"iN c #8c7526",
"wC c #8c7929",
"kv c #8c7a29",
"aC c #8c7e2c",
"br c #8c8534",
"vG c #8d7224",
"oM c #8d7225",
"sO c #8d7226",
"wD c #8d7328",
"pT c #8d7828",
"ks c #8d7c29",
"pW c #8d7d29",
"vF c #8e7324",
"iL c #8e7626",
"vz c #8e792a",
"iD c #8e7b28",
"pV c #8e7d29",
"uj c #8f7425",
"se c #8f7627",
"cG c #8f7725",
"t6 c #8f7728",
"uH c #8f7927",
"lJ c #8f7b27",
"pU c #8f7c29",
"k. c #8f7d29",
"vO c #8f7f2b",
"j6 c #8f882e",
"vo c #8f8939",
"oL c #907425",
"eA c #907d29",
"dq c #907f2c",
"pa c #917526",
"th c #917726",
"d2 c #917826",
"ti c #917827",
"iH c #917b28",
"lU c #91802a",
"p4 c #91802d",
"wU c #918d3c",
"a0 c #918f3e",
"vd c #927726",
"rF c #927826",
"gF c #927a27",
"ji c #927a28",
"dm c #927b27",
"uU c #927b2a",
"#K c #927b2b",
"kx c #927c28",
"jS c #927d28",
"lc c #928029",
"sq c #92802f",
"c3 c #92812f",
"pe c #92842d",
"vH c #937826",
"s0 c #937927",
"vL c #93792a",
"qC c #937a27",
"mv c #937b27",
"gG c #937b28",
"bl c #937c28",
"u# c #937d28",
"lN c #937d29",
"bV c #937e28",
"pm c #937f28",
"ms c #937f2a",
"ff c #93802c",
"xm c #93812a",
"xf c #938e3b",
"nO c #947a27",
"n# c #947a28",
"ah c #947b2b",
"l. c #947d28",
"hl c #947d2a",
"nf c #947e29",
"dW c #94802b",
"cL c #948e37",
"cW c #949039",
"rE c #957a28",
"qf c #957a29",
"aO c #957b2b",
"kD c #957d2a",
"aJ c #957e28",
"pR c #957f29",
"pd c #958028",
"nL c #958029",
"rW c #95802c",
"sx c #95822d",
"mn c #958531",
"vQ c #959039",
"tD c #967c27",
"vc c #967c28",
"uk c #967d28",
"#F c #967e2a",
"bW c #967f28",
"eG c #967f29",
"t3 c #96832f",
"nU c #96872f",
"uI c #977e29",
"bm c #977f2a",
"tA c #978028",
"cB c #978029",
"bY c #97802a",
"lT c #978128",
"oX c #97812a",
"d7 c #97812c",
"bE c #97872f",
"oQ c #978a31",
"tm c #978a37",
"oi c #987d29",
"oh c #987e29",
"cC c #987f29",
"bi c #988029",
"bX c #98802a",
"bj c #98812a",
"tH c #98822b",
"sP c #98832e",
"a2 c #988430",
"up c #98852b",
"vl c #98862f",
"p5 c #988731",
"mj c #988932",
"bs c #989039",
"cX c #98913b",
"ri c #98933b",
"nm c #997e27",
"rD c #997e29",
"hZ c #997f28",
"n. c #997f2a",
"ad c #998029",
"#E c #99802a",
"bk c #99812a",
"vY c #99812c",
"pA c #99822a",
"s. c #99822b",
"dh c #99832c",
"m6 c #998930",
"el c #998932",
"be c #998a30",
"gX c #998a34",
"aD c #998b32",
"hC c #998c35",
"dr c #999139",
"w4 c #99923d",
"og c #9a7f29",
"sb c #9a7f2a",
"aa c #9a8029",
"q2 c #9a802a",
"#D c #9a812a",
"t4 c #9a812e",
"f3 c #9a822a",
"wQ c #9a822c",
"f2 c #9a832a",
"oW c #9a842c",
"tF c #9a862a",
"wM c #9a8630",
"sz c #9a8930",
"dH c #9a8a31",
"ig c #9a8c35",
"qY c #9b7f29",
"ac c #9b802a",
"uJ c #9b8129",
"ab c #9b812a",
"tz c #9b822a",
"gE c #9b822b",
"kL c #9b832a",
"fl c #9b832b",
"#G c #9b832c",
"aM c #9b842b",
"#B c #9b852d",
"sy c #9b8830",
"q. c #9b8a2f",
"lD c #9b8a33",
"nx c #9b8b32",
"cm c #9b8b35",
"mZ c #9b8c33",
"fG c #9b8c34",
"i1 c #9b8e36",
"v7 c #9b8f38",
"bZ c #9c7f2a",
"fi c #9c802a",
"qe c #9c802c",
"rX c #9c812a",
"k9 c #9c812b",
"wp c #9c812c",
"uK c #9c822a",
"u6 c #9c822c",
"vm c #9c832b",
"lb c #9c842b",
"#C c #9c842c",
"sr c #9c842d",
"wo c #9c842e",
"qB c #9c852a",
"wN c #9c852e",
"vP c #9c8831",
"o0 c #9c8a30",
"n7 c #9c8b33",
"fF c #9c8c35",
"lA c #9c8d35",
"wS c #9d822c",
"ub c #9d832b",
"tL c #9d842b",
"qp c #9d852a",
"bn c #9d852c",
"pn c #9d862b",
"ua c #9d862d",
"hk c #9d872c",
"oO c #9d872e",
"a# c #9d882f",
"fY c #9d8832",
"dG c #9d8d34",
"rM c #9d9439",
"f7 c #9d943c",
"jw c #9d9739",
"a1 c #9d993d",
"sZ c #9e7e2a",
"tl c #9e812a",
"b0 c #9e822b",
"ug c #9e822c",
"f1 c #9e832b",
"tO c #9e842b",
"rA c #9e842c",
"eD c #9e862c",
"m8 c #9e882e",
"gC c #9e882f",
"b4 c #9e8830",
"kR c #9e8a33",
"kF c #9e8b30",
"o3 c #9e8d34",
"lp c #9e8e34",
"gf c #9e8e35",
"bJ c #9e8e36",
"c4 c #9e8f36",
"bC c #9e9839",
"p# c #9f822b",
"dl c #9f8330",
"tM c #9f842c",
"uW c #9f842d",
"tN c #9f852c",
"mu c #9f852d",
"m9 c #9f862d",
"lK c #9f872e",
"oq c #9f892e",
"st c #9f892f",
"eK c #9f8a30",
"bR c #9f8c32",
"o# c #9f8c34",
"rt c #9f8f32",
"fE c #9f8f34",
"wT c #9f9038",
"o4 c #9f9138",
"lz c #9f9236",
"rj c #9f9d3c",
"ud c #a0872d",
"d4 c #a0872f",
"nN c #a0882f",
"fp c #a08830",
"jf c #a0892d",
"hU c #a08931",
"su c #a08a2f",
"aI c #a08a30",
"oA c #a08c34",
"rs c #a08f32",
"lo c #a09035",
"pk c #a0953e",
"d1 c #a1892e",
"q1 c #a18a2e",
"wI c #a18a32",
"tG c #a18b30",
"hi c #a18f35",
"fJ c #a19036",
"oB c #a19037",
"r7 c #a19236",
"vk c #a19238",
"nE c #a19338",
"f5 c #a28a31",
"do c #a28b31",
"oP c #a28c30",
"p9 c #a28c31",
"bg c #a28d33",
"rr c #a28d34",
"sf c #a29236",
"od c #a29238",
"lM c #a38930",
"fj c #a38a2f",
"rz c #a38b2f",
"fk c #a38c30",
"uX c #a38c31",
"tE c #a38c33",
"nI c #a39133",
"n6 c #a39237",
"uA c #a39e3b",
"mt c #a48c32",
"ek c #a49538",
"wr c #a49a3e",
"rB c #a58b30",
"wF c #a58f33",
"k7 c #a59033",
"uu c #a59133",
"#H c #a59134",
"rq c #a59135",
"s6 c #a59234",
"pv c #a59239",
"iC c #a59335",
"bT c #a59337",
"oa c #a5953a",
"mi c #a5963a",
"vU c #a5963c",
"e1 c #a59737",
"ly c #a5983a",
"qX c #a68e31",
"qZ c #a68e32",
"kE c #a68f32",
"j7 c #a69132",
"ue c #a69235",
"xn c #a69637",
"c2 c #a6973b",
"nT c #a78d32",
"wh c #a79034",
"s# c #a79132",
"wn c #a79135",
"cA c #a79234",
"mm c #a7973c",
"a7 c #a79839",
"uh c #a88d32",
"uc c #a89032",
"aL c #a89033",
"ae c #a89133",
"xl c #a89437",
"de c #a89536",
"df c #a89537",
"wm c #a89737",
"gL c #a89b3a",
"t5 c #a99135",
"gD c #a99234",
"ot c #a99538",
"gg c #a99638",
"sY c #a9963f",
"m0 c #a9983b",
"m1 c #a9993a",
"nw c #a9993b",
"pC c #a99a37",
"jZ c #a99b3a",
"om c #a99c3d",
"ut c #aa9234",
"s1 c #aa9235",
"nD c #aa9939",
"mQ c #aa9a3d",
"dI c #aa9b3e",
"bd c #aa9c3c",
"au c #aa9d3e",
"eF c #ab9534",
"qI c #ab9638",
"rl c #ab9839",
"gy c #ab9b39",
"ba c #ab9d3b",
"pI c #ab9f41",
"ui c #ac9333",
"ll c #ac953a",
"gY c #ac9839",
"l7 c #ac9c3e",
"a3 c #ac9d3e",
"bF c #ac9e3b",
"#q c #ac9f3e",
"us c #ad9435",
"p8 c #ad9636",
"pz c #ad9737",
"eE c #ad9837",
"s7 c #ad9938",
"vX c #ad9939",
"m5 c #ad9a3b",
"pw c #ad9d3f",
"e2 c #ad9e3d",
"dF c #ad9e3e",
"uN c #ae9338",
"lk c #ae953a",
"qA c #ae9736",
"rn c #ae9838",
"wf c #ae9839",
"ss c #ae9938",
"oc c #ae9b3c",
"uB c #ae9d3d",
"l6 c #ae9d3f",
"r8 c #ae9e3b",
"uT c #ae9e3c",
"b5 c #ae9e3d",
"#r c #ae9f3b",
"#0 c #ae9f3e",
"vA c #af9736",
"s2 c #af9836",
"wR c #af9838",
"ry c #af9938",
"rY c #af9939",
"rm c #af9a38",
"gx c #af9c3c",
"hj c #af9d3a",
"#1 c #af9e3a",
"iB c #af9f3b",
"mh c #afa042",
"tU c #b09635",
"w7 c #b09636",
"wG c #b09a39",
"gh c #b09c3b",
"xj c #b09d3d",
"ou c #b09e3d",
"ln c #b09f3b",
"dA c #b0a03c",
"mP c #b0a041",
"e0 c #b0a042",
"b# c #b0a140",
"fH c #b0a245",
"di c #b19637",
"d5 c #b19a39",
"lS c #b19a3a",
"oG c #b19c3c",
"pB c #b19d3a",
"#3 c #b19f3a",
"#2 c #b19f3c",
"#4 c #b1a03b",
"kO c #b1a03d",
"eg c #b1a13b",
"eZ c #b1a13f",
"e3 c #b1a144",
"#s c #b1a23e",
"#u c #b1a33e",
"rC c #b29838",
"d0 c #b29c3b",
"ro c #b29d3b",
"#L c #b29e3d",
"xk c #b29f3e",
"qT c #b2a03c",
"qU c #b2a03d",
"dX c #b2a13b",
"cu c #b2a13d",
"#t c #b2a33d",
"c1 c #b2a341",
"k8 c #b39a3a",
"lL c #b39c3b",
"wq c #b39d3a",
"nM c #b39d3b",
"l3 c #b3a03d",
"xg c #b3a13d",
"nC c #b3a141",
"a6 c #b3a240",
"bD c #b3a340",
"jY c #b3a43c",
"qV c #b3a43d",
"bG c #b3a43e",
"qR c #b49b3a",
"bh c #b49e3a",
"eJ c #b49f3b",
"gc c #b49f3c",
"oF c #b49f3d",
"dB c #b4a03b",
"jM c #b4a03d",
"oE c #b4a13d",
"or c #b4a23c",
"dD c #b4a23d",
"nH c #b4a23e",
"n5 c #b4a23f",
"dT c #b4a33c",
"r4 c #b4a33d",
"jL c #b4a33e",
"l8 c #b4a443",
"bc c #b4a545",
"eh c #b59f3b",
"gZ c #b5a03b",
"hA c #b5a03c",
"hT c #b5a03d",
"n3 c #b5a13b",
"#A c #b5a23a",
"#w c #b5a33d",
"jc c #b5a33e",
"bO c #b5a33f",
"o2 c #b5a43e",
"pZ c #b5a43f",
"ct c #b5a440",
"nF c #b5a441",
"h3 c #b5a53f",
"bI c #b5a547",
"vn c #b5a641",
"l2 c #b69e3e",
"n0 c #b69f3d",
"ja c #b6a03a",
"gV c #b6a03b",
"ai c #b6a03d",
"ez c #b6a03e",
"qt c #b6a13c",
"gU c #b6a13d",
"p7 c #b6a13e",
"qu c #b6a23c",
"#I c #b6a23e",
"dC c #b6a33e",
"dU c #b6a342",
"oZ c #b6a43d",
"#x c #b6a43e",
"ej c #b6a43f",
"rv c #b6a53d",
"bQ c #b6a540",
"tI c #b6a541",
"a4 c #b6a744",
"nn c #b7a03f",
"np c #b7a13a",
"qO c #b7a141",
"qs c #b7a23c",
"n1 c #b7a23d",
"fA c #b7a23e",
"no c #b7a23f",
"#v c #b7a33d",
"fD c #b7a33e",
"py c #b7a33f",
"#7 c #b7a43d",
"qz c #b7a43e",
"gW c #b7a440",
"cK c #b7a53c",
"ru c #b7a53e",
"aw c #b7a53f",
"iA c #b7a540",
"i0 c #b7a641",
"oC c #b7a845",
"ch c #b7a847",
"kr c #b8a13d",
"mI c #b8a13f",
"aP c #b8a140",
"fU c #b8a23c",
"aK c #b8a23d",
"#y c #b8a33b",
"o6 c #b8a33d",
"n2 c #b8a33e",
"mJ c #b8a33f",
"qW c #b8a43d",
"hS c #b8a43f",
"r. c #b8a441",
"cz c #b8a53c",
"he c #b8a53f",
"pl c #b8a542",
"iz c #b8a641",
"cp c #b8a741",
"kq c #b8a742",
"b. c #b8aa4a",
"q0 c #b9a33e",
"fo c #b9a43d",
"qS c #b9a43e",
"gd c #b9a43f",
"rp c #b9a440",
"#6 c #b9a53e",
"aH c #b9a63e",
"jd c #b9a63f",
"ov c #b9a643",
"ew c #b9a742",
"d. c #b9a844",
"iZ c #b9a942",
"e4 c #b9a94a",
"qr c #ba9d3a",
"uC c #baa039",
"jX c #baa23c",
"#z c #baa33b",
"m4 c #baa53f",
"ol c #baa640",
"jx c #baa842",
"dd c #baa843",
"h2 c #baaa3f",
"bb c #baaa49",
"fK c #baaa4d",
"jC c #baab49",
"c5 c #baad4a",
"d8 c #bba23d",
"r9 c #bba43d",
"vV c #bba43f",
"bU c #bba83e",
"ge c #bba841",
"je c #bba940",
"iy c #bba943",
"m3 c #bba945",
"nG c #bbaa44",
"sa c #bca33e",
"w8 c #bca43e",
"cY c #bca53f",
"oY c #bca63f",
"wi c #bca640",
"qH c #bca941",
"cZ c #bca945",
"oD c #bcaa44",
"os c #bcaa45",
"o1 c #bcaa47",
"a. c #bcab3f",
"oz c #bcab44",
"bN c #bcab45",
"ci c #bcad4b",
"af c #bda63e",
"w5 c #bda73f",
"#5 c #bda740",
"mK c #bda842",
"hR c #bdab45",
"if c #bdac45",
"ax c #bdac46",
"d# c #bdac47",
"mY c #bdac48",
"k3 c #bea43f",
"uO c #bea440",
"qP c #bea644",
"#8 c #bea83f",
"#9 c #bea940",
"ns c #beac45",
"kp c #beac46",
"p0 c #bead46",
"pu c #bead47",
"ie c #beae45",
"gl c #beae4c",
"fI c #beb04f",
"u9 c #bfa43e",
"wg c #bfa941",
"mO c #bfad49",
"k# c #bfad4b",
"p1 c #bfae47",
"pY c #bfaf46",
"eW c #bfaf47",
"ob c #bfb04c",
"hD c #bfb14c",
"lw c #bfb14f",
"iw c #c0ab44",
"eY c #c0ad46",
"cv c #c0ae43",
"ih c #c0b14d",
"hH c #c0b250",
"ce c #c1a93e",
"l5 c #c1ae47",
"p6 c #c1ae48",
"dP c #c1af48",
"jH c #c1b350",
"i7 c #c1b351",
"kY c #c1b44e",
"dc c #c2af47",
"p2 c #c2af48",
"kS c #c2af4c",
"cn c #c2b350",
"me c #c2b450",
"io c #c2b451",
"fb c #c3b049",
"eX c #c3b148",
"fc c #c3b149",
"c0 c #c3b14c",
"hG c #c3b451",
"kX c #c3b552",
"fe c #c4af47",
"gi c #c4af4b",
"da c #c4b14a",
"l4 c #c4b24b",
"hI c #c4b653",
"db c #c5b24a",
"qv c #c5b24b",
"fT c #c5b34c",
"lx c #c5b551",
"e5 c #c5b552",
"ny c #c5b74e",
"cq c #c6b44c",
"id c #c6b54b",
"g2 c #c6b54f",
"av c #c6b850",
"a5 c #c7b44b",
"cs c #c7b54f",
"cj c #c7b753",
"mf c #c7b853",
"dS c #c8b54c",
"gj c #c8b54f",
"pt c #c8b64e",
"n8 c #c8b650",
"nz c #c8b752",
"l9 c #c8b853",
"jD c #c8b951",
"ip c #c8b956",
"jb c #c9b34b",
"fV c #c9b64d",
"kP c #c9b74f",
"ox c #c9b751",
"n9 c #c9b752",
"m2 c #c9b851",
"gk c #c9b951",
"bM c #c9b953",
"i3 c #c9ba52",
"lq c #c9ba53",
"dJ c #c9bc53",
"fX c #cab64e",
"mN c #cab650",
"ix c #cab74e",
"o5 c #cab74f",
"ow c #cab750",
"jE c #cab850",
"j. c #cab851",
"oy c #cab852",
"nA c #cab953",
"gm c #cab957",
"fQ c #caba54",
"jz c #cabb52",
"lu c #cabb53",
"iq c #cabb58",
"nt c #cbb850",
"eu c #cbb951",
"ay c #cbb952",
"p3 c #cbb953",
"iY c #cbba50",
"az c #cbba53",
"g8 c #cbbb55",
"i2 c #cbbc53",
"lr c #cbbc54",
"mR c #cbbc56",
"kh c #cbbc59",
"g0 c #ccb54d",
"nv c #ccb752",
"fC c #ccb94f",
"fd c #ccb951",
"cr c #ccba52",
"lm c #ccba53",
"kT c #ccba54",
"ps c #ccbb50",
"mS c #ccbc56",
"eo c #ccbd52",
"jA c #ccbd53",
"dO c #ccbd55",
"in c #ccbd59",
"fB c #cdb84e",
"ko c #cdb951",
"nu c #cdb953",
"ey c #cdba50",
"dQ c #cdba52",
"hP c #cdba53",
"ev c #cdbb52",
"kn c #cdbb53",
"bP c #cdbb54",
"ka c #cdbb55",
"nB c #cdbc54",
"mV c #cdbd53",
"h# c #cdbd56",
"jB c #cdbe54",
"ii c #cdbe55",
"k2 c #cdbe56",
"hB c #ceb84f",
"g1 c #ceba53",
"dE c #cebb52",
"fa c #cebb53",
"jG c #cebc53",
"o. c #cebc54",
"kZ c #cebc55",
"bH c #cebd53",
"qw c #cebd55",
"c9 c #cebe56",
"g3 c #cebe5b",
"er c #cebf56",
"co c #cebf57",
"kk c #cec05a",
"ei c #cfbb53",
"ex c #cfbc52",
"dR c #cfbc53",
"kQ c #cfbd53",
"hd c #cfbd54",
"aA c #cfbe56",
"gr c #cfbf58",
"mg c #cfbf5c",
"ki c #cfc05c",
"n4 c #d0bd53",
"fW c #d0bd54",
"hQ c #d0be54",
"mW c #d0c057",
"mT c #d0c059",
"kj c #d0c25c",
"gu c #d1bf56",
"gw c #d1c057",
"mU c #d1c15a",
"fP c #d1c15c",
"ij c #d1c259",
"i6 c #d1c25e",
"mX c #d2c158",
"it c #d2c25a",
"iv c #d2c25c",
"dN c #d2c35b",
"i9 c #d2c45d",
"px c #d3c057",
"f# c #d3c058",
"hF c #d3c159",
"hc c #d3c259",
"m. c #d3c35c",
"en c #d3c35f",
"c6 c #d3c55e",
"jK c #d4c259",
"cw c #d4c25a",
"fS c #d4c35c",
"gs c #d4c45d",
"g9 c #d4c45e",
"kl c #d4c55d",
"c8 c #d4c55e",
"kf c #d4c561",
"e9 c #d5c55e",
"ma c #d5c65e",
"kg c #d5c662",
"ha c #d6c45b",
"kb c #d6c45c",
"e8 c #d6c65e",
"lv c #d6c75f",
"nq c #d6c760",
"jI c #d6c862",
"i4 c #d7c85e",
"m# c #d7c862",
"c7 c #d7c960",
"em c #d8c766",
"ik c #d8c85f",
"e6 c #d8c960",
"iu c #d8c962",
"hJ c #d8c964",
"f. c #d9c960",
"e7 c #d9c961",
"kc c #d9ca61",
"nr c #d9cb62",
"is c #d9cb63",
"mL c #dac962",
"es c #dacb61",
"gv c #dacc64",
"ke c #dacc65",
"lt c #dbcb65",
"km c #dbcc64",
"md c #dbcc65",
"j# c #dbcd66",
"mM c #dccc65",
"gq c #dccc66",
"k1 c #dccd63",
"im c #dccd66",
"il c #dcce64",
"mb c #ddce67",
"ep c #ddcf66",
"kV c #ddcf67",
"cf c #decc65",
"gp c #dece67",
"kU c #ded067",
"jF c #dfcf66",
"dK c #dfd168",
"jJ c #dfd169",
"hE c #dfd26a",
"k0 c #dfd26b",
"gt c #e0ce64",
"h. c #e0cf67",
"fL c #e0d069",
"et c #e0d167",
"mc c #e0d169",
"g6 c #e0d16a",
"hK c #e0d16c",
"kd c #e0d269",
"hL c #e0d26a",
"hb c #e0d46b",
"ls c #e1d169",
"fO c #e1d16a",
"kW c #e1d16d",
"fM c #e1d26a",
"go c #e1d26b",
"dL c #e1d26d",
"i5 c #e1d36a",
"g7 c #e1d36b",
"dM c #e1d36d",
"hM c #e2d16b",
"gn c #e2d26a",
"fN c #e2d26c",
"g5 c #e2d26d",
"hO c #e2d36b",
"eq c #e2d36e",
"ir c #e2d46c",
"hN c #e3d26c",
"g4 c #e3d36e",
"i8 c #e3d56d",
"fR c #e4d56c",
"cg c #e5d56f",
"QtQtQtQtQtQtQtQtQtQtQtQtQtQtQtQtQtQtQtQtQtQtQtQtQtQtQtQtQtQtQtQtQtQtQtQtQtQtQtQtQtQtQtQtQtQtQtQtQtQtQtQtQtQtQtQtQtQtQtQtQtQtQtQt",
"QtQtQtQtQtQtQtQtQtQtQtQtQtQtQtQtQtQtQtQtQtQtQtQtQtQtQtQtQtQtQtQtQtQtQtQtQtQtQtQtQtQtQtQtQtQtQtQtQtQtQtQtQtQtQtQtQtQtQtQtQtQtQtQt",
"QtQtQtQtQtQtQtQtQtQtQtQtQtQtQtQtQtQtQtQtQtQtQtQtQtQtQtQtQtQtQtQtQtQtQtQtQtQtQtQtQtQtQtQtQtQtQtQtQtQtQtQtQtQtQtQtQtQtQtQtQtQtQtQt",
"QtQtQtQtQtQtQtQtQtQtQtQtQtQtQtQtQtQtQtQtQtQtQtQtQtQtQtQtQtQtQtQtQtQtQtQtQtQtQtQtQtQtQtQtQtQtQtQtQtQtQtQtQtQtQtQtQtQtQtQtQtQtQtQt",
"QtQtQtQtQtQtQtQtQtQtQtQtQtQtQtQtQtQtQtQtQtQtQtQtQt.#QtQtQtQtQtQtQtQtQtQtQtQtQtQtQtQtQtQtQtQtQtQtQtQtQtQtQtQtQtQtQtQtQtQtQtQtQtQt",
"QtQtQtQtQtQtQtQtQtQtQtQtQtQtQtQtQtQtQtQtQtQtQtQtQt.#.#.a.a.a.a.a.a.a.a.b.#QtQtQtQtQtQtQtQtQtQtQtQtQtQtQtQtQtQtQtQtQtQtQtQtQtQtQt",
"QtQtQtQtQtQtQtQtQtQtQtQtQtQtQtQtQtQt.#.#.c.c.c.c.cQt.d.e.f.f.f.g.g.g.h.i.#.jQtQtQtQtQtQtQtQtQtQtQtQtQtQtQtQtQtQtQtQtQtQtQtQtQtQt",
"QtQtQtQtQtQtQtQtQtQtQtQtQtQtQt.#.#Qt.k.k.l.m.m.n.o.p.q.r.s.s.s.s.s.s.r.t.p.u.v.v.w.x.yQtQtQtQtQtQtQtQtQtQtQtQtQtQtQtQtQtQtQtQtQt",
"QtQtQtQtQtQtQtQtQtQtQtQtQtQtQt.#.#.#.z.b.A.B.C.C.D.E.F.F.G.F.G.F.F.F.F.F.H.I.B.B.C.A.J.K.j.#QtQtQtQtQtQtQtQtQtQtQtQtQtQtQtQtQtQt",
"QtQtQtQtQtQtQtQtQtQtQtQtQtQt.#.#.a.f.L.M.N.O.O.O.P.Q.R.S.T.U.U.U.U.U.U.U.V.W.X.X.Y.P.Z.0.L.1.c.j.#QtQtQtQtQtQtQtQtQtQtQtQtQtQtQt",
"QtQtQtQtQtQtQtQtQtQtQtQtQt.#Qt.#.2.3.4.5.6.7.7.7.6.8.9#.###########a#b#c#d#e.F#f.F#g#h#i.3#j.#.#.#QtQtQtQtQtQtQtQtQtQtQtQtQtQtQt",
"QtQtQtQtQtQtQtQtQtQtQtQtQt#k#l.p#m#n#o#p#q#r#s#t#u#v#w#x#y#z#A#B#C#D#E#F#G#H#I#J#K#L#M#N#O#P#Q#R#S.j.cQtQtQtQtQtQtQtQtQtQtQtQtQt",
"QtQtQtQtQtQtQtQtQtQtQtQt.a#T#U#V#W#X#Y#Z#0#1#2#3#4#5#6#7#8#9a.a##Gaaabacadaeafagahaiajakalaman.waoap.cQtQtQtQtQtQtQtQtQtQtQtQtQt",
"QtQtQtQtQtQtQtQtQtQt.#.#.A.3aqarasatauavawaxayazaAaBaCaDaBaEaEaFaGaHaIaJaKaLaMaNaOaPaQaR#xaSaTaUaVaW.b.aQtQtQtQtQtQtQtQtQtQtQtQt",
"QtQtQtQtQtQtQtQt.#Qt.#aX.paYaZa0a1a2a3a4a5a6a7a8a9b.b#babbbbbcbdbebfbgbhbibjbkblbmbnbobpbqbrbsbtbubvbwbx.#QtQtQtQtQtQtQtQtQtQtQt",
"QtQtQtQtQt.#.#.#.#.jbybzbAbBbtbCbDbEbFbGbHbIbJbKbLbMbNbOayaybPbQbRbSbTbUbVbWbXbYbZb0b1b2b3b4b5b6b7b8b9c..b.#.#.#QtQtQtQtQtQtQtQt",
"QtQtQtQtQt.#.#Qt.jc#cacbcccdcecfcgchcicjckclcmcncocpcqcraycsctcucvcwcxcyczcAcBcCcDcEcFcGcHcIcJcKcLcMcNcOcPcQ.#.#.#QtQtQtQtQtQtQt",
"QtQtQtQtQt.j.ccRcScTcUcVcWcXcYcZc0cqc1c2c3c4c5c6c7c8c9crd.d#dadbdcdddedfdgdhdidjdkdlcCdmdn#Fdodpdqdrdsdtdudvdw.a.#QtQtQtQtQtQtQt",
"QtQtQtQtQt.#.#.mdxdy.7dzdAdBdCdDdDdEdFdGdHdIdJdKdLdMdNdObQdPdQdRdS#wdTdUdVdWdXdYdZd0d1d2d3d4d5d6d7d8d9e..Pe#ea.b.cQtQtQtQtQtQtQt",
"QtQtQtQtQt.jebeccaedeeefegeheidQdRejekelemeneoepeqereseteuevevewdcexexeyezeAeBeCa9eDeEeFeGeHeIeJeKeLeMeN.YeOeP.zQt.jQtQtQtQtQtQt",
"QtQtQtQt.#.jeQeReSeTeUeVeWeXeYeZe0e1e2e3e4e5e6dKdLe7e8e9f.f#fadafbfcfddRfeffaFfgfhfifjfkflfmfnfofpfqfrfsftfueSaofv.#QtQtQtQtQtQt",
"QtQtQtQt.#.jfwfxaYfyfzfAfBfCfDfEfFfGfHfIfJfKfLfMfNfOfPfQfRfSeufdfTfUfVfWfXfYfZfgf0f1flf2f3f4f4aff5f6#vf7f8f9g..5g#.#.#.#QtQtQtQt",
"QtQtQt.#.#.jfw.pbBgagbgcgdgegfggghgigjgkglgmgnfOfNgogpgqgrgsgtbPgugvgwfWewgxgygzgAgBgCgDgEgFgGgHaggIgJgKgLgMgN#ggOgP.k.#QtQtQtQt",
"QtQtQt.#.#.kgPgQgRgSgTgUgVgWgXgYgZg0dQg1g2g3eqg4g5gog6g7g8g9h.h#hahbhchddD#4hehfhghhhihjhkbkhlhmhnhohphqfohrhs.PfufwhtQtQtQtQtQt",
"QtQtQt.#hudxhvhwhxhyhzhAhBguhChDevhEhFhdhGhHhIhJhKg7g7hLhMhNhOh#hPhQhdcrdEhRhShThUhVhWdYhXhYcBhZh0h1h2heh3h4d9h5h6h7h8QtQtQtQtQt",
"QtQtQtQth9gPi.i#iaibicidieifigihiiijikiliminioipiqg7gog7irisitiuiviwixdQiyiziAejiBiCiDiEiFiGiHiIiJiKiLiMiNiOiPiQiRh7.2.cQtQtQtQt",
"QtQtQt.ciSiThviUiViWiXiYiZi0i1ihi2i3i4i5i5i6i7i7hHirg7g7i8i9j.j#gsjajbdQjcejejejjdjejfaJjgjhjijjjkjljmjnjojpjqeejrjs.2.cQtQtQtQt",
"QtQtQtQtjtjujvjwjxaBjyjzjAjBaBjCjDetijjEjFdNjGjHhHhHjIhLg7jJhLhLi8fMjKjGfdeYjLjMaIjNjOjPjQjRjShyjTjUjVjWjXjYjZfyj0j1.2.cQtQtQtQt",
"Qt.#.kj2j3j4j5j6j7j8j9axevhdk.k#kakbikkckdkegvkfkgiokhkikjkkklj#kmi9knkokpkqkrkscFktkukvjRkwkxkykzkAkBkCkDkEkF#akGj1.2QtQtQtQtQt",
"Qt.#.bkHkIbBkJkKkLkMkNkOkPkQkRkSbPkTkckUdKkVirkWeqioioiokXkYkZk0k1k2evdEiA#xk3k4k5k6k7k8k9k9l.h1l#lakBkBdnlblcldkGlelf.#QtQtQtQt",
"Qt.c.KlgaUaYlhliljlklljEcrlmlnlolpi3lqlrlsg9h#ltlslulvkVlwhHlxlylzlAlBlClDlElFlGlHlIlJlKlLlMlNlOlPlQaNlRlSlTlU#alVlWlXdwQtQtQtQt",
"QtQt.KlYlZlZl0l1gAl2l3eul4l4l5l6l7l8l9m.lsm#mambmcklmdhLmemfmgmhmimjmkmlmmmnmompmqmrmsmtaemumvmwmxmykAf6mzmAmBmCmDlWmE.debebQtQt",
"QtQt.KlYjtmFmGmHhZmImJmKmLmMhRmNfamOmPmQmRmSmTmTmUmUmUmUmVmWmXmYeZmZm0m1m2m3m4m5m6m7dWm8d0m9n.n#nanbncndnenfngnhftninj.dQtQtQtQt",
"QtQt.KlYlZnknlmHnmnnnonpnqnrnsntnunvnwnxnynzaznAnBevevevjGevjGnCnDnEnFnGcrkpejnHnInJnKnLnMnNbYnOnPnQnRnSjgnTnUnVnWj1njnXQtQtQtQt",
"QtQt.KnYlZnknlnZadn0n1n2n2n3dEdRn4n5n6n7n8n9lmayo.euevevjGeujGo#oaobkPevfdkpej#IocodoeofogohoinQkBnQdnojokolomonooj1nj.dQtQtQtQt",
"QtQt.KnYaUnknlopn.fkoqn2gdordReYosotouovowoxazoyo.creueucrcqozoAoBoCcsjGoDiAdDoEoFoGoHoIoeoJoKoLoMnQdnoNoOoPoQ.9oRleoScSQtQtQtQt",
"Qt.j.KoT.snkoUoVaaoWoXm4oYoZhQjxcto0o1hdhdoxdQevjGcrevevcrl4o2o3o4dDo5fWejejejbOo6fDmso7o8o9p.p#papbf6pccYpdpepfoRpgphdv.#QtQtQt",
"Qt.j.j.j.rpipjpkplpmpnpoppgApqprj9pshRn5ptpukqcqevcrkpi0dQeuevpvpwpxiyfAfDfDpy#IpzpApBpCpDpEpFpGpHdnjVnQk9ovpIpJpKpLht.#.#QtQtQt",
"Qt.j.jQtpMpNpOpPpQpRpnpSpTpUpVpWpXpYjxpZeYp0p0kPjGp1l5kpp2dap3p4p5p6izfAfAnonop7p8f3p9q.q#qaqbnSqcqdqeqfacqgqhqiqjqk.#.c.#QtQtQt",
"QtQtQtQtlXqlqmqnqof3qpqqqro6qsqtqsqun2n2hSkpdQdEfWizqvfdjcl5qwqxqyfDn2mJfDqzaw#xqAflqBqCnQqDqEqFjQqGqHqIn.dzqJqKqLh7.#QtQtQtQtQt",
"QtQtQt.#ePh7qMqNccqOqPqQqRfDn1n1fAn1qSgdhSpZdDqTqTl3l3qUjcizqVoIoHn1qWmJfDqXacqYqZq0q1q2k9q3q4q5q6q7q8q9r.r#rarbrcrd.#QtQtQtQtQt",
"QtQtQt.#rererfrgrhrirjrkrlrmrnromJrpfoqSn2ejejrqrrrsrtrtruawrvrwrxqu#7n2ryqXrzrArBrCrDrErFrGlarHrIrJrKrLrMrNrOrPrQj2.#QtQtQtQtQt",
"QtQtQt.#.j.KrRrSrTpfrUrVrWrXabrYmJmJo6n2fDjcjcrZr0r1r2r3qs#Ir4r5r6r7r8r9s.s#saababsbrGkBp.sclasdsesfsgshsisjsk.5sleb.#QtQtQtQtQt",
"QtQtQt.#sm.asnso#fpfspsqsraaadssrpstsususvswswsxsysyszszsAsBsCsDsEsFsGsHsIsJsKsIsLsMoLsNeLscsckBsOsPsQsRsSsTsUsVeQebQtQtQtQtQtQt",
"QtQtQt.#.k.abzcUqMsWsXsYsZs0bjs1s2bkbWl.s3s4s5s6s7fArod0s8pos9t.t#tatbgzgztctdtetftgthtidnfqfqtjtktltmtntotptqtrtsebQtQtQtQtQtQt",
"QtQtQt.#Qt.kebtttuqmtvtwtxtytzbktAbYtBtCtDtEdTtF#GgUtGtH#Gs#tItJtKtLtMtNtOrAf1q4tPtQtRtSf6sctTr9tUb0tVtWtXtYtZ.2.#.#.#QtQtQtQtQt",
"QtQtQtQteb.jQtt0t1#fpit2t3t4t5t6t7t8t9u.u#uaj7abubucm9abtzudueuftKuguhuiujukabsculumunuoupuqurusutuu.8aZuvnjaW.k.k.#.#QtQtQtQtQt",
"QtQtQtQtuw.juxbxuyaU.tuzuAuBuCoKuDuEuFuGuHuIoiuJuKn.q2absbq2rDuLuMn.uNuOuPtkoguQnQnQuRuSuTuUuVuWuXn3uYuZj4u0u1.k.cQtQtQtQtQtQtQt",
"QtQtQtQt.j.jsm.alfePu2u3u4u5u6u7u8u9v.v#vavbvbvcuJvavdtzveq5vfmwvgaNjnd3d3vhvhnQkBnQvivjvkvlvmvnvovppLvqc#vrvs.#.jQtQtQtQtQtQtQt",
"QtQtQtQt.j.j.j.2.kvtvuvvvwvxvyvzgGvAvBvCvDvEjmvFrFnQvGvHnQnQlQvIvJjmp.eLnQnQnQnQvKvLvMhyvNvOvPvQvRvS.peSdwux.#.#.jQtQtQtQtQtQtQt",
"QtQtQtQt.j.j.j.#.#.c.ku1tvaUvTvUvVaJvWuGvXvYjnnQvenQkBkBvZv0v0v1v2kAkAkBsckBkBkBkDmIv3v4v5v6v7v8v9pLu0w.Qt.j.j.#.jQtQtQtQtQtQtQt",
"QtQtQtQtQtQtQtQtQt.jQt.bcau0w#wawbmCwcwddmwednwfwgjmwhwiwjwkwlwmwnq5q5vescwocYs.wprDwqwrlh#aws.Hwtwu.b.k.j.j.j.j.jQtQtQtQtQtQtQt",
"QtQtQtQtQtQtQtQtQtQtQt.#wvwwtpwxwywzwAwBwCwDwEwFwGwHwIwGwJwKwLwMwNwOuqwPtjwQwR#CwSwCwTwUwVwWwXbvwYwZ.#Qt.j.j.j.j.jQtQtQtQtQtQtQt",
"QtQtQtQtQtQtQtQtQtQtQtQt.cQt.2aXt1w0tq.H.Hw1jpw2w3gaw4w5u.w6hS#5ryuKw7w8jquYw9x.x#tv.ExagP.C.n.2.zebQtQtQtQtQtQtQtQtQtQtQtQtQtQt",
"QtQtQtQtQtQtQtQtQtQtQtQt.c.j.#wv#Rhutqj1nixbxcxdxe.Vxfxgxhxixjxkxlxmxnp7#OxexoxplVqMxqxrxs.4xt.j.#ebQtQtQtQtQtQtQtQtQtQtQtQtQtQt",
"QtQtQtQtQtQtQtQtQtQtQtQtQtQt.c.#.j.#xuxvcaxwxxxy.F.Fxz#.xAxBmCmCmCxCxDxEeexFee.ExGh9.Awv.K.#.#.c.cQtQtQtQtQtQtQtQtQtQtQtQtQtQtQt",
"QtQtQtQtQtQtQtQtQtQtQtQtQtQt.#.c.j.#xHxIxJxKxLcOh6xMxNxOxPxPxPxPxPxPxQxRxSxTcUcUxUrexVts.#.#.c.#.#.cQtQtQtQtQtQtQtQtQtQtQtQtQtQt",
"QtQtQtQtQtQtQtQtQtQtQtQtQtQtQtQtQt.jQt.#.kxHfw.Bc#c#xW.Oj1.GxqxqxqxXiQxYxZx0x1kHdw.#eb.#.j.cQtQtQtQtQtQtQtQtQtQtQtQtQtQtQtQtQtQt",
"QtQtQtQtQtQtQtQtQtQtQtQtQtQtQtQtQtQtQtQt.c.#.k.k.k.zh8htx2x3rRrRx3cax4.2.zhth8ht.z.j.#QtQtQtQtQtQtQtQtQtQtQtQtQtQtQtQtQtQtQtQtQt",
"QtQtQtQtQtQtQtQtQtQtQtQtQtQtQtQtQtQtQtQt.c.#.c.c.c.#.#.#x5x5wwwwwwecx6.#.#.#.#.#QtQt.#QtQtQtQtQtQtQtQtQtQtQtQtQtQtQtQtQtQtQtQtQt",
"QtQtQtQtQtQtQtQtQtQtQtQtQtQtQtQtQtQtQtQtQtQtQtQtQtQtQt.#.k.c.c.c.c.c.c.cQtQtQtQtQtQtQtQtQtQtQtQtQtQtQtQtQtQtQtQtQtQtQtQtQtQtQtQt",
"QtQtQtQtQtQtQtQtQtQtQtQtQtQtQtQtQtQtQtQtQtQtQtQtQtQtQt.k.k.c.c.c.c.c.c.cQtQtQtQtQtQtQtQtQtQtQtQtQtQtQtQtQtQtQtQtQtQtQtQtQtQtQtQt",
"QtQtQtQtQtQtQtQtQtQtQtQtQtQtQtQtQtQtQtQtQtQtQtQtQtQtQtQtQtQtQtQtQtQtQtQtQtQtQtQtQtQtQtQtQtQtQtQtQtQtQtQtQtQtQtQtQtQtQtQtQtQtQtQt",
"QtQtQtQtQtQtQtQtQtQtQtQtQtQtQtQtQtQtQtQtQtQtQtQtQtQtQtQtQtQtQtQtQtQtQtQtQtQtQtQtQtQtQtQtQtQtQtQtQtQtQtQtQtQtQtQtQtQtQtQtQtQtQtQt"};
