/* XPM */
static char *dummy[]={
"64 64 8 1",
"c c #4b5145",
"d c #525a51",
"b c #5b625e",
"a c #636c6d",
"e c #6c716b",
". c #76776f",
"# c #85837a",
"f c #918e80",
"....########............############............############....",
"....########............############............############....",
"....########............############............############....",
"....########............############............############....",
"####aaaabbbbbbbbbbbbbbbbbbbbbbbbbbbbbbbbbbbbbbbbbbbbaaaa........",
"####aaaabbbbbbbbbbbbbbbbbbbbbbbbbbbbbbbbbbbbbbbbbbbbaaaa........",
"####aaaabbbbbbbbbbbbbbbbbbbbbbbbbbbbbbbbbbbbbbbbbbbbaaaa........",
"####aaaabbbbbbbbbbbbbbbbbbbbbbbbbbbbbbbbbbbbbbbbbbbbaaaa........",
"####bbbbccccccccccccccccccccccccccccddddccccddddddddeeeeeeee####",
"####bbbbccccccccccccccccccccccccccccddddccccddddddddeeeeeeee####",
"####bbbbccccccccccccccccccccccccccccddddccccddddddddeeeeeeee####",
"####bbbbccccccccccccccccccccccccccccddddccccddddddddeeeeeeee####",
"....bbbbddddccccccccccccccccccccccccccccdddddddd....####aaaa....",
"....bbbbddddccccccccccccccccccccccccccccdddddddd....####aaaa....",
"....bbbbddddccccccccccccccccccccccccccccdddddddd....####aaaa....",
"....bbbbddddccccccccccccccccccccccccccccdddddddd....####aaaa....",
"....bbbbccccdddd########....eeee........eeeeeeee########aaaa####",
"....bbbbccccdddd########....eeee........eeeeeeee########aaaa####",
"....bbbbccccdddd########....eeee........eeeeeeee########aaaa####",
"....bbbbccccdddd########....eeee........eeeeeeee########aaaa####",
"....bbbbddddcccceeeeaaaaeeee............eeeeeeeeffff####aaaa####",
"....bbbbddddcccceeeeaaaaeeee............eeeeeeeeffff####aaaa####",
"....bbbbddddcccceeeeaaaaeeee............eeeeeeeeffff####aaaa####",
"....bbbbddddcccceeeeaaaaeeee............eeeeeeeeffff####aaaa####",
"####bbbbddddddddaaaaeeee............eeeeeeeeeeeeffff####aaaa####",
"####bbbbddddddddaaaaeeee............eeeeeeeeeeeeffff####aaaa####",
"####bbbbddddddddaaaaeeee............eeeeeeeeeeeeffff####aaaa####",
"####bbbbddddddddaaaaeeee............eeeeeeeeeeeeffff####aaaa####",
"####bbbbddddddddeeee............eeeeeeeeeeeeaaaaffffffffaaaa....",
"####bbbbddddddddeeee............eeeeeeeeeeeeaaaaffffffffaaaa....",
"####bbbbddddddddeeee............eeeeeeeeeeeeaaaaffffffffaaaa....",
"####bbbbddddddddeeee............eeeeeeeeeeeeaaaaffffffffaaaa....",
"####bbbbdddddddd............eeeeeeeeeeeeaaaaaaaaffffffffaaaa####",
"####bbbbdddddddd............eeeeeeeeeeeeaaaaaaaaffffffffaaaa####",
"####bbbbdddddddd............eeeeeeeeeeeeaaaaaaaaffffffffaaaa####",
"####bbbbdddddddd............eeeeeeeeeeeeaaaaaaaaffffffffaaaa####",
"....bbbbddddbbbb........eeeeeeeeeeeeaaaaaaaaeeeeffffffffaaaa####",
"....bbbbddddbbbb........eeeeeeeeeeeeaaaaaaaaeeeeffffffffaaaa####",
"....bbbbddddbbbb........eeeeeeeeeeeeaaaaaaaaeeeeffffffffaaaa####",
"....bbbbddddbbbb........eeeeeeeeeeeeaaaaaaaaeeeeffffffffaaaa####",
"....bbbbdddddddd....eeeeeeeeeeeeaaaaaaaaeeee....ffffffffeeee####",
"....bbbbdddddddd....eeeeeeeeeeeeaaaaaaaaeeee....ffffffffeeee####",
"....bbbbdddddddd....eeeeeeeeeeeeaaaaaaaaeeee....ffffffffeeee####",
"....bbbbdddddddd....eeeeeeeeeeeeaaaaaaaaeeee....ffffffffeeee####",
"####bbbbddddbbbbeeeeeeeeeeeeaaaaaaaaeeee........ffffffffeeee####",
"####bbbbddddbbbbeeeeeeeeeeeeaaaaaaaaeeee........ffffffffeeee####",
"####bbbbddddbbbbeeeeeeeeeeeeaaaaaaaaeeee........ffffffffeeee####",
"####bbbbddddbbbbeeeeeeeeeeeeaaaaaaaaeeee........ffffffffeeee####",
"####bbbbeeeeeeee........########################ffffffffeeee....",
"####bbbbeeeeeeee........########################ffffffffeeee....",
"####bbbbeeeeeeee........########################ffffffffeeee....",
"####bbbbeeeeeeee........########################ffffffffeeee....",
"....aaaaeeee........####....########################ffffeeee....",
"....aaaaeeee........####....########################ffffeeee....",
"....aaaaeeee........####....########################ffffeeee....",
"....aaaaeeee........####....########################ffffeeee....",
"####eeeeaaaaaaaaaaaaaaaaaaaaaaaaeeeeaaaaeeeeeeeeeeeeeeee........",
"####eeeeaaaaaaaaaaaaaaaaaaaaaaaaeeeeaaaaeeeeeeeeeeeeeeee........",
"####eeeeaaaaaaaaaaaaaaaaaaaaaaaaeeeeaaaaeeeeeeeeeeeeeeee........",
"####eeeeaaaaaaaaaaaaaaaaaaaaaaaaeeeeaaaaeeeeeeeeeeeeeeee........",
"........############............########........########....####",
"........############............########........########....####",
"........############............########........########....####",
"........############............########........########....####"};
